personal-map-app/personal-map-app/photo-sticker-lab/luts/paper-rose.cube
# 由 tools/bake_luts.py 生成，请勿手改。
# 来源 CSS filter 链: saturate(.55) sepia(.3) hue-rotate(310deg) contrast(.9) brightness(1.1)
# 说明: 偏玫瑰色的柔和调性，来自撕页染色一类实验。
TITLE "paper-rose"
LUT_3D_SIZE 5
DOMAIN_MIN 0.000000 0.000000 0.000000
DOMAIN_MAX 1.000000 1.000000 1.000000
0.055000 0.055000 0.055000
0.184433 0.089915 0.157962
0.313866 0.124829 0.260924
0.443299 0.159744 0.363886
0.572732 0.194659 0.466848
0.258741 0.239587 0.136640
0.388174 0.274501 0.239602
0.517607 0.309416 0.342564
0.647040 0.344331 0.445526
0.776473 0.379246 0.548488
0.462482 0.424173 0.218281
0.591915 0.459088 0.321243
0.721348 0.494003 0.424205
0.850781 0.528918 0.527167
0.980214 0.563832 0.630128
0.666223 0.608760 0.299921
0.795656 0.643675 0.402883
0.925089 0.678589 0.505845
1.000000 0.713504 0.608807
1.000000 0.748419 0.711769
0.869964 0.793347 0.381562
0.999396 0.828261 0.484523
1.000000 0.863176 0.587485
1.000000 0.898091 0.690447
1.000000 0.934274 0.767663
0.055000 0.092914 0.128318
0.137057 0.127829 0.231279
0.266490 0.162743 0.334241
0.395923 0.197658 0.437203
0.525356 0.232573 0.540165
0.211365 0.277501 0.209958
0.340798 0.312415 0.312920
0.470231 0.347330 0.415882
0.599664 0.382245 0.518844
0.729097 0.417160 0.621806
0.415106 0.462087 0.291598
0.544539 0.497002 0.394560
0.673972 0.531917 0.497522
0.803405 0.566832 0.600484
0.932838 0.601746 0.703446
0.618847 0.646674 0.373239
0.748280 0.681589 0.476201
0.877713 0.716503 0.579163
1.000000 0.751418 0.682125
1.000000 0.786333 0.785086
0.822588 0.831261 0.454879
0.952021 0.866175 0.557841
1.000000 0.901090 0.660803
1.000000 0.936005 0.763765
1.000000 0.961522 0.833869
0.055000 0.130828 0.201635
0.089681 0.165743 0.304597
0.219114 0.200657 0.407559
0.348547 0.235572 0.510521
0.477980 0.270487 0.613483
0.163989 0.315415 0.283275
0.293422 0.350329 0.386237
0.422855 0.385244 0.489199
0.552288 0.420159 0.592161
0.681721 0.455074 0.695123
0.367730 0.500001 0.364916
0.497163 0.534916 0.467878
0.626596 0.569831 0.570840
0.756029 0.604745 0.673802
0.885462 0.639660 0.776764
0.571471 0.684588 0.446556
0.700904 0.719503 0.549518
0.830337 0.754417 0.652480
0.959770 0.789332 0.755442
1.000000 0.824247 0.858404
0.775212 0.869175 0.528197
0.904645 0.904089 0.631159
1.000000 0.939004 0.734121
1.000000 0.973919 0.837082
1.000000 0.987835 0.900421
0.055000 0.168742 0.274953
0.055000 0.203657 0.377915
0.171738 0.238571 0.480877
0.301171 0.273486 0.583838
0.430604 0.308401 0.686800
0.116613 0.353329 0.356593
0.246046 0.388243 0.459555
0.375479 0.423158 0.562517
0.504912 0.458073 0.665479
0.634345 0.492988 0.768441
0.320354 0.537915 0.438233
0.449787 0.572830 0.541195
0.579220 0.607745 0.644157
0.708653 0.642659 0.747119
0.838086 0.677574 0.850081
0.524095 0.722502 0.519874
0.653528 0.757417 0.622836
0.782961 0.792331 0.725798
0.912394 0.827246 0.828760
1.000000 0.862161 0.931722
0.727836 0.907089 0.601514
0.857269 0.942003 0.704476
0.986702 0.976918 0.807438
1.000000 1.000000 0.912009
1.000000 1.000000 0.966972
0.055000 0.206656 0.348270
0.055000 0.241571 0.451232
0.124362 0.276485 0.554194
0.253795 0.311400 0.657156
0.383228 0.346315 0.760118
0.069237 0.391243 0.429911
0.198670 0.426157 0.532873
0.328103 0.461072 0.635834
0.457536 0.495987 0.738796
0.586969 0.530902 0.841758
0.272978 0.575829 0.511551
0.402411 0.610744 0.614513
0.531844 0.645659 0.717475
0.661277 0.680573 0.820437
0.790710 0.715488 0.923399
0.476719 0.760416 0.593191
0.606152 0.795331 0.696153
0.735585 0.830245 0.799115
0.865018 0.865160 0.902077
0.994451 0.900075 1.000000
0.680460 0.945003 0.674832
0.809893 0.979917 0.777794
0.939326 1.000000 0.880756
1.000000 1.000000 0.989819
1.000000 1.000000 1.000000
