personal-map-app/personal-map-app/photo-sticker-lab/luts/paper-muted.cube
# 由 tools/bake_luts.py 生成，请勿手改。
# 来源 CSS filter 链: saturate(.65) contrast(1.03) brightness(.68)
# 说明: 扫描页调性，低饱和压暗，最接近原型的纸感基调。
TITLE "paper-muted"
LUT_3D_SIZE 5
DOMAIN_MIN 0.000000 0.000000 0.000000
DOMAIN_MAX 1.000000 1.000000 1.000000
0.000000 0.000000 0.000000
0.116669 0.002854 0.002854
0.243537 0.015907 0.015907
0.370406 0.028961 0.028961
0.497275 0.042015 0.042015
0.033619 0.147434 0.033619
0.160487 0.160487 0.046672
0.287356 0.173541 0.059726
0.414225 0.186595 0.072780
0.541094 0.199649 0.085834
0.077438 0.305068 0.077438
0.204306 0.318121 0.090491
0.331175 0.331175 0.103545
0.458044 0.344229 0.116599
0.584912 0.357282 0.129652
0.121256 0.462701 0.121256
0.248125 0.475755 0.134310
0.374994 0.488809 0.147364
0.501862 0.501862 0.160417
0.628731 0.514916 0.173471
0.165075 0.620335 0.165075
0.291944 0.633389 0.178129
0.418813 0.646443 0.191183
0.545681 0.659496 0.204236
0.672550 0.672550 0.217290
0.000000 0.000000 0.108028
0.121081 0.007266 0.121081
0.247950 0.020320 0.134135
0.374819 0.033374 0.147189
0.501687 0.046427 0.160242
0.038031 0.151846 0.151846
0.164900 0.164900 0.164900
0.291769 0.177954 0.177954
0.418637 0.191007 0.191007
0.545506 0.204061 0.204061
0.081850 0.309480 0.195665
0.208719 0.322534 0.208719
0.335587 0.335587 0.221772
0.462456 0.348641 0.234826
0.589325 0.361695 0.247880
0.125669 0.467114 0.239484
0.252538 0.480168 0.252538
0.379406 0.493221 0.265591
0.506275 0.506275 0.278645
0.633144 0.519329 0.291699
0.169488 0.624748 0.283303
0.296356 0.637801 0.296356
0.423225 0.650855 0.309410
0.550094 0.663909 0.322464
0.676962 0.676962 0.335517
0.000000 0.000000 0.226255
0.125494 0.011679 0.239309
0.252362 0.024732 0.252362
0.379231 0.037786 0.265416
0.506100 0.050840 0.278470
0.042444 0.156259 0.270074
0.169313 0.169313 0.283128
0.296181 0.182366 0.296181
0.423050 0.195420 0.309235
0.549919 0.208474 0.322289
0.086263 0.313893 0.313893
0.213131 0.326946 0.326946
0.340000 0.340000 0.340000
0.466869 0.353054 0.353054
0.593737 0.366107 0.366107
0.130081 0.471526 0.357711
0.256950 0.484580 0.370765
0.383819 0.497634 0.383819
0.510687 0.510687 0.396872
0.637556 0.523741 0.409926
0.173900 0.629160 0.401530
0.300769 0.642214 0.414584
0.427638 0.655268 0.427638
0.554506 0.668321 0.440691
0.680000 0.680000 0.453745
0.003038 0.003038 0.344483
0.129906 0.016091 0.357536
0.256775 0.029145 0.370590
0.383644 0.042199 0.383644
0.510512 0.055252 0.396697
0.046856 0.160671 0.388301
0.173725 0.173725 0.401355
0.300594 0.186779 0.414409
0.427462 0.199832 0.427462
0.554331 0.212886 0.440516
0.090675 0.318305 0.432120
0.217544 0.331359 0.445174
0.344413 0.344413 0.458228
0.471281 0.357466 0.471281
0.598150 0.370520 0.484335
0.134494 0.475939 0.475939
0.261363 0.488993 0.488993
0.388231 0.502046 0.502046
0.515100 0.515100 0.515100
0.641969 0.528154 0.528154
0.178313 0.633573 0.519758
0.305181 0.646626 0.532811
0.432050 0.659680 0.545865
0.558919 0.672734 0.558919
0.680000 0.680000 0.571972
0.007450 0.007450 0.462710
0.134319 0.020504 0.475764
0.261187 0.033557 0.488817
0.388056 0.046611 0.501871
0.514925 0.059665 0.514925
0.051269 0.165084 0.506529
0.178138 0.178138 0.519583
0.305006 0.191191 0.532636
0.431875 0.204245 0.545690
0.558744 0.217299 0.558744
0.095088 0.322718 0.550348
0.221956 0.335771 0.563401
0.348825 0.348825 0.576455
0.475694 0.361879 0.589509
0.602562 0.374932 0.602562
0.138906 0.480351 0.594166
0.265775 0.493405 0.607220
0.392644 0.506459 0.620274
0.519513 0.519513 0.633328
0.646381 0.532566 0.646381
0.182725 0.637985 0.637985
0.309594 0.651039 0.651039
0.436463 0.664093 0.664093
0.563331 0.677146 0.677146
0.680000 0.680000 0.680000
