personal-map-app/personal-map-app/photo-sticker-lab/luts/paper-deep.cube
# 由 tools/bake_luts.py 生成，请勿手改。
# 来源 CSS filter 链: saturate(.72) contrast(1.1) brightness(.62)
# 说明: 更重的压暗高对比，适合需要主体沉下去的场景。
TITLE "paper-deep"
LUT_3D_SIZE 33
DOMAIN_MIN 0.000000 0.000000 0.000000
DOMAIN_MAX 1.000000 1.000000 1.000000
0.000000 0.000000 0.000000
0.000000 0.000000 0.000000
0.002232 0.000000 0.000000
0.018848 0.000000 0.000000
0.035464 0.000000 0.000000
0.052080 0.000000 0.000000
0.068696 0.000000 0.000000
0.085313 0.000000 0.000000
0.101929 0.000000 0.000000
0.118545 0.000000 0.000000
0.135161 0.000000 0.000000
0.151777 0.000000 0.000000
0.168393 0.000000 0.000000
0.185009 0.000000 0.000000
0.201625 0.000000 0.000000
0.218241 0.000000 0.000000
0.234857 0.000000 0.000000
0.251473 0.000000 0.000000
0.268089 0.000000 0.000000
0.284705 0.000000 0.000000
0.301322 0.000000 0.000000
0.317938 0.000000 0.000000
0.334554 0.000000 0.000000
0.351170 0.000000 0.000000
0.367786 0.000000 0.000000
0.384402 0.000777 0.000777
0.401018 0.002048 0.002048
0.417634 0.003319 0.003319
0.434250 0.004590 0.004590
0.450866 0.005861 0.005861
0.467482 0.007132 0.007132
0.484098 0.008403 0.008403
0.500714 0.009674 0.009674
0.000000 0.000000 0.000000
0.000000 0.000000 0.000000
0.006499 0.000000 0.000000
0.023115 0.000000 0.000000
0.039731 0.000000 0.000000
0.056347 0.000000 0.000000
0.072963 0.000000 0.000000
0.089579 0.000000 0.000000
0.106195 0.000000 0.000000
0.122811 0.000051 0.000000
0.139428 0.001323 0.000000
0.156044 0.002594 0.000000
0.172660 0.003865 0.000000
0.189276 0.005136 0.000000
0.205892 0.006407 0.000000
0.222508 0.007678 0.000000
0.239124 0.008949 0.000000
0.255740 0.010220 0.000000
0.272356 0.011491 0.000000
0.288972 0.012762 0.000000
0.305588 0.014033 0.000000
0.322204 0.015304 0.000000
0.338820 0.016575 0.001230
0.355437 0.017847 0.002502
0.372053 0.019118 0.003773
0.388669 0.020389 0.005044
0.405285 0.021660 0.006315
0.421901 0.022931 0.007586
0.438517 0.024202 0.008857
0.455133 0.025473 0.010128
0.471749 0.026744 0.011399
0.488365 0.028015 0.012670
0.504981 0.029286 0.013941
0.000000 0.008224 0.000000
0.000000 0.009495 0.000000
0.010766 0.010766 0.000000
0.027382 0.012037 0.000000
0.043998 0.013308 0.000000
0.060614 0.014579 0.000000
0.077230 0.015850 0.000000
0.093846 0.017121 0.000000
0.110462 0.018392 0.000000
0.127078 0.019663 0.000000
0.143694 0.020934 0.000000
0.160310 0.022205 0.000000
0.176926 0.023476 0.000000
0.193543 0.024748 0.000000
0.210159 0.026019 0.000000
0.226775 0.027290 0.000000
0.243391 0.028561 0.000000
0.260007 0.029832 0.000000
0.276623 0.031103 0.000413
0.293239 0.032374 0.001684
0.309855 0.033645 0.002955
0.326471 0.034916 0.004226
0.343087 0.036187 0.005497
0.359703 0.037458 0.006768
0.376319 0.038729 0.008039
0.392935 0.040000 0.009310
0.409552 0.041272 0.010582
0.426168 0.042543 0.011853
0.442784 0.043814 0.013124
0.459400 0.045085 0.014395
0.476016 0.046356 0.015666
0.492632 0.047627 0.016937
0.509248 0.048898 0.018208
0.000000 0.027835 0.000000
0.000000 0.029106 0.000000
0.015032 0.030377 0.000000
0.031649 0.031649 0.000000
0.048265 0.032920 0.000000
0.064881 0.034191 0.000000
0.081497 0.035462 0.000000
0.098113 0.036733 0.000000
0.114729 0.038004 0.000000
0.131345 0.039275 0.000000
0.147961 0.040546 0.000000
0.164577 0.041817 0.000000
0.181193 0.043088 0.000000
0.197809 0.044359 0.000000
0.214425 0.045630 0.000000
0.231041 0.046901 0.000866
0.247658 0.048173 0.002138
0.264274 0.049444 0.003409
0.280890 0.050715 0.004680
0.297506 0.051986 0.005951
0.314122 0.053257 0.007222
0.330738 0.054528 0.008493
0.347354 0.055799 0.009764
0.363970 0.057070 0.011035
0.380586 0.058341 0.012306
0.397202 0.059612 0.013577
0.413818 0.060883 0.014848
0.430434 0.062154 0.016119
0.447050 0.063425 0.017390
0.463667 0.064697 0.018662
0.480283 0.065968 0.019933
0.496899 0.067239 0.021204
0.513515 0.068510 0.022475
0.000000 0.047447 0.000000
0.002683 0.048718 0.000000
0.019299 0.049989 0.000000
0.035915 0.051260 0.000000
0.052531 0.052531 0.000000
0.069147 0.053802 0.000000
0.085764 0.055074 0.000000
0.102380 0.056345 0.000000
0.118996 0.057616 0.000000
0.135612 0.058887 0.000000
0.152228 0.060158 0.000000
0.168844 0.061429 0.000049
0.185460 0.062700 0.001320
0.202076 0.063971 0.002591
0.218692 0.065242 0.003862
0.235308 0.066513 0.005133
0.251924 0.067784 0.006404
0.268540 0.069055 0.007675
0.285156 0.070326 0.008946
0.301773 0.071598 0.010218
0.318389 0.072869 0.011489
0.335005 0.074140 0.012760
0.351621 0.075411 0.014031
0.368237 0.076682 0.015302
0.384853 0.077953 0.016573
0.401469 0.079224 0.017844
0.418085 0.080495 0.019115
0.434701 0.081766 0.020386
0.451317 0.083037 0.021657
0.467933 0.084308 0.022928
0.484549 0.085579 0.024199
0.501165 0.086850 0.025470
0.517782 0.088122 0.026742
0.000000 0.067059 0.000000
0.006950 0.068330 0.000000
0.023566 0.069601 0.000000
0.040182 0.070872 0.000000
0.056798 0.072143 0.000000
0.073414 0.073414 0.000000
0.090030 0.074685 0.000000
0.106646 0.075956 0.000000
0.123262 0.077227 0.000502
0.139879 0.078499 0.001774
0.156495 0.079770 0.003045
0.173111 0.081041 0.004316
0.189727 0.082312 0.005587
0.206343 0.083583 0.006858
0.222959 0.084854 0.008129
0.239575 0.086125 0.009400
0.256191 0.087396 0.010671
0.272807 0.088667 0.011942
0.289423 0.089938 0.013213
0.306039 0.091209 0.014484
0.322655 0.092480 0.015755
0.339271 0.093751 0.017026
0.355888 0.095023 0.018298
0.372504 0.096294 0.019569
0.389120 0.097565 0.020840
0.405736 0.098836 0.022111
0.422352 0.100107 0.023382
0.438968 0.101378 0.024653
0.455584 0.102649 0.025924
0.472200 0.103920 0.027195
0.488816 0.105191 0.028466
0.505432 0.106462 0.029737
0.522048 0.107733 0.031008
0.000000 0.086671 0.000000
0.011217 0.087942 0.000000
0.027833 0.089213 0.000000
0.044449 0.090484 0.000000
0.061065 0.091755 0.000000
0.077681 0.093026 0.000956
0.094297 0.094297 0.002227
0.110913 0.095568 0.003498
0.127529 0.096839 0.004769
0.144145 0.098110 0.006040
0.160761 0.099381 0.007311
0.177377 0.100652 0.008582
0.193994 0.101924 0.009854
0.210610 0.103195 0.011125
0.227226 0.104466 0.012396
0.243842 0.105737 0.013667
0.260458 0.107008 0.014938
0.277074 0.108279 0.016209
0.293690 0.109550 0.017480
0.310306 0.110821 0.018751
0.326922 0.112092 0.020022
0.343538 0.113363 0.021293
0.360154 0.114634 0.022564
0.376770 0.115905 0.023835
0.393386 0.117176 0.025106
0.410003 0.118448 0.026378
0.426619 0.119719 0.027649
0.443235 0.120990 0.028920
0.459851 0.122261 0.030191
0.476467 0.123532 0.031462
0.493083 0.124803 0.032733
0.509699 0.126074 0.034004
0.526315 0.127345 0.035275
0.000000 0.106282 0.000000
0.015483 0.107553 0.000138
0.032099 0.108824 0.001409
0.048716 0.110096 0.002681
0.065332 0.111367 0.003952
0.081948 0.112638 0.005223
0.098564 0.113909 0.006494
0.115180 0.115180 0.007765
0.131796 0.116451 0.009036
0.148412 0.117722 0.010307
0.165028 0.118993 0.011578
0.181644 0.120264 0.012849
0.198260 0.121535 0.014120
0.214876 0.122806 0.015391
0.231492 0.124077 0.016662
0.248109 0.125348 0.017933
0.264725 0.126620 0.019205
0.281341 0.127891 0.020476
0.297957 0.129162 0.021747
0.314573 0.130433 0.023018
0.331189 0.131704 0.024289
0.347805 0.132975 0.025560
0.364421 0.134246 0.026831
0.381037 0.135517 0.028102
0.397653 0.136788 0.029373
0.414269 0.138059 0.030644
0.430885 0.139330 0.031915
0.447501 0.140601 0.033186
0.464118 0.141873 0.034458
0.480734 0.143144 0.035729
0.497350 0.144415 0.037000
0.513966 0.145686 0.038271
0.530582 0.146957 0.039542
0.003134 0.125894 0.003134
0.019750 0.127165 0.004405
0.036366 0.128436 0.005676
0.052982 0.129707 0.006947
0.069598 0.130978 0.008218
0.086214 0.132249 0.009489
0.102831 0.133521 0.010761
0.119447 0.134792 0.012032
0.136063 0.136063 0.013303
0.152679 0.137334 0.014574
0.169295 0.138605 0.015845
0.185911 0.139876 0.017116
0.202527 0.141147 0.018387
0.219143 0.142418 0.019658
0.235759 0.143689 0.020929
0.252375 0.144960 0.022200
0.268991 0.146231 0.023471
0.285607 0.147502 0.024742
0.302223 0.148773 0.026013
0.318840 0.150045 0.027285
0.335456 0.151316 0.028556
0.352072 0.152587 0.029827
0.368688 0.153858 0.031098
0.385304 0.155129 0.032369
0.401920 0.156400 0.033640
0.418536 0.157671 0.034911
0.435152 0.158942 0.036182
0.451768 0.160213 0.037453
0.468384 0.161484 0.038724
0.485000 0.162755 0.039995
0.501616 0.164026 0.041266
0.518233 0.165298 0.042538
0.534849 0.166569 0.043809
0.007401 0.145506 0.007401
0.024017 0.146777 0.008672
0.040633 0.148048 0.009943
0.057249 0.149319 0.011214
0.073865 0.150590 0.012485
0.090481 0.151861 0.013756
0.107097 0.153132 0.015027
0.123713 0.154403 0.016298
0.140329 0.155674 0.017569
0.156946 0.156946 0.018841
0.173562 0.158217 0.020112
0.190178 0.159488 0.021383
0.206794 0.160759 0.022654
0.223410 0.162030 0.023925
0.240026 0.163301 0.025196
0.256642 0.164572 0.026467
0.273258 0.165843 0.027738
0.289874 0.167114 0.029009
0.306490 0.168385 0.030280
0.323106 0.169656 0.031551
0.339722 0.170927 0.032822
0.356338 0.172198 0.034093
0.372955 0.173470 0.035365
0.389571 0.174741 0.036636
0.406187 0.176012 0.037907
0.422803 0.177283 0.039178
0.439419 0.178554 0.040449
0.456035 0.179825 0.041720
0.472651 0.181096 0.042991
0.489267 0.182367 0.044262
0.505883 0.183638 0.045533
0.522499 0.184909 0.046804
0.539115 0.186180 0.048075
0.011668 0.165118 0.011668
0.028284 0.166389 0.012939
0.044900 0.167660 0.014210
0.061516 0.168931 0.015481
0.078132 0.170202 0.016752
0.094748 0.171473 0.018023
0.111364 0.172744 0.019294
0.127980 0.174015 0.020565
0.144596 0.175286 0.021836
0.161212 0.176557 0.023107
0.177828 0.177828 0.024378
0.194444 0.179099 0.025649
0.211061 0.180371 0.026921
0.227677 0.181642 0.028192
0.244293 0.182913 0.029463
0.260909 0.184184 0.030734
0.277525 0.185455 0.032005
0.294141 0.186726 0.033276
0.310757 0.187997 0.034547
0.327373 0.189268 0.035818
0.343989 0.190539 0.037089
0.360605 0.191810 0.038360
0.377221 0.193081 0.039631
0.393837 0.194352 0.040902
0.410453 0.195623 0.042173
0.427070 0.196895 0.043445
0.443686 0.198166 0.044716
0.460302 0.199437 0.045987
0.476918 0.200708 0.047258
0.493534 0.201979 0.048529
0.510150 0.203250 0.049800
0.526766 0.204521 0.051071
0.543382 0.205792 0.052342
0.015934 0.184729 0.015934
0.032550 0.186000 0.017205
0.049167 0.187272 0.018477
0.065783 0.188543 0.019748
0.082399 0.189814 0.021019
0.099015 0.191085 0.022290
0.115631 0.192356 0.023561
0.132247 0.193627 0.024832
0.148863 0.194898 0.026103
0.165479 0.196169 0.027374
0.182095 0.197440 0.028645
0.198711 0.198711 0.029916
0.215327 0.199982 0.031187
0.231943 0.201253 0.032458
0.248559 0.202524 0.033729
0.265176 0.203796 0.035001
0.281792 0.205067 0.036272
0.298408 0.206338 0.037543
0.315024 0.207609 0.038814
0.331640 0.208880 0.040085
0.348256 0.210151 0.041356
0.364872 0.211422 0.042627
0.381488 0.212693 0.043898
0.398104 0.213964 0.045169
0.414720 0.215235 0.046440
0.431336 0.216506 0.047711
0.447952 0.217777 0.048982
0.464568 0.219048 0.050253
0.481185 0.220320 0.051525
0.497801 0.221591 0.052796
0.514417 0.222862 0.054067
0.531033 0.224133 0.055338
0.547649 0.225404 0.056609
0.020201 0.204341 0.020201
0.036817 0.205612 0.021472
0.053433 0.206883 0.022743
0.070049 0.208154 0.024014
0.086665 0.209425 0.025285
0.103282 0.210697 0.026557
0.119898 0.211968 0.027828
0.136514 0.213239 0.029099
0.153130 0.214510 0.030370
0.169746 0.215781 0.031641
0.186362 0.217052 0.032912
0.202978 0.218323 0.034183
0.219594 0.219594 0.035454
0.236210 0.220865 0.036725
0.252826 0.222136 0.037996
0.269442 0.223407 0.039267
0.286058 0.224678 0.040538
0.302674 0.225949 0.041809
0.319291 0.227221 0.043081
0.335907 0.228492 0.044352
0.352523 0.229763 0.045623
0.369139 0.231034 0.046894
0.385755 0.232305 0.048165
0.402371 0.233576 0.049436
0.418987 0.234847 0.050707
0.435603 0.236118 0.051978
0.452219 0.237389 0.053249
0.468835 0.238660 0.054520
0.485451 0.239931 0.055791
0.502067 0.241202 0.057062
0.518683 0.242473 0.058333
0.535300 0.243745 0.059605
0.551916 0.245016 0.060876
0.024468 0.223953 0.024468
0.041084 0.225224 0.025739
0.057700 0.226495 0.027010
0.074316 0.227766 0.028281
0.090932 0.229037 0.029552
0.107548 0.230308 0.030823
0.124164 0.231579 0.032094
0.140780 0.232850 0.033365
0.157397 0.234122 0.034637
0.174013 0.235393 0.035908
0.190629 0.236664 0.037179
0.207245 0.237935 0.038450
0.223861 0.239206 0.039721
0.240477 0.240477 0.040992
0.257093 0.241748 0.042263
0.273709 0.243019 0.043534
0.290325 0.244290 0.044805
0.306941 0.245561 0.046076
0.323557 0.246832 0.047347
0.340173 0.248103 0.048618
0.356789 0.249374 0.049889
0.373406 0.250646 0.051161
0.390022 0.251917 0.052432
0.406638 0.253188 0.053703
0.423254 0.254459 0.054974
0.439870 0.255730 0.056245
0.456486 0.257001 0.057516
0.473102 0.258272 0.058787
0.489718 0.259543 0.060058
0.506334 0.260814 0.061329
0.522950 0.262085 0.062600
0.539566 0.263356 0.063871
0.556182 0.264627 0.065142
0.028735 0.243565 0.028735
0.045351 0.244836 0.030006
0.061967 0.246107 0.031277
0.078583 0.247378 0.032548
0.095199 0.248649 0.033819
0.111815 0.249920 0.035090
0.128431 0.251191 0.036361
0.145047 0.252462 0.037632
0.161663 0.253733 0.038903
0.178279 0.255004 0.040174
0.194895 0.256275 0.041445
0.211512 0.257547 0.042717
0.228128 0.258818 0.043988
0.244744 0.260089 0.045259
0.261360 0.261360 0.046530
0.277976 0.262631 0.047801
0.294592 0.263902 0.049072
0.311208 0.265173 0.050343
0.327824 0.266444 0.051614
0.344440 0.267715 0.052885
0.361056 0.268986 0.054156
0.377672 0.270257 0.055427
0.394288 0.271528 0.056698
0.410904 0.272799 0.057969
0.427521 0.274071 0.059241
0.444137 0.275342 0.060512
0.460753 0.276613 0.061783
0.477369 0.277884 0.063054
0.493985 0.279155 0.064325
0.510601 0.280426 0.065596
0.527217 0.281697 0.066867
0.543833 0.282968 0.068138
0.560449 0.284239 0.069409
0.033001 0.263176 0.033001
0.049618 0.264448 0.034273
0.066234 0.265719 0.035544
0.082850 0.266990 0.036815
0.099466 0.268261 0.038086
0.116082 0.269532 0.039357
0.132698 0.270803 0.040628
0.149314 0.272074 0.041899
0.165930 0.273345 0.043170
0.182546 0.274616 0.044441
0.199162 0.275887 0.045712
0.215778 0.277158 0.046983
0.232394 0.278429 0.048254
0.249010 0.279700 0.049525
0.265627 0.280972 0.050797
0.282243 0.282243 0.052068
0.298859 0.283514 0.053339
0.315475 0.284785 0.054610
0.332091 0.286056 0.055881
0.348707 0.287327 0.057152
0.365323 0.288598 0.058423
0.381939 0.289869 0.059694
0.398555 0.291140 0.060965
0.415171 0.292411 0.062236
0.431787 0.293682 0.063507
0.448403 0.294953 0.064778
0.465019 0.296224 0.066049
0.481636 0.297496 0.067321
0.498252 0.298767 0.068592
0.514868 0.300038 0.069863
0.531484 0.301309 0.071134
0.548100 0.302580 0.072405
0.564716 0.303851 0.073676
0.037268 0.282788 0.037268
0.053884 0.284059 0.038539
0.070500 0.285330 0.039810
0.087116 0.286601 0.041081
0.103733 0.287873 0.042353
0.120349 0.289144 0.043624
0.136965 0.290415 0.044895
0.153581 0.291686 0.046166
0.170197 0.292957 0.047437
0.186813 0.294228 0.048708
0.203429 0.295499 0.049979
0.220045 0.296770 0.051250
0.236661 0.298041 0.052521
0.253277 0.299312 0.053792
0.269893 0.300583 0.055063
0.286509 0.301854 0.056334
0.303125 0.303125 0.057605
0.319742 0.304397 0.058877
0.336358 0.305668 0.060148
0.352974 0.306939 0.061419
0.369590 0.308210 0.062690
0.386206 0.309481 0.063961
0.402822 0.310752 0.065232
0.419438 0.312023 0.066503
0.436054 0.313294 0.067774
0.452670 0.314565 0.069045
0.469286 0.315836 0.070316
0.485902 0.317107 0.071587
0.502518 0.318378 0.072858
0.519134 0.319649 0.074129
0.535751 0.320921 0.075401
0.552367 0.322192 0.076672
0.568983 0.323463 0.077943
0.041535 0.302400 0.041535
0.058151 0.303671 0.042806
0.074767 0.304942 0.044077
0.091383 0.306213 0.045348
0.107999 0.307484 0.046619
0.124615 0.308755 0.047890
0.141231 0.310026 0.049161
0.157848 0.311298 0.050433
0.174464 0.312569 0.051704
0.191080 0.313840 0.052975
0.207696 0.315111 0.054246
0.224312 0.316382 0.055517
0.240928 0.317653 0.056788
0.257544 0.318924 0.058059
0.274160 0.320195 0.059330
0.290776 0.321466 0.060601
0.307392 0.322737 0.061872
0.324008 0.324008 0.063143
0.340624 0.325279 0.064414
0.357240 0.326550 0.065685
0.373857 0.327822 0.066957
0.390473 0.329093 0.068228
0.407089 0.330364 0.069499
0.423705 0.331635 0.070770
0.440321 0.332906 0.072041
0.456937 0.334177 0.073312
0.473553 0.335448 0.074583
0.490169 0.336719 0.075854
0.506785 0.337990 0.077125
0.523401 0.339261 0.078396
0.540017 0.340532 0.079667
0.556633 0.341803 0.080938
0.573249 0.343074 0.082209
0.045802 0.322012 0.045802
0.062418 0.323283 0.047073
0.079034 0.324554 0.048344
0.095650 0.325825 0.049615
0.112266 0.327096 0.050886
0.128882 0.328367 0.052157
0.145498 0.329638 0.053428
0.162114 0.330909 0.054699
0.178730 0.332180 0.055970
0.195346 0.333451 0.057241
0.211963 0.334722 0.058513
0.228579 0.335994 0.059784
0.245195 0.337265 0.061055
0.261811 0.338536 0.062326
0.278427 0.339807 0.063597
0.295043 0.341078 0.064868
0.311659 0.342349 0.066139
0.328275 0.343620 0.067410
0.344891 0.344891 0.068681
0.361507 0.346162 0.069952
0.378123 0.347433 0.071223
0.394739 0.348704 0.072494
0.411355 0.349975 0.073765
0.427972 0.351247 0.075037
0.444588 0.352518 0.076308
0.461204 0.353789 0.077579
0.477820 0.355060 0.078850
0.494436 0.356331 0.080121
0.511052 0.357602 0.081392
0.527668 0.358873 0.082663
0.544284 0.360144 0.083934
0.560900 0.361415 0.085205
0.577516 0.362686 0.086476
0.050068 0.341623 0.050068
0.066685 0.342895 0.051340
0.083301 0.344166 0.052611
0.099917 0.345437 0.053882
0.116533 0.346708 0.055153
0.133149 0.347979 0.056424
0.149765 0.349250 0.057695
0.166381 0.350521 0.058966
0.182997 0.351792 0.060237
0.199613 0.353063 0.061508
0.216229 0.354334 0.062779
0.232845 0.355605 0.064050
0.249461 0.356876 0.065321
0.266077 0.358147 0.066592
0.282694 0.359419 0.067864
0.299310 0.360690 0.069135
0.315926 0.361961 0.070406
0.332542 0.363232 0.071677
0.349158 0.364503 0.072948
0.365774 0.365774 0.074219
0.382390 0.367045 0.075490
0.399006 0.368316 0.076761
0.415622 0.369587 0.078032
0.432238 0.370858 0.079303
0.448854 0.372129 0.080574
0.465470 0.373400 0.081845
0.482087 0.374672 0.083117
0.498703 0.375943 0.084388
0.515319 0.377214 0.085659
0.531935 0.378485 0.086930
0.548551 0.379756 0.088201
0.565167 0.381027 0.089472
0.581783 0.382298 0.090743
0.054335 0.361235 0.054335
0.070951 0.362506 0.055606
0.087567 0.363777 0.056877
0.104183 0.365048 0.058148
0.120800 0.366320 0.059420
0.137416 0.367591 0.060691
0.154032 0.368862 0.061962
0.170648 0.370133 0.063233
0.187264 0.371404 0.064504
0.203880 0.372675 0.065775
0.220496 0.373946 0.067046
0.237112 0.375217 0.068317
0.253728 0.376488 0.069588
0.270344 0.377759 0.070859
0.286960 0.379030 0.072130
0.303576 0.380301 0.073401
0.320192 0.381572 0.074672
0.336809 0.382844 0.075944
0.353425 0.384115 0.077215
0.370041 0.385386 0.078486
0.386657 0.386657 0.079757
0.403273 0.387928 0.081028
0.419889 0.389199 0.082299
0.436505 0.390470 0.083570
0.453121 0.391741 0.084841
0.469737 0.393012 0.086112
0.486353 0.394283 0.087383
0.502969 0.395554 0.088654
0.519585 0.396825 0.089925
0.536201 0.398096 0.091196
0.552818 0.399368 0.092468
0.569434 0.400639 0.093739
0.586050 0.401910 0.095010
0.058602 0.380847 0.058602
0.075218 0.382118 0.059873
0.091834 0.383389 0.061144
0.108450 0.384660 0.062415
0.125066 0.385931 0.063686
0.141682 0.387202 0.064957
0.158298 0.388473 0.066228
0.174915 0.389745 0.067500
0.191531 0.391016 0.068771
0.208147 0.392287 0.070042
0.224763 0.393558 0.071313
0.241379 0.394829 0.072584
0.257995 0.396100 0.073855
0.274611 0.397371 0.075126
0.291227 0.398642 0.076397
0.307843 0.399913 0.077668
0.324459 0.401184 0.078939
0.341075 0.402455 0.080210
0.357691 0.403726 0.081481
0.374307 0.404997 0.082752
0.390924 0.406269 0.084024
0.407540 0.407540 0.085295
0.424156 0.408811 0.086566
0.440772 0.410082 0.087837
0.457388 0.411353 0.089108
0.474004 0.412624 0.090379
0.490620 0.413895 0.091650
0.507236 0.415166 0.092921
0.523852 0.416437 0.094192
0.540468 0.417708 0.095463
0.557084 0.418979 0.096734
0.573700 0.420250 0.098005
0.590316 0.421521 0.099276
0.062869 0.400459 0.062869
0.079485 0.401730 0.064140
0.096101 0.403001 0.065411
0.112717 0.404272 0.066682
0.129333 0.405543 0.067953
0.145949 0.406814 0.069224
0.162565 0.408085 0.070495
0.179181 0.409356 0.071766
0.195797 0.410627 0.073037
0.212413 0.411898 0.074308
0.229030 0.413170 0.075580
0.245646 0.414441 0.076851
0.262262 0.415712 0.078122
0.278878 0.416983 0.079393
0.295494 0.418254 0.080664
0.312110 0.419525 0.081935
0.328726 0.420796 0.083206
0.345342 0.422067 0.084477
0.361958 0.423338 0.085748
0.378574 0.424609 0.087019
0.395190 0.425880 0.088290
0.411806 0.427151 0.089561
0.428422 0.428422 0.090832
0.445039 0.429694 0.092104
0.461655 0.430965 0.093375
0.478271 0.432236 0.094646
0.494887 0.433507 0.095917
0.511503 0.434778 0.097188
0.528119 0.436049 0.098459
0.544735 0.437320 0.099730
0.561351 0.438591 0.101001
0.577967 0.439862 0.102272
0.594583 0.441133 0.103543
0.067136 0.420071 0.067136
0.083752 0.421342 0.068407
0.100368 0.422613 0.069678
0.116984 0.423884 0.070949
0.133600 0.425155 0.072220
0.150216 0.426426 0.073491
0.166832 0.427697 0.074762
0.183448 0.428968 0.076033
0.200064 0.430239 0.077304
0.216680 0.431510 0.078575
0.233296 0.432781 0.079846
0.249912 0.434052 0.081117
0.266528 0.435323 0.082388
0.283145 0.436595 0.083660
0.299761 0.437866 0.084931
0.316377 0.439137 0.086202
0.332993 0.440408 0.087473
0.349609 0.441679 0.088744
0.366225 0.442950 0.090015
0.382841 0.444221 0.091286
0.399457 0.445492 0.092557
0.416073 0.446763 0.093828
0.432689 0.448034 0.095099
0.449305 0.449305 0.096370
0.465921 0.450576 0.097641
0.482537 0.451847 0.098912
0.499154 0.453119 0.100184
0.515770 0.454390 0.101455
0.532386 0.455661 0.102726
0.549002 0.456932 0.103997
0.565618 0.458203 0.105268
0.582234 0.459474 0.106539
0.598850 0.460745 0.107810
0.071402 0.439682 0.071402
0.088018 0.440953 0.072673
0.104634 0.442224 0.073944
0.121251 0.443496 0.075216
0.137867 0.444767 0.076487
0.154483 0.446038 0.077758
0.171099 0.447309 0.079029
0.187715 0.448580 0.080300
0.204331 0.449851 0.081571
0.220947 0.451122 0.082842
0.237563 0.452393 0.084113
0.254179 0.453664 0.085384
0.270795 0.454935 0.086655
0.287411 0.456206 0.087926
0.304027 0.457477 0.089197
0.320643 0.458748 0.090468
0.337260 0.460020 0.091740
0.353876 0.461291 0.093011
0.370492 0.462562 0.094282
0.387108 0.463833 0.095553
0.403724 0.465104 0.096824
0.420340 0.466375 0.098095
0.436956 0.467646 0.099366
0.453572 0.468917 0.100637
0.470188 0.470188 0.101908
0.486804 0.471459 0.103179
0.503420 0.472730 0.104450
0.520036 0.474001 0.105721
0.536652 0.475272 0.106992
0.553269 0.476544 0.108264
0.569885 0.477815 0.109535
0.586501 0.479086 0.110806
0.603117 0.480357 0.112077
0.075669 0.459294 0.075669
0.092285 0.460565 0.076940
0.108901 0.461836 0.078211
0.125517 0.463107 0.079482
0.142133 0.464378 0.080753
0.158749 0.465649 0.082024
0.175366 0.466921 0.083296
0.191982 0.468192 0.084567
0.208598 0.469463 0.085838
0.225214 0.470734 0.087109
0.241830 0.472005 0.088380
0.258446 0.473276 0.089651
0.275062 0.474547 0.090922
0.291678 0.475818 0.092193
0.308294 0.477089 0.093464
0.324910 0.478360 0.094735
0.341526 0.479631 0.096006
0.358142 0.480902 0.097277
0.374758 0.482173 0.098548
0.391375 0.483445 0.099820
0.407991 0.484716 0.101091
0.424607 0.485987 0.102362
0.441223 0.487258 0.103633
0.457839 0.488529 0.104904
0.474455 0.489800 0.106175
0.491071 0.491071 0.107446
0.507687 0.492342 0.108717
0.524303 0.493613 0.109988
0.540919 0.494884 0.111259
0.557535 0.496155 0.112530
0.574151 0.497426 0.113801
0.590767 0.498697 0.115072
0.607384 0.499969 0.116344
0.079936 0.478906 0.079936
0.096552 0.480177 0.081207
0.113168 0.481448 0.082478
0.129784 0.482719 0.083749
0.146400 0.483990 0.085020
0.163016 0.485261 0.086291
0.179632 0.486532 0.087562
0.196248 0.487803 0.088833
0.212864 0.489074 0.090104
0.229481 0.490346 0.091376
0.246097 0.491617 0.092647
0.262713 0.492888 0.093918
0.279329 0.494159 0.095189
0.295945 0.495430 0.096460
0.312561 0.496701 0.097731
0.329177 0.497972 0.099002
0.345793 0.499243 0.100273
0.362409 0.500514 0.101544
0.379025 0.501785 0.102815
0.395641 0.503056 0.104086
0.412257 0.504327 0.105357
0.428873 0.505598 0.106628
