personal-map-app/personal-map-app/photo-sticker-lab/luts/paper-deep.cube
# 由 tools/bake_luts.py 生成，请勿手改。
# 来源 CSS filter 链: saturate(.72) contrast(1.1) brightness(.62)
# 说明: 更重的压暗高对比，适合需要主体沉下去的场景。
TITLE "paper-deep"
LUT_3D_SIZE 9
DOMAIN_MIN 0.000000 0.000000 0.000000
DOMAIN_MAX 1.000000 1.000000 1.000000
0.000000 0.000000 0.000000
0.035464 0.000000 0.000000
0.101929 0.000000 0.000000
0.168393 0.000000 0.000000
0.234857 0.000000 0.000000
0.301322 0.000000 0.000000
0.367786 0.000000 0.000000
0.434250 0.004590 0.004590
0.500714 0.009674 0.009674
0.000000 0.047447 0.000000
0.052531 0.052531 0.000000
0.118996 0.057616 0.000000
0.185460 0.062700 0.001320
0.251924 0.067784 0.006404
0.318389 0.072869 0.011489
0.384853 0.077953 0.016573
0.451317 0.083037 0.021657
0.517782 0.088122 0.026742
0.003134 0.125894 0.003134
0.069598 0.130978 0.008218
0.136063 0.136063 0.013303
0.202527 0.141147 0.018387
0.268991 0.146231 0.023471
0.335456 0.151316 0.028556
0.401920 0.156400 0.033640
0.468384 0.161484 0.038724
0.534849 0.166569 0.043809
0.020201 0.204341 0.020201
0.086665 0.209425 0.025285
0.153130 0.214510 0.030370
0.219594 0.219594 0.035454
0.286058 0.224678 0.040538
0.352523 0.229763 0.045623
0.418987 0.234847 0.050707
0.485451 0.239931 0.055791
0.551916 0.245016 0.060876
0.037268 0.282788 0.037268
0.103733 0.287873 0.042353
0.170197 0.292957 0.047437
0.236661 0.298041 0.052521
0.303125 0.303125 0.057605
0.369590 0.308210 0.062690
0.436054 0.313294 0.067774
0.502518 0.318378 0.072858
0.568983 0.323463 0.077943
0.054335 0.361235 0.054335
0.120800 0.366320 0.059420
0.187264 0.371404 0.064504
0.253728 0.376488 0.069588
0.320192 0.381572 0.074672
0.386657 0.386657 0.079757
0.453121 0.391741 0.084841
0.519585 0.396825 0.089925
0.586050 0.401910 0.095010
0.071402 0.439682 0.071402
0.137867 0.444767 0.076487
0.204331 0.449851 0.081571
0.270795 0.454935 0.086655
0.337260 0.460020 0.091740
0.403724 0.465104 0.096824
0.470188 0.470188 0.101908
0.536652 0.475272 0.106992
0.603117 0.480357 0.112077
0.088469 0.518129 0.088469
0.154934 0.523214 0.093554
0.221398 0.528298 0.098638
0.287862 0.533382 0.103722
0.354327 0.538467 0.108807
0.420791 0.543551 0.113891
0.487255 0.548635 0.118975
0.553720 0.553720 0.124060
0.620000 0.558804 0.129144
0.105536 0.596576 0.105536
0.172001 0.601661 0.110621
0.238465 0.606745 0.115705
0.304929 0.611829 0.120789
0.371394 0.616914 0.125874
0.437858 0.620000 0.130958
0.504322 0.620000 0.136042
0.570787 0.620000 0.141127
0.620000 0.620000 0.146211
0.000000 0.000000 0.032099
0.037183 0.000000 0.037183
0.103647 0.000000 0.042267
0.170112 0.000000 0.047352
0.236576 0.000000 0.052436
0.303040 0.000000 0.057520
0.369504 0.001224 0.062604
0.435969 0.006309 0.067689
0.502433 0.011393 0.072773
0.000000 0.049166 0.049166
0.054250 0.054250 0.054250
0.120714 0.059334 0.059334
0.187179 0.064419 0.064419
0.253643 0.069503 0.069503
0.320107 0.074587 0.074587
0.386572 0.079672 0.079672
0.453036 0.084756 0.084756
0.519500 0.089840 0.089840
0.004853 0.127613 0.066233
0.071317 0.132697 0.071317
0.137781 0.137781 0.076401
0.204246 0.142866 0.081486
0.270710 0.147950 0.086570
0.337174 0.153034 0.091654
0.403639 0.158119 0.096739
0.470103 0.163203 0.101823
0.536567 0.168287 0.106907
0.021920 0.206060 0.083300
0.088384 0.211144 0.088384
0.154848 0.216228 0.093468
0.221313 0.221313 0.098553
0.287777 0.226397 0.103637
0.354241 0.231481 0.108721
0.420706 0.236566 0.113806
0.487170 0.241650 0.118890
0.553634 0.246734 0.123974
0.038987 0.284507 0.100367
0.105451 0.289591 0.105451
0.171915 0.294675 0.110535
0.238380 0.299760 0.115620
0.304844 0.304844 0.120704
0.371308 0.309928 0.125788
0.437773 0.315013 0.130873
0.504237 0.320097 0.135957
0.570701 0.325181 0.141041
0.056054 0.362954 0.117434
0.122518 0.368038 0.122518
0.188983 0.373123 0.127603
0.255447 0.378207 0.132687
0.321911 0.383291 0.137771
0.388375 0.388375 0.142855
0.454840 0.393460 0.147940
0.521304 0.398544 0.153024
0.587768 0.403628 0.158108
0.073121 0.441401 0.134501
0.139585 0.446485 0.139585
0.206050 0.451570 0.144670
0.272514 0.456654 0.149754
0.338978 0.461738 0.154838
0.405442 0.466822 0.159922
0.471907 0.471907 0.165007
0.538371 0.476991 0.170091
0.604835 0.482075 0.175175
0.090188 0.519848 0.151568
0.156652 0.524932 0.156652
0.223117 0.530017 0.161737
0.289581 0.535101 0.166821
0.356045 0.540185 0.171905
0.422510 0.545270 0.176990
0.488974 0.550354 0.182074
0.555438 0.555438 0.187158
0.620000 0.560522 0.192242
0.107255 0.598295 0.168635
0.173719 0.603379 0.173719
0.240184 0.608464 0.178804
0.306648 0.613548 0.183888
0.373112 0.618632 0.188972
0.439577 0.620000 0.194057
0.506041 0.620000 0.199141
0.572505 0.620000 0.204225
0.620000 0.620000 0.209310
0.000000 0.000000 0.095197
0.038902 0.000000 0.100282
0.105366 0.000000 0.105366
0.171830 0.000000 0.110450
0.238295 0.000000 0.115535
0.304759 0.000000 0.120619
0.371223 0.002943 0.125703
0.437687 0.008027 0.130787
0.504152 0.013112 0.135872
0.000000 0.050884 0.112264
0.055969 0.055969 0.117349
0.122433 0.061053 0.122433
0.188897 0.066137 0.127517
0.255362 0.071222 0.132602
0.321826 0.076306 0.137686
0.388290 0.081390 0.142770
0.454755 0.086474 0.147854
0.521219 0.091559 0.152939
0.006571 0.129331 0.129331
0.073036 0.134416 0.134416
0.139500 0.139500 0.139500
0.205964 0.144584 0.144584
0.272429 0.149669 0.149669
0.338893 0.154753 0.154753
0.405357 0.159837 0.159837
0.471822 0.164922 0.164922
0.538286 0.170006 0.170006
0.023638 0.207778 0.146398
0.090103 0.212863 0.151483
0.156567 0.217947 0.156567
0.223031 0.223031 0.161651
0.289496 0.228116 0.166736
0.355960 0.233200 0.171820
0.422424 0.238284 0.176904
0.488889 0.243369 0.181989
0.555353 0.248453 0.187073
0.040705 0.286225 0.163465
0.107170 0.291310 0.168550
0.173634 0.296394 0.173634
0.240098 0.301478 0.178718
0.306563 0.306563 0.183803
0.373027 0.311647 0.188887
0.439491 0.316731 0.193971
0.505956 0.321816 0.199056
0.572420 0.326900 0.204140
0.057773 0.364673 0.180533
0.124237 0.369757 0.185617
0.190701 0.374841 0.190701
0.257165 0.379925 0.195785
0.323630 0.385010 0.200870
0.390094 0.390094 0.205954
0.456558 0.395178 0.211038
0.523023 0.400263 0.216123
0.589487 0.405347 0.221207
0.074840 0.443120 0.197600
0.141304 0.448204 0.202684
0.207768 0.453288 0.207768
0.274233 0.458373 0.212853
0.340697 0.463457 0.217937
0.407161 0.468541 0.223021
0.473625 0.473625 0.228105
0.540090 0.478710 0.233190
0.606554 0.483794 0.238274
0.091907 0.521567 0.214667
0.158371 0.526651 0.219751
0.224835 0.531735 0.224835
0.291300 0.536820 0.229920
0.357764 0.541904 0.235004
0.424228 0.546988 0.240088
0.490692 0.552072 0.245172
0.557157 0.557157 0.250257
0.620000 0.562241 0.255341
0.108974 0.600014 0.231734
0.175438 0.605098 0.236818
0.241902 0.610182 0.241902
0.308367 0.615267 0.246987
0.374831 0.620000 0.252071
0.441295 0.620000 0.257155
0.507760 0.620000 0.262240
0.574224 0.620000 0.267324
0.620000 0.620000 0.272408
0.000000 0.000000 0.158296
0.040620 0.000000 0.163380
0.107085 0.000000 0.168465
0.173549 0.000000 0.173549
0.240013 0.000000 0.178633
0.306477 0.000000 0.183717
0.372942 0.004662 0.188802
0.439406 0.009746 0.193886
0.505870 0.014830 0.198970
0.000000 0.052603 0.175363
0.057687 0.057687 0.180447
0.124152 0.062772 0.185532
0.190616 0.067856 0.190616
0.257080 0.072940 0.195700
0.323545 0.078025 0.200785
0.390009 0.083109 0.205869
0.456473 0.088193 0.210953
0.522937 0.093277 0.216037
0.008290 0.131050 0.192430
0.074754 0.136134 0.197514
0.141219 0.141219 0.202599
0.207683 0.146303 0.207683
0.274147 0.151387 0.212767
0.340612 0.156472 0.217852
0.407076 0.161556 0.222936
0.473540 0.166640 0.228020
0.540004 0.171724 0.233104
0.025357 0.209497 0.209497
0.091821 0.214581 0.214581
0.158286 0.219666 0.219666
0.224750 0.224750 0.224750
0.291214 0.229834 0.229834
0.357679 0.234919 0.234919
0.424143 0.240003 0.240003
0.490607 0.245087 0.245087
0.557072 0.250172 0.250172
0.042424 0.287944 0.226564
0.108888 0.293028 0.231648
0.175353 0.298113 0.236733
0.241817 0.303197 0.241817
0.308281 0.308281 0.246901
0.374746 0.313366 0.251986
0.441210 0.318450 0.257070
0.507674 0.323534 0.262154
0.574139 0.328619 0.267239
0.059491 0.366391 0.243631
0.125955 0.371475 0.248715
0.192420 0.376560 0.253800
0.258884 0.381644 0.258884
0.325348 0.386728 0.263968
0.391813 0.391813 0.269053
0.458277 0.396897 0.274137
0.524741 0.401981 0.279221
0.591206 0.407066 0.284306
0.076558 0.444838 0.260698
0.143023 0.449923 0.265783
0.209487 0.455007 0.270867
0.275951 0.460091 0.275951
0.342415 0.465175 0.281035
0.408880 0.470260 0.286120
0.475344 0.475344 0.291204
0.541808 0.480428 0.296288
0.608273 0.485513 0.301373
0.093625 0.523285 0.277765
0.160090 0.528370 0.282850
0.226554 0.533454 0.287934
0.293018 0.538538 0.293018
0.359483 0.543623 0.298103
0.425947 0.548707 0.303187
0.492411 0.553791 0.308271
0.558875 0.558875 0.313355
0.620000 0.563960 0.318440
0.110692 0.601732 0.294832
0.177157 0.606817 0.299917
0.243621 0.611901 0.305001
0.310085 0.616985 0.310085
0.376550 0.620000 0.315170
0.443014 0.620000 0.320254
0.509478 0.620000 0.325338
0.575942 0.620000 0.330422
0.620000 0.620000 0.335507
0.000000 0.000000 0.221395
0.042339 0.000000 0.226479
0.108803 0.000000 0.231563
0.175267 0.000000 0.236647
0.241732 0.000000 0.241732
0.308196 0.001296 0.246816
0.374660 0.006380 0.251900
0.441125 0.011465 0.256985
0.507589 0.016549 0.262069
0.000000 0.054322 0.238462
0.059406 0.059406 0.243546
0.125870 0.064490 0.248630
0.192335 0.069575 0.253715
0.258799 0.074659 0.258799
0.325263 0.079743 0.263883
0.391727 0.084827 0.268967
0.458192 0.089912 0.274052
0.524656 0.094996 0.279136
0.010009 0.132769 0.255529
0.076473 0.137853 0.260613
0.142937 0.142937 0.265697
0.209402 0.148022 0.270782
0.275866 0.153106 0.275866
0.342330 0.158190 0.280950
0.408795 0.163275 0.286035
0.475259 0.168359 0.291119
0.541723 0.173443 0.296203
0.027076 0.211216 0.272596
0.093540 0.216300 0.277680
0.160004 0.221384 0.282764
0.226469 0.226469 0.287849
0.292933 0.231553 0.292933
0.359397 0.236637 0.298017
0.425862 0.241722 0.303102
0.492326 0.246806 0.308186
0.558790 0.251890 0.313270
0.044143 0.289663 0.289663
0.110607 0.294747 0.294747
0.177071 0.299831 0.299831
0.243536 0.304916 0.304916
0.310000 0.310000 0.310000
0.376464 0.315084 0.315084
0.442929 0.320169 0.320169
0.509393 0.325253 0.325253
0.575857 0.330337 0.330337
0.061210 0.368110 0.306730
0.127674 0.373194 0.311814
0.194138 0.378278 0.316898
0.260603 0.383363 0.321983
0.327067 0.388447 0.327067
0.393531 0.393531 0.332151
0.459996 0.398616 0.337236
0.526460 0.403700 0.342320
0.592924 0.408784 0.347404
0.078277 0.446557 0.323797
0.144741 0.451641 0.328881
0.211205 0.456725 0.333965
0.277670 0.461810 0.339050
0.344134 0.466894 0.344134
0.410598 0.471978 0.349218
0.477063 0.477063 0.354303
0.543527 0.482147 0.359387
0.609991 0.487231 0.364471
0.095344 0.525004 0.340864
0.161808 0.530088 0.345948
0.228273 0.535173 0.351033
0.294737 0.540257 0.356117
0.361201 0.545341 0.361201
0.427665 0.550425 0.366285
0.494130 0.555510 0.371370
0.560594 0.560594 0.376454
0.620000 0.565678 0.381538
0.112411 0.603451 0.357931
0.178875 0.608535 0.363015
0.245340 0.613620 0.368100
0.311804 0.618704 0.373184
0.378268 0.620000 0.378268
0.444733 0.620000 0.383353
0.511197 0.620000 0.388437
0.577661 0.620000 0.393521
0.620000 0.620000 0.398605
0.000000 0.000000 0.284493
0.044058 0.000000 0.289578
0.110522 0.000000 0.294662
0.176986 0.000000 0.299746
0.243450 0.000000 0.304830
0.309915 0.003015 0.309915
0.376379 0.008099 0.314999
0.442843 0.013183 0.320083
0.509308 0.018268 0.325168
0.000000 0.056040 0.301560
0.061125 0.061125 0.306645
0.127589 0.066209 0.311729
0.194053 0.071293 0.316813
0.260517 0.076377 0.321897
0.326982 0.081462 0.326982
0.393446 0.086546 0.332066
0.459910 0.091630 0.337150
0.526375 0.096715 0.342235
0.011727 0.134487 0.318627
0.078192 0.139572 0.323712
0.144656 0.144656 0.328796
0.211120 0.149740 0.333880
0.277585 0.154825 0.338965
0.344049 0.159909 0.344049
0.410513 0.164993 0.349133
0.476977 0.170077 0.354217
0.543442 0.175162 0.359302
0.028794 0.212934 0.335694
0.095259 0.218019 0.340779
0.161723 0.223103 0.345863
0.228187 0.228187 0.350947
0.294652 0.233272 0.356032
0.361116 0.238356 0.361116
0.427580 0.243440 0.366200
0.494045 0.248525 0.371285
0.560509 0.253609 0.376369
0.045861 0.291381 0.352761
0.112326 0.296466 0.357846
0.178790 0.301550 0.362930
0.245254 0.306634 0.368014
0.311719 0.311719 0.373099
0.378183 0.316803 0.378183
0.444647 0.321887 0.383267
0.511112 0.326972 0.388352
0.577576 0.332056 0.393436
0.062928 0.369828 0.369828
0.129393 0.374913 0.374913
0.195857 0.379997 0.379997
0.262321 0.385081 0.385081
0.328786 0.390166 0.390166
0.395250 0.395250 0.395250
0.461714 0.400334 0.400334
0.528179 0.405419 0.405419
0.594643 0.410503 0.410503
0.079995 0.448275 0.386896
0.146460 0.453360 0.391980
0.212924 0.458444 0.397064
0.279388 0.463528 0.402148
0.345853 0.468613 0.407233
0.412317 0.473697 0.412317
0.478781 0.478781 0.417401
0.545246 0.483866 0.422486
0.611710 0.488950 0.427570
0.097063 0.526723 0.403963
0.163527 0.531807 0.409047
0.229991 0.536891 0.414131
0.296455 0.541975 0.419215
0.362920 0.547060 0.424300
0.429384 0.552144 0.429384
0.495848 0.557228 0.434468
0.562313 0.562313 0.439553
0.620000 0.567397 0.444637
0.114130 0.605170 0.421030
0.180594 0.610254 0.426114
0.247058 0.615338 0.431198
0.313523 0.620000 0.436283
0.379987 0.620000 0.441367
0.446451 0.620000 0.446451
0.512915 0.620000 0.451535
0.579380 0.620000 0.456620
0.620000 0.620000 0.461704
0.000000 0.000000 0.347592
0.045776 0.000000 0.352676
0.112240 0.000000 0.357760
0.178705 0.000000 0.362845
0.245169 0.000000 0.367929
0.311633 0.004733 0.373013
0.378098 0.009818 0.378098
0.444562 0.014902 0.383182
0.511026 0.019986 0.388266
0.000000 0.057759 0.364659
0.062843 0.062843 0.369743
0.129308 0.067928 0.374828
0.195772 0.073012 0.379912
0.262236 0.078096 0.384996
0.328700 0.083180 0.390080
0.395165 0.088265 0.395165
0.461629 0.093349 0.400249
0.528093 0.098433 0.405333
0.013446 0.136206 0.381726
0.079910 0.141290 0.386810
0.146375 0.146375 0.391895
0.212839 0.151459 0.396979
0.279303 0.156543 0.402063
0.345767 0.161627 0.407147
0.412232 0.166712 0.412232
0.478696 0.171796 0.417316
0.545160 0.176880 0.422400
0.030513 0.214653 0.398793
0.096977 0.219737 0.403877
0.163442 0.224822 0.408962
0.229906 0.229906 0.414046
0.296370 0.234990 0.419130
0.362835 0.240075 0.424215
0.429299 0.245159 0.429299
0.495763 0.250243 0.434383
0.562227 0.255327 0.439467
0.047580 0.293100 0.415860
0.114044 0.298184 0.420944
0.180509 0.303269 0.426029
0.246973 0.308353 0.431113
0.313437 0.313437 0.436197
0.379902 0.318522 0.441282
0.446366 0.323606 0.446366
0.512830 0.328690 0.451450
0.579295 0.333775 0.456535
0.064647 0.371547 0.432927
0.131111 0.376631 0.438011
0.197576 0.381716 0.443096
0.264040 0.386800 0.448180
0.330504 0.391884 0.453264
0.396969 0.396969 0.458349
0.463433 0.402053 0.463433
0.529897 0.407137 0.468517
0.596362 0.412222 0.473602
0.081714 0.449994 0.449994
0.148178 0.455078 0.455078
0.214643 0.460163 0.460163
0.281107 0.465247 0.465247
0.347571 0.470331 0.470331
0.414036 0.475416 0.475416
0.480500 0.480500 0.480500
0.546964 0.485584 0.485584
0.613429 0.490669 0.490669
0.098781 0.528441 0.467061
0.165246 0.533525 0.472145
0.231710 0.538610 0.477230
0.298174 0.543694 0.482314
0.364638 0.548778 0.487398
0.431103 0.553863 0.492483
0.497567 0.558947 0.497567
0.564031 0.564031 0.502651
0.620000 0.569116 0.507736
0.115848 0.606888 0.484128
0.182313 0.611973 0.489213
0.248777 0.617057 0.494297
0.315241 0.620000 0.499381
0.381705 0.620000 0.504465
0.448170 0.620000 0.509550
0.514634 0.620000 0.514634
0.581098 0.620000 0.519718
0.620000 0.620000 0.524803
0.000000 0.000000 0.410690
0.047495 0.000000 0.415775
0.113959 0.000000 0.420859
0.180423 0.000000 0.425943
0.246888 0.001368 0.431028
0.313352 0.006452 0.436112
0.379816 0.011536 0.441196
0.446281 0.016621 0.446281
0.512745 0.021705 0.451365
0.000000 0.059478 0.427758
0.064562 0.064562 0.432842
0.131026 0.069646 0.437926
0.197490 0.074730 0.443010
0.263955 0.079815 0.448095
0.330419 0.084899 0.453179
0.396883 0.089983 0.458263
0.463348 0.095068 0.463348
0.529812 0.100152 0.468432
0.015165 0.137925 0.444825
0.081629 0.143009 0.449909
0.148093 0.148093 0.454993
0.214558 0.153178 0.460078
0.281022 0.158262 0.465162
0.347486 0.163346 0.470246
0.413950 0.168430 0.475330
0.480415 0.173515 0.480415
0.546879 0.178599 0.485499
0.032232 0.216372 0.461892
0.098696 0.221456 0.466976
0.165160 0.226540 0.472060
0.231625 0.231625 0.477145
0.298089 0.236709 0.482229
0.364553 0.241793 0.487313
0.431017 0.246877 0.492397
0.497482 0.251962 0.497482
0.563946 0.257046 0.502566
0.049299 0.294819 0.478959
0.115763 0.299903 0.484043
0.182227 0.304987 0.489127
0.248692 0.310072 0.494212
0.315156 0.315156 0.499296
0.381620 0.320240 0.504380
0.448085 0.325325 0.509465
0.514549 0.330409 0.514549
0.581013 0.335493 0.519633
0.066366 0.373266 0.496026
0.132830 0.378350 0.501110
0.199294 0.383434 0.506194
0.265759 0.388519 0.511279
0.332223 0.393603 0.516363
0.398687 0.398687 0.521447
0.465152 0.403772 0.526532
0.531616 0.408856 0.531616
0.598080 0.413940 0.536700
0.083433 0.451713 0.513093
0.149897 0.456797 0.518177
0.216361 0.461881 0.523261
0.282826 0.466966 0.528346
0.349290 0.472050 0.533430
0.415754 0.477134 0.538514
0.482219 0.482219 0.543599
0.548683 0.487303 0.548683
0.615147 0.492387 0.553767
0.100500 0.530160 0.530160
0.166964 0.535244 0.535244
0.233428 0.540328 0.540328
0.299893 0.545413 0.545413
0.366357 0.550497 0.550497
0.432821 0.555581 0.555581
0.499286 0.560666 0.560666
0.565750 0.565750 0.565750
0.620000 0.570834 0.570834
0.117567 0.608607 0.547227
0.184031 0.613691 0.552311
0.250496 0.618775 0.557396
0.316960 0.620000 0.562480
0.383424 0.620000 0.567564
0.449888 0.620000 0.572648
0.516353 0.620000 0.577733
0.582817 0.620000 0.582817
0.620000 0.620000 0.587901
0.000000 0.000000 0.473789
0.049213 0.000000 0.478873
0.115678 0.000000 0.483958
0.182142 0.000000 0.489042
0.248606 0.003086 0.494126
0.315071 0.008171 0.499211
0.381535 0.013255 0.504295
0.447999 0.018339 0.509379
0.514464 0.023424 0.514464
0.000000 0.061196 0.490856
0.066280 0.066280 0.495940
0.132745 0.071365 0.501025
0.199209 0.076449 0.506109
0.265673 0.081533 0.511193
0.332138 0.086618 0.516278
0.398602 0.091702 0.521362
0.465066 0.096786 0.526446
0.531531 0.101871 0.531531
0.016883 0.139643 0.507923
0.083348 0.144728 0.513008
0.149812 0.149812 0.518092
0.216276 0.154896 0.523176
0.282740 0.159980 0.528260
0.349205 0.165065 0.533345
0.415669 0.170149 0.538429
0.482133 0.175233 0.543513
0.548598 0.180318 0.548598
0.033950 0.218090 0.524990
0.100415 0.223175 0.530075
0.166879 0.228259 0.535159
0.233343 0.233343 0.540243
0.299808 0.238428 0.545328
0.366272 0.243512 0.550412
0.432736 0.248596 0.555496
0.499200 0.253680 0.560580
0.565665 0.258765 0.565665
0.051017 0.296537 0.542057
0.117482 0.301622 0.547142
0.183946 0.306706 0.552226
0.250410 0.311790 0.557310
0.316875 0.316875 0.562395
0.383339 0.321959 0.567479
0.449803 0.327043 0.572563
0.516267 0.332127 0.577647
0.582732 0.337212 0.582732
0.068084 0.374984 0.559124
0.134549 0.380069 0.564209
0.201013 0.385153 0.569293
0.267477 0.390237 0.574377
0.333942 0.395322 0.579462
0.400406 0.400406 0.584546
0.466870 0.405490 0.589630
0.533335 0.410575 0.594715
0.599799 0.415659 0.599799
0.085151 0.453431 0.576191
0.151616 0.458516 0.581276
0.218080 0.463600 0.586360
0.284544 0.468684 0.591444
0.351009 0.473769 0.596529
0.417473 0.478853 0.601613
0.483937 0.483937 0.606697
0.550402 0.489022 0.611782
0.616866 0.494106 0.616866
0.102218 0.531878 0.593258
0.168683 0.536963 0.598343
0.235147 0.542047 0.603427
0.301611 0.547131 0.608511
0.368076 0.552216 0.613596
0.434540 0.557300 0.618680
0.501004 0.562384 0.620000
0.567469 0.567469 0.620000
0.620000 0.572553 0.620000
0.119286 0.610326 0.610326
0.185750 0.615410 0.615410
0.252214 0.620000 0.620000
0.318678 0.620000 0.620000
0.385143 0.620000 0.620000
0.451607 0.620000 0.620000
0.518071 0.620000 0.620000
0.584536 0.620000 0.620000
0.620000 0.620000 0.620000
