personal-map-app/personal-map-app/photo-sticker-lab/luts/paper-rose.cube
# 由 tools/bake_luts.py 生成，请勿手改。
# 来源 CSS filter 链: saturate(.55) sepia(.3) hue-rotate(310deg) contrast(.9) brightness(1.1)
# 说明: 偏玫瑰色的柔和调性，来自撕页染色一类实验。
TITLE "paper-rose"
LUT_3D_SIZE 33
DOMAIN_MIN 0.000000 0.000000 0.000000
DOMAIN_MAX 1.000000 1.000000 1.000000
0.055000 0.055000 0.055000
0.071179 0.059364 0.067870
0.087358 0.063729 0.080740
0.103537 0.068093 0.093611
0.119716 0.072457 0.106481
0.135896 0.076822 0.119351
0.152075 0.081186 0.132221
0.168254 0.085550 0.145092
0.184433 0.089915 0.157962
0.200612 0.094279 0.170832
0.216791 0.098643 0.183702
0.232970 0.103008 0.196573
0.249149 0.107372 0.209443
0.265329 0.111736 0.222313
0.281508 0.116101 0.235183
0.297687 0.120465 0.248054
0.313866 0.124829 0.260924
0.330045 0.129194 0.273794
0.346224 0.133558 0.286664
0.362403 0.137922 0.299535
0.378582 0.142287 0.312405
0.394761 0.146651 0.325275
0.410941 0.151015 0.338145
0.427120 0.155380 0.351016
0.443299 0.159744 0.363886
0.459478 0.164109 0.376756
0.475657 0.168473 0.389626
0.491836 0.172837 0.402497
0.508015 0.177202 0.415367
0.524194 0.181566 0.428237
0.540374 0.185930 0.441107
0.556553 0.190295 0.453977
0.572732 0.194659 0.466848
0.080468 0.078073 0.065205
0.096647 0.082438 0.078075
0.112826 0.086802 0.090946
0.129005 0.091166 0.103816
0.145184 0.095531 0.116686
0.161363 0.099895 0.129556
0.177542 0.104259 0.142426
0.193721 0.108624 0.155297
0.209901 0.112988 0.168167
0.226080 0.117352 0.181037
0.242259 0.121717 0.193907
0.258438 0.126081 0.206778
0.274617 0.130445 0.219648
0.290796 0.134810 0.232518
0.306975 0.139174 0.245388
0.323154 0.143538 0.258259
0.339333 0.147903 0.271129
0.355513 0.152267 0.283999
0.371692 0.156631 0.296869
0.387871 0.160996 0.309740
0.404050 0.165360 0.322610
0.420229 0.169724 0.335480
0.436408 0.174089 0.348350
0.452587 0.178453 0.361221
0.468766 0.182818 0.374091
0.484946 0.187182 0.386961
0.501125 0.191546 0.399831
0.517304 0.195911 0.412702
0.533483 0.200275 0.425572
0.549662 0.204639 0.438442
0.565841 0.209004 0.451312
0.582020 0.213368 0.464183
0.598199 0.217732 0.477053
0.105935 0.101147 0.075410
0.122114 0.105511 0.088280
0.138293 0.109875 0.101151
0.154473 0.114240 0.114021
0.170652 0.118604 0.126891
0.186831 0.122968 0.139761
0.203010 0.127333 0.152632
0.219189 0.131697 0.165502
0.235368 0.136061 0.178372
0.251547 0.140426 0.191242
0.267726 0.144790 0.204113
0.283906 0.149154 0.216983
0.300085 0.153519 0.229853
0.316264 0.157883 0.242723
0.332443 0.162247 0.255593
0.348622 0.166612 0.268464
0.364801 0.170976 0.281334
0.380980 0.175340 0.294204
0.397159 0.179705 0.307074
0.413338 0.184069 0.319945
0.429518 0.188433 0.332815
0.445697 0.192798 0.345685
0.461876 0.197162 0.358555
0.478055 0.201526 0.371426
0.494234 0.205891 0.384296
0.510413 0.210255 0.397166
0.526592 0.214620 0.410036
0.542771 0.218984 0.422907
0.558951 0.223348 0.435777
0.575130 0.227713 0.448647
0.591309 0.232077 0.461517
0.607488 0.236441 0.474388
0.623667 0.240806 0.487258
0.131403 0.124220 0.085615
0.147582 0.128584 0.098485
0.163761 0.132949 0.111356
0.179940 0.137313 0.124226
0.196119 0.141677 0.137096
0.212298 0.146042 0.149966
0.228478 0.150406 0.162837
0.244657 0.154770 0.175707
0.260836 0.159135 0.188577
0.277015 0.163499 0.201447
0.293194 0.167863 0.214318
0.309373 0.172228 0.227188
0.325552 0.176592 0.240058
0.341731 0.180956 0.252928
0.357910 0.185321 0.265799
0.374090 0.189685 0.278669
0.390269 0.194049 0.291539
0.406448 0.198414 0.304409
0.422627 0.202778 0.317279
0.438806 0.207142 0.330150
0.454985 0.211507 0.343020
0.471164 0.215871 0.355890
0.487343 0.220235 0.368760
0.503523 0.224600 0.381631
0.519702 0.228964 0.394501
0.535881 0.233329 0.407371
0.552060 0.237693 0.420241
0.568239 0.242057 0.433112
0.584418 0.246422 0.445982
0.600597 0.250786 0.458852
0.616776 0.255150 0.471722
0.632955 0.259515 0.484593
0.649135 0.263879 0.497463
0.156870 0.147293 0.095820
0.173050 0.151658 0.108690
0.189229 0.156022 0.121561
0.205408 0.160386 0.134431
0.221587 0.164751 0.147301
0.237766 0.169115 0.160171
0.253945 0.173479 0.173042
0.270124 0.177844 0.185912
0.286303 0.182208 0.198782
0.302482 0.186572 0.211652
0.318662 0.190937 0.224523
0.334841 0.195301 0.237393
0.351020 0.199665 0.250263
0.367199 0.204030 0.263133
0.383378 0.208394 0.276004
0.399557 0.212758 0.288874
0.415736 0.217123 0.301744
0.431915 0.221487 0.314614
0.448095 0.225851 0.327485
0.464274 0.230216 0.340355
0.480453 0.234580 0.353225
0.496632 0.238944 0.366095
0.512811 0.243309 0.378966
0.528990 0.247673 0.391836
0.545169 0.252038 0.404706
0.561348 0.256402 0.417576
0.577527 0.260766 0.430446
0.593707 0.265131 0.443317
0.609886 0.269495 0.456187
0.626065 0.273859 0.469057
0.642244 0.278224 0.481927
0.658423 0.282588 0.494798
0.674602 0.286952 0.507668
0.182338 0.170367 0.106025
0.198517 0.174731 0.118895
0.214696 0.179095 0.131766
0.230875 0.183460 0.144636
0.247055 0.187824 0.157506
0.263234 0.192188 0.170376
0.279413 0.196553 0.183247
0.295592 0.200917 0.196117
0.311771 0.205281 0.208987
0.327950 0.209646 0.221857
0.344129 0.214010 0.234728
0.360308 0.218374 0.247598
0.376487 0.222739 0.260468
0.392667 0.227103 0.273338
0.408846 0.231467 0.286209
0.425025 0.235832 0.299079
0.441204 0.240196 0.311949
0.457383 0.244560 0.324819
0.473562 0.248925 0.337690
0.489741 0.253289 0.350560
0.505920 0.257653 0.363430
0.522100 0.262018 0.376300
0.538279 0.266382 0.389171
0.554458 0.270746 0.402041
0.570637 0.275111 0.414911
0.586816 0.279475 0.427781
0.602995 0.283840 0.440652
0.619174 0.288204 0.453522
0.635353 0.292568 0.466392
0.651532 0.296933 0.479262
0.667712 0.301297 0.492132
0.683891 0.305661 0.505003
0.700070 0.310026 0.517873
0.207806 0.193440 0.116230
0.223985 0.197804 0.129101
0.240164 0.202169 0.141971
0.256343 0.206533 0.154841
0.272522 0.210897 0.167711
0.288701 0.215262 0.180581
0.304880 0.219626 0.193452
0.321059 0.223990 0.206322
0.337239 0.228355 0.219192
0.353418 0.232719 0.232062
0.369597 0.237083 0.244933
0.385776 0.241448 0.257803
0.401955 0.245812 0.270673
0.418134 0.250176 0.283543
0.434313 0.254541 0.296414
0.450492 0.258905 0.309284
0.466672 0.263269 0.322154
0.482851 0.267634 0.335024
0.499030 0.271998 0.347895
0.515209 0.276362 0.360765
0.531388 0.280727 0.373635
0.547567 0.285091 0.386505
0.563746 0.289455 0.399376
0.579925 0.293820 0.412246
0.596104 0.298184 0.425116
0.612284 0.302549 0.437986
0.628463 0.306913 0.450857
0.644642 0.311277 0.463727
0.660821 0.315642 0.476597
0.677000 0.320006 0.489467
0.693179 0.324370 0.502338
0.709358 0.328735 0.515208
0.725537 0.333099 0.528078
0.233273 0.216513 0.126435
0.249452 0.220878 0.139306
0.265632 0.225242 0.152176
0.281811 0.229606 0.165046
0.297990 0.233971 0.177916
0.314169 0.238335 0.190787
0.330348 0.242699 0.203657
0.346527 0.247064 0.216527
0.362706 0.251428 0.229397
0.378885 0.255792 0.242268
0.395064 0.260157 0.255138
0.411244 0.264521 0.268008
0.427423 0.268885 0.280878
0.443602 0.273250 0.293748
0.459781 0.277614 0.306619
0.475960 0.281978 0.319489
0.492139 0.286343 0.332359
0.508318 0.290707 0.345229
0.524497 0.295071 0.358100
0.540676 0.299436 0.370970
0.556856 0.303800 0.383840
0.573035 0.308164 0.396710
0.589214 0.312529 0.409581
0.605393 0.316893 0.422451
0.621572 0.321258 0.435321
0.637751 0.325622 0.448191
0.653930 0.329986 0.461062
0.670109 0.334351 0.473932
0.686289 0.338715 0.486802
0.702468 0.343079 0.499672
0.718647 0.347444 0.512543
0.734826 0.351808 0.525413
0.751005 0.356172 0.538283
0.258741 0.239587 0.136640
0.274920 0.243951 0.149511
0.291099 0.248315 0.162381
0.307278 0.252680 0.175251
0.323457 0.257044 0.188121
0.339636 0.261408 0.200992
0.355816 0.265773 0.213862
0.371995 0.270137 0.226732
0.388174 0.274501 0.239602
0.404353 0.278866 0.252473
0.420532 0.283230 0.265343
0.436711 0.287594 0.278213
0.452890 0.291959 0.291083
0.469069 0.296323 0.303954
0.485249 0.300687 0.316824
0.501428 0.305052 0.329694
0.517607 0.309416 0.342564
0.533786 0.313780 0.355434
0.549965 0.318145 0.368305
0.566144 0.322509 0.381175
0.582323 0.326873 0.394045
0.598502 0.331238 0.406915
0.614681 0.335602 0.419786
0.630861 0.339966 0.432656
0.647040 0.344331 0.445526
0.663219 0.348695 0.458396
0.679398 0.353060 0.471267
0.695577 0.357424 0.484137
0.711756 0.361788 0.497007
0.727935 0.366153 0.509877
0.744114 0.370517 0.522748
0.760294 0.374881 0.535618
0.776473 0.379246 0.548488
0.284208 0.262660 0.146845
0.300388 0.267024 0.159716
0.316567 0.271389 0.172586
0.332746 0.275753 0.185456
0.348925 0.280117 0.198326
0.365104 0.284482 0.211197
0.381283 0.288846 0.224067
0.397462 0.293210 0.236937
0.413641 0.297575 0.249807
0.429821 0.301939 0.262678
0.446000 0.306303 0.275548
0.462179 0.310668 0.288418
0.478358 0.315032 0.301288
0.494537 0.319396 0.314159
0.510716 0.323761 0.327029
0.526895 0.328125 0.339899
0.543074 0.332489 0.352769
0.559253 0.336854 0.365640
0.575433 0.341218 0.378510
0.591612 0.345582 0.391380
0.607791 0.349947 0.404250
0.623970 0.354311 0.417121
0.640149 0.358675 0.429991
0.656328 0.363040 0.442861
0.672507 0.367404 0.455731
0.688686 0.371769 0.468601
0.704866 0.376133 0.481472
0.721045 0.380497 0.494342
0.737224 0.384862 0.507212
0.753403 0.389226 0.520082
0.769582 0.393590 0.532953
0.785761 0.397955 0.545823
0.801940 0.402319 0.558693
0.309676 0.285733 0.157050
0.325855 0.290098 0.169921
0.342034 0.294462 0.182791
0.358213 0.298826 0.195661
0.374393 0.303191 0.208531
0.390572 0.307555 0.221402
0.406751 0.311919 0.234272
0.422930 0.316284 0.247142
0.439109 0.320648 0.260012
0.455288 0.325012 0.272883
0.471467 0.329377 0.285753
0.487646 0.333741 0.298623
0.503826 0.338105 0.311493
0.520005 0.342470 0.324364
0.536184 0.346834 0.337234
0.552363 0.351198 0.350104
0.568542 0.355563 0.362974
0.584721 0.359927 0.375845
0.600900 0.364291 0.388715
0.617079 0.368656 0.401585
0.633258 0.373020 0.414455
0.649438 0.377384 0.427326
0.665617 0.381749 0.440196
0.681796 0.386113 0.453066
0.697975 0.390478 0.465936
0.714154 0.394842 0.478807
0.730333 0.399206 0.491677
0.746512 0.403571 0.504547
0.762691 0.407935 0.517417
0.778870 0.412299 0.530287
0.795050 0.416664 0.543158
0.811229 0.421028 0.556028
0.827408 0.425392 0.568898
0.335144 0.308807 0.167256
0.351323 0.313171 0.180126
0.367502 0.317535 0.192996
0.383681 0.321900 0.205866
0.399860 0.326264 0.218736
0.416039 0.330628 0.231607
0.432218 0.334993 0.244477
0.448398 0.339357 0.257347
0.464577 0.343721 0.270217
0.480756 0.348086 0.283088
0.496935 0.352450 0.295958
0.513114 0.356814 0.308828
0.529293 0.361179 0.321698
0.545472 0.365543 0.334569
0.561651 0.369907 0.347439
0.577830 0.374272 0.360309
0.594010 0.378636 0.373179
0.610189 0.383000 0.386050
0.626368 0.387365 0.398920
0.642547 0.391729 0.411790
0.658726 0.396093 0.424660
0.674905 0.400458 0.437531
0.691084 0.404822 0.450401
0.707263 0.409187 0.463271
0.723443 0.413551 0.476141
0.739622 0.417915 0.489012
0.755801 0.422280 0.501882
0.771980 0.426644 0.514752
0.788159 0.431008 0.527622
0.804338 0.435373 0.540493
0.820517 0.439737 0.553363
0.836696 0.444101 0.566233
0.852875 0.448466 0.579103
0.360611 0.331880 0.177461
0.376790 0.336244 0.190331
0.392970 0.340609 0.203201
0.409149 0.344973 0.216071
0.425328 0.349337 0.228942
0.441507 0.353702 0.241812
0.457686 0.358066 0.254682
0.473865 0.362430 0.267552
0.490044 0.366795 0.280423
0.506223 0.371159 0.293293
0.522402 0.375523 0.306163
0.538582 0.379888 0.319033
0.554761 0.384252 0.331903
0.570940 0.388616 0.344774
0.587119 0.392981 0.357644
0.603298 0.397345 0.370514
0.619477 0.401709 0.383384
0.635656 0.406074 0.396255
0.651835 0.410438 0.409125
0.668015 0.414802 0.421995
0.684194 0.419167 0.434865
0.700373 0.423531 0.447736
0.716552 0.427895 0.460606
0.732731 0.432260 0.473476
0.748910 0.436624 0.486346
0.765089 0.440989 0.499217
0.781268 0.445353 0.512087
0.797447 0.449717 0.524957
0.813627 0.454082 0.537827
0.829806 0.458446 0.550698
0.845985 0.462810 0.563568
0.862164 0.467175 0.576438
0.878343 0.471539 0.589308
0.386079 0.354953 0.187666
0.402258 0.359318 0.200536
0.418437 0.363682 0.213406
0.434616 0.368046 0.226276
0.450795 0.372411 0.239147
0.466975 0.376775 0.252017
0.483154 0.381139 0.264887
0.499333 0.385504 0.277757
0.515512 0.389868 0.290628
0.531691 0.394232 0.303498
0.547870 0.398597 0.316368
0.564049 0.402961 0.329238
0.580228 0.407325 0.342109
0.596407 0.411690 0.354979
0.612587 0.416054 0.367849
0.628766 0.420418 0.380719
0.644945 0.424783 0.393589
0.661124 0.429147 0.406460
0.677303 0.433511 0.419330
0.693482 0.437876 0.432200
0.709661 0.442240 0.445070
0.725840 0.446604 0.457941
0.742020 0.450969 0.470811
0.758199 0.455333 0.483681
0.774378 0.459698 0.496551
0.790557 0.464062 0.509422
0.806736 0.468426 0.522292
0.822915 0.472791 0.535162
0.839094 0.477155 0.548032
0.855273 0.481519 0.560903
0.871452 0.485884 0.573773
0.887632 0.490248 0.586643
0.903811 0.494612 0.599513
0.411547 0.378027 0.197871
0.427726 0.382391 0.210741
0.443905 0.386755 0.223611
0.460084 0.391120 0.236481
0.476263 0.395484 0.249352
0.492442 0.399848 0.262222
0.508621 0.404213 0.275092
0.524800 0.408577 0.287962
0.540979 0.412941 0.300833
0.557159 0.417306 0.313703
0.573338 0.421670 0.326573
0.589517 0.426034 0.339443
0.605696 0.430399 0.352314
0.621875 0.434763 0.365184
0.638054 0.439127 0.378054
0.654233 0.443492 0.390924
0.670412 0.447856 0.403795
0.686592 0.452220 0.416665
0.702771 0.456585 0.429535
0.718950 0.460949 0.442405
0.735129 0.465313 0.455276
0.751308 0.469678 0.468146
0.767487 0.474042 0.481016
0.783666 0.478407 0.493886
0.799845 0.482771 0.506756
0.816024 0.487135 0.519627
0.832204 0.491500 0.532497
0.848383 0.495864 0.545367
0.864562 0.500228 0.558237
0.880741 0.504593 0.571108
0.896920 0.508957 0.583978
0.913099 0.513321 0.596848
0.929278 0.517686 0.609718
0.437014 0.401100 0.208076
0.453193 0.405464 0.220946
0.469372 0.409829 0.233816
0.485552 0.414193 0.246686
0.501731 0.418557 0.259557
0.517910 0.422922 0.272427
0.534089 0.427286 0.285297
0.550268 0.431650 0.298167
0.566447 0.436015 0.311038
0.582626 0.440379 0.323908
0.598805 0.444743 0.336778
0.614984 0.449108 0.349648
0.631164 0.453472 0.362519
0.647343 0.457836 0.375389
0.663522 0.462201 0.388259
0.679701 0.466565 0.401129
0.695880 0.470929 0.414000
0.712059 0.475294 0.426870
0.728238 0.479658 0.439740
0.744417 0.484022 0.452610
0.760596 0.488387 0.465481
0.776776 0.492751 0.478351
0.792955 0.497115 0.491221
0.809134 0.501480 0.504091
0.825313 0.505844 0.516962
0.841492 0.510209 0.529832
0.857671 0.514573 0.542702
0.873850 0.518937 0.555572
0.890029 0.523302 0.568442
0.906209 0.527666 0.581313
0.922388 0.532030 0.594183
0.938567 0.536395 0.607053
0.954746 0.540759 0.619923
0.462482 0.424173 0.218281
0.478661 0.428538 0.231151
0.494840 0.432902 0.244021
0.511019 0.437266 0.256891
0.527198 0.441631 0.269762
0.543377 0.445995 0.282632
0.559556 0.450359 0.295502
0.575736 0.454724 0.308372
0.591915 0.459088 0.321243
0.608094 0.463452 0.334113
0.624273 0.467817 0.346983
0.640452 0.472181 0.359853
0.656631 0.476545 0.372724
0.672810 0.480910 0.385594
0.688989 0.485274 0.398464
0.705169 0.489638 0.411334
0.721348 0.494003 0.424205
0.737527 0.498367 0.437075
0.753706 0.502731 0.449945
0.769885 0.507096 0.462815
0.786064 0.511460 0.475686
0.802243 0.515824 0.488556
0.818422 0.520189 0.501426
0.834601 0.524553 0.514296
0.850781 0.528918 0.527167
0.866960 0.533282 0.540037
0.883139 0.537646 0.552907
0.899318 0.542011 0.565777
0.915497 0.546375 0.578648
0.931676 0.550739 0.591518
0.947855 0.555104 0.604388
0.964034 0.559468 0.617258
0.980214 0.563832 0.630128
0.487949 0.447247 0.228486
0.504128 0.451611 0.241356
0.520308 0.455975 0.254226
0.536487 0.460340 0.267097
0.552666 0.464704 0.279967
0.568845 0.469068 0.292837
0.585024 0.473433 0.305707
0.601203 0.477797 0.318578
0.617382 0.482161 0.331448
0.633561 0.486526 0.344318
0.649741 0.490890 0.357188
0.665920 0.495254 0.370058
0.682099 0.499619 0.382929
0.698278 0.503983 0.395799
0.714457 0.508347 0.408669
0.730636 0.512712 0.421539
0.746815 0.517076 0.434410
0.762994 0.521440 0.447280
0.779173 0.525805 0.460150
0.795353 0.530169 0.473020
0.811532 0.534533 0.485891
0.827711 0.538898 0.498761
0.843890 0.543262 0.511631
0.860069 0.547627 0.524501
0.876248 0.551991 0.537372
0.892427 0.556355 0.550242
0.908606 0.560720 0.563112
0.924786 0.565084 0.575982
0.940965 0.569448 0.588853
0.957144 0.573813 0.601723
0.973323 0.578177 0.614593
0.989502 0.582541 0.627463
1.000000 0.586906 0.640334
0.513417 0.470320 0.238691
0.529596 0.474684 0.251561
0.545775 0.479049 0.264431
0.561954 0.483413 0.277302
0.578133 0.487777 0.290172
0.594313 0.492142 0.303042
0.610492 0.496506 0.315912
0.626671 0.500870 0.328783
0.642850 0.505235 0.341653
0.659029 0.509599 0.354523
0.675208 0.513963 0.367393
0.691387 0.518328 0.380264
0.707566 0.522692 0.393134
0.723746 0.527056 0.406004
0.739925 0.531421 0.418874
0.756104 0.535785 0.431744
0.772283 0.540149 0.444615
0.788462 0.544514 0.457485
0.804641 0.548878 0.470355
0.820820 0.553242 0.483225
0.836999 0.557607 0.496096
0.853178 0.561971 0.508966
0.869358 0.566335 0.521836
0.885537 0.570700 0.534706
0.901716 0.575064 0.547577
0.917895 0.579429 0.560447
0.934074 0.583793 0.573317
0.950253 0.588157 0.586187
0.966432 0.592522 0.599058
0.982611 0.596886 0.611928
0.998790 0.601250 0.624798
1.000000 0.605615 0.637668
1.000000 0.609979 0.650539
0.538885 0.493393 0.248896
0.555064 0.497758 0.261766
0.571243 0.502122 0.274636
0.587422 0.506486 0.287507
0.603601 0.510851 0.300377
0.619780 0.515215 0.313247
0.635959 0.519579 0.326117
0.652138 0.523944 0.338988
0.668318 0.528308 0.351858
0.684497 0.532672 0.364728
0.700676 0.537037 0.377598
0.716855 0.541401 0.390469
0.733034 0.545765 0.403339
0.749213 0.550130 0.416209
0.765392 0.554494 0.429079
0.781571 0.558858 0.441950
0.797750 0.563223 0.454820
0.813930 0.567587 0.467690
0.830109 0.571951 0.480560
0.846288 0.576316 0.493431
0.862467 0.580680 0.506301
0.878646 0.585044 0.519171
0.894825 0.589409 0.532041
0.911004 0.593773 0.544911
0.927183 0.598138 0.557782
0.943363 0.602502 0.570652
0.959542 0.606866 0.583522
0.975721 0.611231 0.596392
0.991900 0.615595 0.609263
1.000000 0.619959 0.622133
1.000000 0.624324 0.635003
1.000000 0.628688 0.647873
1.000000 0.633052 0.660744
0.564352 0.516467 0.259101
0.580531 0.520831 0.271971
0.596710 0.525195 0.284841
0.612890 0.529560 0.297712
0.629069 0.533924 0.310582
0.645248 0.538288 0.323452
0.661427 0.542653 0.336322
0.677606 0.547017 0.349193
0.693785 0.551381 0.362063
0.709964 0.555746 0.374933
0.726143 0.560110 0.387803
0.742322 0.564474 0.400674
0.758502 0.568839 0.413544
0.774681 0.573203 0.426414
0.790860 0.577567 0.439284
0.807039 0.581932 0.452155
0.823218 0.586296 0.465025
0.839397 0.590660 0.477895
0.855576 0.595025 0.490765
0.871755 0.599389 0.503636
0.887935 0.603753 0.516506
0.904114 0.608118 0.529376
0.920293 0.612482 0.542246
0.936472 0.616847 0.555117
0.952651 0.621211 0.567987
0.968830 0.625575 0.580857
0.985009 0.629940 0.593727
1.000000 0.634304 0.606597
1.000000 0.638668 0.619468
1.000000 0.643033 0.632338
1.000000 0.647397 0.645208
1.000000 0.651761 0.658078
1.000000 0.656126 0.670949
0.589820 0.539540 0.269306
0.605999 0.543904 0.282176
0.622178 0.548269 0.295046
0.638357 0.552633 0.307917
0.654536 0.556997 0.320787
0.670715 0.561362 0.333657
0.686895 0.565726 0.346527
0.703074 0.570090 0.359398
0.719253 0.574455 0.372268
0.735432 0.578819 0.385138
0.751611 0.583183 0.398008
0.767790 0.587548 0.410879
0.783969 0.591912 0.423749
0.800148 0.596276 0.436619
0.816327 0.600641 0.449489
0.832507 0.605005 0.462360
0.848686 0.609369 0.475230
0.864865 0.613734 0.488100
0.881044 0.618098 0.500970
0.897223 0.622462 0.513841
0.913402 0.626827 0.526711
0.929581 0.631191 0.539581
0.945760 0.635555 0.552451
0.961940 0.639920 0.565322
0.978119 0.644284 0.578192
0.994298 0.648649 0.591062
1.000000 0.653013 0.603932
1.000000 0.657377 0.616803
1.000000 0.661742 0.629673
1.000000 0.666106 0.642543
1.000000 0.670470 0.655413
1.000000 0.674835 0.668283
1.000000 0.679199 0.681154
0.615287 0.562613 0.279511
0.631467 0.566978 0.292381
0.647646 0.571342 0.305252
0.663825 0.575706 0.318122
0.680004 0.580071 0.330992
0.696183 0.584435 0.343862
0.712362 0.588799 0.356733
0.728541 0.593164 0.369603
0.744720 0.597528 0.382473
0.760899 0.601892 0.395343
0.777079 0.606257 0.408213
0.793258 0.610621 0.421084
0.809437 0.614985 0.433954
0.825616 0.619350 0.446824
0.841795 0.623714 0.459694
0.857974 0.628078 0.472565
0.874153 0.632443 0.485435
0.890332 0.636807 0.498305
0.906512 0.641171 0.511175
0.922691 0.645536 0.524046
0.938870 0.649900 0.536916
0.955049 0.654264 0.549786
0.971228 0.658629 0.562656
0.987407 0.662993 0.575527
1.000000 0.667358 0.588397
1.000000 0.671722 0.601267
1.000000 0.676086 0.614137
1.000000 0.680451 0.627008
1.000000 0.684815 0.639878
1.000000 0.689179 0.652748
1.000000 0.693544 0.665618
1.000000 0.697908 0.678489
1.000000 0.702272 0.691359
0.640755 0.585687 0.289716
0.656934 0.590051 0.302586
0.673113 0.594415 0.315457
0.689292 0.598780 0.328327
0.705472 0.603144 0.341197
0.721651 0.607508 0.354067
0.737830 0.611873 0.366938
0.754009 0.616237 0.379808
0.770188 0.620601 0.392678
0.786367 0.624966 0.405548
0.802546 0.629330 0.418419
0.818725 0.633694 0.431289
0.834904 0.638059 0.444159
0.851084 0.642423 0.457029
0.867263 0.646787 0.469899
0.883442 0.651152 0.482770
0.899621 0.655516 0.495640
0.915800 0.659880 0.508510
0.931979 0.664245 0.521380
0.948158 0.668609 0.534251
0.964337 0.672973 0.547121
0.980516 0.677338 0.559991
0.996696 0.681702 0.572861
1.000000 0.686067 0.585732
1.000000 0.690431 0.598602
1.000000 0.694795 0.611472
1.000000 0.699160 0.624342
1.000000 0.703524 0.637213
1.000000 0.707888 0.650083
1.000000 0.712253 0.662953
1.000000 0.716617 0.675823
1.000000 0.720981 0.688694
1.000000 0.725346 0.701564
0.666223 0.608760 0.299921
0.682402 0.613124 0.312791
0.698581 0.617489 0.325662
0.714760 0.621853 0.338532
0.730939 0.626217 0.351402
0.747118 0.630582 0.364272
0.763297 0.634946 0.377143
0.779476 0.639310 0.390013
0.795656 0.643675 0.402883
0.811835 0.648039 0.415753
0.828014 0.652403 0.428624
0.844193 0.656768 0.441494
0.860372 0.661132 0.454364
0.876551 0.665496 0.467234
0.892730 0.669861 0.480105
0.908909 0.674225 0.492975
0.925089 0.678589 0.505845
0.941268 0.682954 0.518715
0.957447 0.687318 0.531585
0.973626 0.691682 0.544456
0.989805 0.696047 0.557326
1.000000 0.700411 0.570196
1.000000 0.704775 0.583066
1.000000 0.709140 0.595937
1.000000 0.713504 0.608807
1.000000 0.717869 0.621677
1.000000 0.722233 0.634547
1.000000 0.726597 0.647418
1.000000 0.730962 0.660288
1.000000 0.735326 0.673158
1.000000 0.739690 0.686028
1.000000 0.744055 0.698899
1.000000 0.748419 0.711769
0.691690 0.631833 0.310126
0.707869 0.636198 0.322996
0.724048 0.640562 0.335867
0.740228 0.644926 0.348737
0.756407 0.649291 0.361607
0.772586 0.653655 0.374477
0.788765 0.658019 0.387348
0.804944 0.662384 0.400218
0.821123 0.666748 0.413088
0.837302 0.671112 0.425958
0.853481 0.675477 0.438829
0.869661 0.679841 0.451699
0.885840 0.684205 0.464569
0.902019 0.688570 0.477439
0.918198 0.692934 0.490310
0.934377 0.697298 0.503180
0.950556 0.701663 0.516050
0.966735 0.706027 0.528920
0.982914 0.710391 0.541791
0.999093 0.714756 0.554661
1.000000 0.719120 0.567531
1.000000 0.723484 0.580401
1.000000 0.727849 0.593272
1.000000 0.732213 0.606142
1.000000 0.736578 0.619012
1.000000 0.740942 0.631882
1.000000 0.745306 0.644752
1.000000 0.749671 0.657623
1.000000 0.754035 0.670493
1.000000 0.758399 0.683363
1.000000 0.762764 0.696233
1.000000 0.767128 0.709104
1.000000 0.771492 0.721974
0.717158 0.654907 0.320331
0.733337 0.659271 0.333201
0.749516 0.663635 0.346072
0.765695 0.668000 0.358942
0.781874 0.672364 0.371812
0.798053 0.676728 0.384682
0.814233 0.681093 0.397553
0.830412 0.685457 0.410423
0.846591 0.689821 0.423293
0.862770 0.694186 0.436163
0.878949 0.698550 0.449034
0.895128 0.702914 0.461904
0.911307 0.707279 0.474774
0.927486 0.711643 0.487644
0.943666 0.716007 0.500515
0.959845 0.720372 0.513385
0.976024 0.724736 0.526255
0.992203 0.729100 0.539125
1.000000 0.733465 0.551996
1.000000 0.737829 0.564866
1.000000 0.742193 0.577736
