personal-map-app/personal-map-app/photo-sticker-lab/luts/paper-warm.cube
# 由 tools/bake_luts.py 生成，请勿手改。
# 来源 CSS filter 链: sepia(.18) saturate(.82) contrast(1.03)
# 说明: 轻微暖调偏黄，接近 --paper #f4f2eb 的纸张感。
TITLE "paper-warm"
LUT_3D_SIZE 5
DOMAIN_MIN 0.000000 0.000000 0.000000
DOMAIN_MAX 1.000000 1.000000 1.000000
0.000000 0.000000 0.000000
0.184119 0.009304 0.006377
0.383238 0.033607 0.027754
0.582357 0.057911 0.049131
0.781476 0.082214 0.070508
0.047182 0.217170 0.038250
0.246301 0.241474 0.059627
0.445420 0.265777 0.081004
0.644539 0.290081 0.102381
0.843657 0.314385 0.123758
0.109364 0.449341 0.091500
0.308483 0.473644 0.112878
0.507602 0.497948 0.134255
0.706720 0.522251 0.155632
0.905839 0.546555 0.177009
0.171546 0.681511 0.144751
0.370665 0.705814 0.166128
0.569783 0.730118 0.187505
0.768902 0.754422 0.208882
0.968021 0.778725 0.230259
0.233728 0.913681 0.198001
0.432846 0.937985 0.219378
0.631965 0.962288 0.240755
0.831084 0.986592 0.262132
1.000000 1.000000 0.281522
0.000000 0.000000 0.167275
0.195455 0.019842 0.188652
0.394574 0.044146 0.210029
0.593693 0.068449 0.231406
0.792812 0.092753 0.252783
0.058518 0.227709 0.220525
0.257637 0.252012 0.241902
0.456756 0.276316 0.263279
0.655875 0.300619 0.284656
0.854994 0.324923 0.306034
0.120700 0.459879 0.273776
0.319819 0.484183 0.295153
0.518938 0.508486 0.316530
0.718057 0.532790 0.337907
0.917176 0.557093 0.359284
0.182882 0.692049 0.327026
0.382001 0.716353 0.348403
0.581120 0.740656 0.369780
0.780239 0.764960 0.391157
0.976652 0.789143 0.412413
0.245064 0.924220 0.380276
0.444183 0.948523 0.401653
0.643302 0.972827 0.423030
0.842421 0.997130 0.444407
1.000000 1.000000 0.462460
0.007673 0.006077 0.349550
0.206792 0.030380 0.370927
0.405911 0.054684 0.392304
0.605030 0.078988 0.413681
0.804149 0.103291 0.435058
0.069855 0.238247 0.402801
0.268974 0.262551 0.424178
0.468093 0.286854 0.445555
0.667212 0.311158 0.466932
0.866331 0.335461 0.488309
0.132037 0.470417 0.456051
0.331156 0.494721 0.477428
0.530275 0.519025 0.498805
0.729393 0.543328 0.520182
0.928512 0.567632 0.541559
0.194219 0.702588 0.509301
0.393338 0.726891 0.530678
0.592456 0.751195 0.552055
0.791575 0.775498 0.573432
0.980470 0.799345 0.594352
0.256401 0.934758 0.562551
0.455519 0.959062 0.583928
0.654638 0.983365 0.605305
0.853000 1.000000 0.625925
1.000000 1.000000 0.643397
0.019010 0.016615 0.531825
0.218129 0.040919 0.553202
0.417247 0.065222 0.574579
0.616366 0.089526 0.595957
0.815485 0.113830 0.617334
0.081192 0.248785 0.585076
0.280310 0.273089 0.606453
0.479429 0.297393 0.627830
0.678548 0.321696 0.649207
0.877667 0.346000 0.670584
0.143373 0.480956 0.638326
0.342492 0.505259 0.659703
0.541611 0.529563 0.681080
0.740730 0.553867 0.702457
0.939849 0.578170 0.723834
0.205555 0.713126 0.691576
0.404674 0.737430 0.712953
0.603793 0.761733 0.734330
0.802912 0.786037 0.755707
0.984287 0.809548 0.776292
0.267737 0.945296 0.744826
0.466856 0.969600 0.766203
0.665975 0.993904 0.787580
0.863334 1.000000 0.807198
1.000000 1.000000 0.824334
0.030346 0.027154 0.714101
0.229465 0.051457 0.735478
0.428584 0.075761 0.756855
0.627703 0.100064 0.778232
0.826822 0.124368 0.799609
0.092528 0.259324 0.767351
0.291647 0.283627 0.788728
0.490766 0.307931 0.810105
0.689885 0.332235 0.831482
0.889004 0.356538 0.852859
0.154710 0.491494 0.820601
0.353829 0.515798 0.841978
0.552948 0.540101 0.863355
0.752067 0.564405 0.884732
0.951185 0.588708 0.906109
0.216892 0.723664 0.873851
0.416011 0.747968 0.895228
0.615130 0.772272 0.916605
0.814248 0.796575 0.937982
0.988104 0.819750 0.958231
0.279074 0.955835 0.927101
0.478193 0.980138 0.948479
0.676631 0.999429 0.969176
0.873668 1.000000 0.988471
1.000000 1.000000 1.000000
