personal-map-app/personal-map-app/photo-sticker-lab/luts/paper-muted.cube
# 由 tools/bake_luts.py 生成，请勿手改。
# 来源 CSS filter 链: saturate(.65) contrast(1.03) brightness(.68)
# 说明: 扫描页调性，低饱和压暗，最接近原型的纸感基调。
TITLE "paper-muted"
LUT_3D_SIZE 9
DOMAIN_MIN 0.000000 0.000000 0.000000
DOMAIN_MAX 1.000000 1.000000 1.000000
0.000000 0.000000 0.000000
0.053234 0.000000 0.000000
0.116669 0.002854 0.002854
0.180103 0.009381 0.009381
0.243537 0.015907 0.015907
0.306972 0.022434 0.022434
0.370406 0.028961 0.028961
0.433840 0.035488 0.035488
0.497275 0.042015 0.042015
0.011709 0.068617 0.011709
0.075144 0.075144 0.018236
0.138578 0.081671 0.024763
0.202012 0.088197 0.031290
0.265447 0.094724 0.037817
0.328881 0.101251 0.044344
0.392316 0.107778 0.050871
0.455750 0.114305 0.057397
0.519184 0.120832 0.063924
0.033619 0.147434 0.033619
0.097053 0.153961 0.040146
0.160487 0.160487 0.046672
0.223922 0.167014 0.053199
0.287356 0.173541 0.059726
0.350791 0.180068 0.066253
0.414225 0.186595 0.072780
0.477659 0.193122 0.079307
0.541094 0.199649 0.085834
0.055528 0.226251 0.055528
0.118963 0.232778 0.062055
0.182397 0.239304 0.068582
0.245831 0.245831 0.075109
0.309266 0.252358 0.081636
0.372700 0.258885 0.088162
0.436134 0.265412 0.094689
0.499569 0.271939 0.101216
0.563003 0.278465 0.107743
0.077438 0.305068 0.077438
0.140872 0.311594 0.083964
0.204306 0.318121 0.090491
0.267741 0.324648 0.097018
0.331175 0.331175 0.103545
0.394609 0.337702 0.110072
0.458044 0.344229 0.116599
0.521478 0.350756 0.123126
0.584912 0.357282 0.129652
0.099347 0.383884 0.099347
0.162781 0.390411 0.105874
0.226216 0.396938 0.112401
0.289650 0.403465 0.118927
0.353084 0.409992 0.125454
0.416519 0.416519 0.131981
0.479953 0.423046 0.138508
0.543387 0.429572 0.145035
0.606822 0.436099 0.151562
0.121256 0.462701 0.121256
0.184691 0.469228 0.127783
0.248125 0.475755 0.134310
0.311559 0.482282 0.140837
0.374994 0.488809 0.147364
0.438428 0.495336 0.153891
0.501862 0.501862 0.160417
0.565297 0.508389 0.166944
0.628731 0.514916 0.173471
0.143166 0.541518 0.143166
0.206600 0.548045 0.149693
0.270034 0.554572 0.156219
0.333469 0.561099 0.162746
0.396903 0.567626 0.169273
0.460337 0.574152 0.175800
0.523772 0.580679 0.182327
0.587206 0.587206 0.188854
0.650641 0.593733 0.195381
0.165075 0.620335 0.165075
0.228509 0.626862 0.171602
0.291944 0.633389 0.178129
0.355378 0.639916 0.184656
0.418813 0.646443 0.191183
0.482247 0.652969 0.197709
0.545681 0.659496 0.204236
0.609116 0.666023 0.210763
0.672550 0.672550 0.217290
0.000000 0.000000 0.048914
0.055441 0.000000 0.055441
0.118875 0.005060 0.061967
0.182309 0.011587 0.068494
0.245744 0.018114 0.075021
0.309178 0.024641 0.081548
0.372612 0.031167 0.088075
0.436047 0.037694 0.094602
0.499481 0.044221 0.101129
0.013916 0.070823 0.070823
0.077350 0.077350 0.077350
0.140784 0.083877 0.083877
0.204219 0.090404 0.090404
0.267653 0.096931 0.096931
0.331087 0.103457 0.103457
0.394522 0.109984 0.109984
0.457956 0.116511 0.116511
0.521390 0.123038 0.123038
0.035825 0.149640 0.092733
0.099259 0.156167 0.099259
0.162694 0.162694 0.105786
0.226128 0.169221 0.112313
0.289562 0.175747 0.118840
0.352997 0.182274 0.125367
0.416431 0.188801 0.131894
0.479866 0.195328 0.138421
0.543300 0.201855 0.144947
0.057734 0.228457 0.114642
0.121169 0.234984 0.121169
0.184603 0.241511 0.127696
0.248037 0.248037 0.134222
0.311472 0.254564 0.140749
0.374906 0.261091 0.147276
0.438341 0.267618 0.153803
0.501775 0.274145 0.160330
0.565209 0.280672 0.166857
0.079644 0.307274 0.136551
0.143078 0.313801 0.143078
0.206513 0.320328 0.149605
0.269947 0.326854 0.156132
0.333381 0.333381 0.162659
0.396816 0.339908 0.169186
0.460250 0.346435 0.175712
0.523684 0.352962 0.182239
0.587119 0.359489 0.188766
0.101553 0.386091 0.158461
0.164988 0.392618 0.164988
0.228422 0.399144 0.171514
0.291856 0.405671 0.178041
0.355291 0.412198 0.184568
0.418725 0.418725 0.191095
0.482159 0.425252 0.197622
0.545594 0.431779 0.204149
0.609028 0.438306 0.210676
0.123463 0.464908 0.180370
0.186897 0.471434 0.186897
0.250331 0.477961 0.193424
0.313766 0.484488 0.199951
0.377200 0.491015 0.206477
0.440634 0.497542 0.213004
0.504069 0.504069 0.219531
0.567503 0.510596 0.226058
0.630937 0.517122 0.232585
0.145372 0.543724 0.202279
0.208806 0.550251 0.208806
0.272241 0.556778 0.215333
0.335675 0.563305 0.221860
0.399109 0.569832 0.228387
0.462544 0.576359 0.234914
0.525978 0.582886 0.241441
0.589412 0.589412 0.247967
0.652847 0.595939 0.254494
0.167281 0.622541 0.224189
0.230716 0.629068 0.230716
0.294150 0.635595 0.237243
0.357584 0.642122 0.243769
0.421019 0.648649 0.250296
0.484453 0.655176 0.256823
0.547887 0.661702 0.263350
0.611322 0.668229 0.269877
0.674756 0.674756 0.276404
0.000000 0.000000 0.108028
0.057647 0.000739 0.114554
0.121081 0.007266 0.121081
0.184516 0.013793 0.127608
0.247950 0.020320 0.134135
0.311384 0.026847 0.140662
0.374819 0.033374 0.147189
0.438253 0.039900 0.153715
0.501687 0.046427 0.160242
0.016122 0.073029 0.129937
0.079556 0.079556 0.136464
0.142991 0.086083 0.142991
0.206425 0.092610 0.149517
0.269859 0.099137 0.156044
0.333294 0.105664 0.162571
0.396728 0.112191 0.169098
0.460162 0.118717 0.175625
0.523597 0.125244 0.182152
0.038031 0.151846 0.151846
0.101466 0.158373 0.158373
0.164900 0.164900 0.164900
0.228334 0.171427 0.171427
0.291769 0.177954 0.177954
0.355203 0.184481 0.184481
0.418637 0.191007 0.191007
0.482072 0.197534 0.197534
0.545506 0.204061 0.204061
0.059941 0.230663 0.173756
0.123375 0.237190 0.180283
0.186809 0.243717 0.186809
0.250244 0.250244 0.193336
0.313678 0.256771 0.199863
0.377112 0.263297 0.206390
0.440547 0.269824 0.212917
0.503981 0.276351 0.219444
0.567416 0.282878 0.225971
0.081850 0.309480 0.195665
0.145284 0.316007 0.202192
0.208719 0.322534 0.208719
0.272153 0.329061 0.215246
0.335587 0.335587 0.221772
0.399022 0.342114 0.228299
0.462456 0.348641 0.234826
0.525891 0.355168 0.241353
0.589325 0.361695 0.247880
0.103759 0.388297 0.217574
0.167194 0.394824 0.224101
0.230628 0.401351 0.230628
0.294063 0.407878 0.237155
0.357497 0.414404 0.243682
0.420931 0.420931 0.250209
0.484366 0.427458 0.256736
0.547800 0.433985 0.263262
0.611234 0.440512 0.269789
0.125669 0.467114 0.239484
0.189103 0.473641 0.246011
0.252538 0.480168 0.252538
0.315972 0.486694 0.259064
0.379406 0.493221 0.265591
0.442841 0.499748 0.272118
0.506275 0.506275 0.278645
0.569709 0.512802 0.285172
0.633144 0.519329 0.291699
0.147578 0.545931 0.261393
0.211013 0.552458 0.267920
0.274447 0.558984 0.274447
0.337881 0.565511 0.280974
0.401316 0.572038 0.287501
0.464750 0.578565 0.294027
0.528184 0.585092 0.300554
0.591619 0.591619 0.307081
0.655053 0.598146 0.313608
0.169488 0.624748 0.283303
0.232922 0.631274 0.289829
0.296356 0.637801 0.296356
0.359791 0.644328 0.302883
0.423225 0.650855 0.309410
0.486659 0.657382 0.315937
0.550094 0.663909 0.322464
0.613528 0.670436 0.328991
0.676962 0.676962 0.335517
0.000000 0.000000 0.167141
0.059853 0.002946 0.173668
0.123287 0.009472 0.180195
0.186722 0.015999 0.186722
0.250156 0.022526 0.193249
0.313591 0.029053 0.199776
0.377025 0.035580 0.206302
0.440459 0.042107 0.212829
0.503894 0.048634 0.219356
0.018328 0.075236 0.189051
0.081763 0.081763 0.195578
0.145197 0.088289 0.202104
0.208631 0.094816 0.208631
0.272066 0.101343 0.215158
0.335500 0.107870 0.221685
0.398934 0.114397 0.228212
0.462369 0.120924 0.234739
0.525803 0.127450 0.241265
0.040238 0.154053 0.210960
0.103672 0.160579 0.217487
0.167106 0.167106 0.224014
0.230541 0.173633 0.230541
0.293975 0.180160 0.237067
0.357409 0.186687 0.243594
0.420844 0.193214 0.250121
0.484278 0.199741 0.256648
0.547712 0.206267 0.263175
0.062147 0.232869 0.232869
0.125581 0.239396 0.239396
0.189016 0.245923 0.245923
0.252450 0.252450 0.252450
0.315884 0.258977 0.258977
0.379319 0.265504 0.265504
0.442753 0.272031 0.272031
0.506187 0.278557 0.278557
0.569622 0.285084 0.285084
0.084056 0.311686 0.254779
0.147491 0.318213 0.261306
0.210925 0.324740 0.267833
0.274359 0.331267 0.274359
0.337794 0.337794 0.280886
0.401228 0.344321 0.287413
0.464662 0.350847 0.293940
0.528097 0.357374 0.300467
0.591531 0.363901 0.306994
0.105966 0.390503 0.276688
0.169400 0.397030 0.283215
0.232834 0.403557 0.289742
0.296269 0.410084 0.296269
0.359703 0.416611 0.302796
0.423137 0.423137 0.309322
0.486572 0.429664 0.315849
0.550006 0.436191 0.322376
0.613441 0.442718 0.328903
0.127875 0.469320 0.298598
0.191309 0.475847 0.305124
0.254744 0.482374 0.311651
0.318178 0.488901 0.318178
0.381613 0.495428 0.324705
0.445047 0.501954 0.331232
0.508481 0.508481 0.337759
0.571916 0.515008 0.344286
0.635350 0.521535 0.350812
0.149784 0.548137 0.320507
0.213219 0.554664 0.327034
0.276653 0.561191 0.333561
0.340088 0.567718 0.340088
0.403522 0.574244 0.346614
0.466956 0.580771 0.353141
0.530391 0.587298 0.359668
0.593825 0.593825 0.366195
0.657259 0.600352 0.372722
0.171694 0.626954 0.342416
0.235128 0.633481 0.348943
0.298563 0.640008 0.355470
0.361997 0.646534 0.361997
0.425431 0.653061 0.368524
0.488866 0.659588 0.375051
0.552300 0.666115 0.381577
0.615734 0.672642 0.388104
0.679169 0.679169 0.394631
0.000000 0.000000 0.226255
0.062059 0.005152 0.232782
0.125494 0.011679 0.239309
0.188928 0.018206 0.245836
0.252362 0.024732 0.252362
0.315797 0.031259 0.258889
0.379231 0.037786 0.265416
0.442666 0.044313 0.271943
0.506100 0.050840 0.278470
0.020534 0.077442 0.248164
0.083969 0.083969 0.254691
0.147403 0.090496 0.261218
0.210837 0.097022 0.267745
0.274272 0.103549 0.274272
0.337706 0.110076 0.280799
0.401141 0.116603 0.287326
0.464575 0.123130 0.293852
0.528009 0.129657 0.300379
0.042444 0.156259 0.270074
0.105878 0.162786 0.276601
0.169313 0.169313 0.283128
0.232747 0.175839 0.289654
0.296181 0.182366 0.296181
0.359616 0.188893 0.302708
0.423050 0.195420 0.309235
0.486484 0.201947 0.315762
0.549919 0.208474 0.322289
0.064353 0.235076 0.291983
0.127788 0.241603 0.298510
0.191222 0.248129 0.305037
0.254656 0.254656 0.311564
0.318091 0.261183 0.318091
0.381525 0.267710 0.324617
0.444959 0.274237 0.331144
0.508394 0.280764 0.337671
0.571828 0.287291 0.344198
0.086263 0.313893 0.313893
0.149697 0.320419 0.320419
0.213131 0.326946 0.326946
0.276566 0.333473 0.333473
0.340000 0.340000 0.340000
0.403434 0.346527 0.346527
0.466869 0.353054 0.353054
0.530303 0.359581 0.359581
0.593737 0.366107 0.366107
0.108172 0.392709 0.335802
0.171606 0.399236 0.342329
0.235041 0.405763 0.348856
0.298475 0.412290 0.355383
0.361909 0.418817 0.361909
0.425344 0.425344 0.368436
0.488778 0.431871 0.374963
0.552212 0.438397 0.381490
0.615647 0.444924 0.388017
0.130081 0.471526 0.357711
0.193516 0.478053 0.364238
0.256950 0.484580 0.370765
0.320384 0.491107 0.377292
0.383819 0.497634 0.383819
0.447253 0.504161 0.390346
0.510687 0.510687 0.396872
0.574122 0.517214 0.403399
0.637556 0.523741 0.409926
0.151991 0.550343 0.379621
0.215425 0.556870 0.386148
0.278859 0.563397 0.392674
0.342294 0.569924 0.399201
0.405728 0.576451 0.405728
0.469163 0.582978 0.412255
0.532597 0.589504 0.418782
0.596031 0.596031 0.425309
0.659466 0.602558 0.431836
0.173900 0.629160 0.401530
0.237334 0.635687 0.408057
0.300769 0.642214 0.414584
0.364203 0.648741 0.421111
0.427638 0.655268 0.427638
0.491072 0.661794 0.434164
0.554506 0.668321 0.440691
0.617941 0.674848 0.447218
0.680000 0.680000 0.453745
0.000831 0.000831 0.285369
0.064266 0.007358 0.291896
0.127700 0.013885 0.298423
0.191134 0.020412 0.304949
0.254569 0.026939 0.311476
0.318003 0.033466 0.318003
0.381437 0.039992 0.324530
0.444872 0.046519 0.331057
0.508306 0.053046 0.337584
0.022741 0.079648 0.307278
0.086175 0.086175 0.313805
0.149609 0.092702 0.320332
0.213044 0.099229 0.326859
0.276478 0.105756 0.333386
0.339912 0.112282 0.339912
0.403347 0.118809 0.346439
0.466781 0.125336 0.352966
0.530216 0.131863 0.359493
0.044650 0.158465 0.329188
0.108084 0.164992 0.335714
0.171519 0.171519 0.342241
0.234953 0.178046 0.348768
0.298387 0.184572 0.355295
0.361822 0.191099 0.361822
0.425256 0.197626 0.368349
0.488691 0.204153 0.374876
0.552125 0.210680 0.381402
0.066559 0.237282 0.351097
0.129994 0.243809 0.357624
0.193428 0.250336 0.364151
0.256863 0.256863 0.370678
0.320297 0.263389 0.377204
0.383731 0.269916 0.383731
0.447166 0.276443 0.390258
0.510600 0.282970 0.396785
0.574034 0.289497 0.403312
0.088469 0.316099 0.373006
0.151903 0.322626 0.379533
0.215338 0.329153 0.386060
0.278772 0.335679 0.392587
0.342206 0.342206 0.399114
0.405641 0.348733 0.405641
0.469075 0.355260 0.412167
0.532509 0.361787 0.418694
0.595944 0.368314 0.425221
0.110378 0.394916 0.394916
0.173813 0.401443 0.401443
0.237247 0.407969 0.407969
0.300681 0.414496 0.414496
0.364116 0.421023 0.421023
0.427550 0.427550 0.427550
0.490984 0.434077 0.434077
0.554419 0.440604 0.440604
0.617853 0.447131 0.447131
0.132288 0.473733 0.416825
0.195722 0.480259 0.423352
0.259156 0.486786 0.429879
0.322591 0.493313 0.436406
0.386025 0.499840 0.442933
0.449459 0.506367 0.449459
0.512894 0.512894 0.455986
0.576328 0.519421 0.462513
0.639762 0.525947 0.469040
0.154197 0.552550 0.438735
0.217631 0.559076 0.445261
0.281066 0.565603 0.451788
0.344500 0.572130 0.458315
0.407934 0.578657 0.464842
0.471369 0.585184 0.471369
0.534803 0.591711 0.477896
0.598237 0.598237 0.484422
0.661672 0.604764 0.490949
0.176106 0.631366 0.460644
0.239541 0.637893 0.467171
0.302975 0.644420 0.473698
0.366409 0.650947 0.480224
0.429844 0.657474 0.486751
0.493278 0.664001 0.493278
0.556713 0.670528 0.499805
0.620147 0.677054 0.506332
0.680000 0.680000 0.512859
0.003038 0.003038 0.344483
0.066472 0.009564 0.351009
0.129906 0.016091 0.357536
0.193341 0.022618 0.364063
0.256775 0.029145 0.370590
0.320209 0.035672 0.377117
0.383644 0.042199 0.383644
0.447078 0.048726 0.390171
0.510512 0.055252 0.396697
0.024947 0.081854 0.366392
0.088381 0.088381 0.372919
0.151816 0.094908 0.379446
0.215250 0.101435 0.385973
0.278684 0.107962 0.392499
0.342119 0.114489 0.399026
0.405553 0.121016 0.405553
0.468987 0.127542 0.412080
0.532422 0.134069 0.418607
0.046856 0.160671 0.388301
0.110291 0.167198 0.394828
0.173725 0.173725 0.401355
0.237159 0.180252 0.407882
0.300594 0.186779 0.414409
0.364028 0.193306 0.420936
0.427462 0.199832 0.427462
0.490897 0.206359 0.433989
0.554331 0.212886 0.440516
0.068766 0.239488 0.410211
0.132200 0.246015 0.416738
0.195634 0.252542 0.423264
0.259069 0.259069 0.429791
0.322503 0.265596 0.436318
0.385937 0.272122 0.442845
0.449372 0.278649 0.449372
0.512806 0.285176 0.455899
0.576241 0.291703 0.462426
0.090675 0.318305 0.432120
0.154109 0.324832 0.438647
0.217544 0.331359 0.445174
0.280978 0.337886 0.451701
0.344413 0.344413 0.458228
0.407847 0.350939 0.464754
0.471281 0.357466 0.471281
0.534716 0.363993 0.477808
0.598150 0.370520 0.484335
0.112584 0.397122 0.454029
0.176019 0.403649 0.460556
0.239453 0.410176 0.467083
0.302888 0.416703 0.473610
0.366322 0.423229 0.480137
0.429756 0.429756 0.486664
0.493191 0.436283 0.493191
0.556625 0.442810 0.499717
0.620059 0.449337 0.506244
0.134494 0.475939 0.475939
0.197928 0.482466 0.482466
0.261363 0.488993 0.488993
0.324797 0.495519 0.495519
0.388231 0.502046 0.502046
0.451666 0.508573 0.508573
0.515100 0.515100 0.515100
0.578534 0.521627 0.521627
0.641969 0.528154 0.528154
0.156403 0.554756 0.497848
0.219838 0.561283 0.504375
0.283272 0.567809 0.510902
0.346706 0.574336 0.517429
0.410141 0.580863 0.523956
0.473575 0.587390 0.530483
0.537009 0.593917 0.537009
0.600444 0.600444 0.543536
0.663878 0.606971 0.550063
0.178313 0.633573 0.519758
0.241747 0.640100 0.526285
0.305181 0.646626 0.532811
0.368616 0.653153 0.539338
0.432050 0.659680 0.545865
0.495484 0.666207 0.552392
0.558919 0.672734 0.558919
0.622353 0.679261 0.565446
0.680000 0.680000 0.571972
0.005244 0.005244 0.403596
0.068678 0.011771 0.410123
0.132113 0.018298 0.416650
0.195547 0.024824 0.423177
0.258981 0.031351 0.429704
0.322416 0.037878 0.436231
0.385850 0.044405 0.442757
0.449284 0.050932 0.449284
0.512719 0.057459 0.455811
0.027153 0.084061 0.425506
0.090588 0.090588 0.432033
0.154022 0.097114 0.438559
0.217456 0.103641 0.445086
0.280891 0.110168 0.451613
0.344325 0.116695 0.458140
0.407759 0.123222 0.464667
0.471194 0.129749 0.471194
0.534628 0.136276 0.477721
0.049063 0.162878 0.447415
0.112497 0.169404 0.453942
0.175931 0.175931 0.460469
0.239366 0.182458 0.466996
0.302800 0.188985 0.473523
0.366234 0.195512 0.480049
0.429669 0.202039 0.486576
0.493103 0.208566 0.493103
0.556537 0.215092 0.499630
0.070972 0.241694 0.469324
0.134406 0.248221 0.475851
0.197841 0.254748 0.482378
0.261275 0.261275 0.488905
0.324709 0.267802 0.495432
0.388144 0.274329 0.501959
0.451578 0.280856 0.508486
0.515012 0.287382 0.515012
0.578447 0.293909 0.521539
0.092881 0.320511 0.491234
0.156316 0.327038 0.497761
0.219750 0.333565 0.504288
0.283184 0.340092 0.510814
0.346619 0.346619 0.517341
0.410053 0.353146 0.523868
0.473487 0.359672 0.530395
0.536922 0.366199 0.536922
0.600356 0.372726 0.543449
0.114791 0.399328 0.513143
0.178225 0.405855 0.519670
0.241659 0.412382 0.526197
0.305094 0.418909 0.532724
0.368528 0.425436 0.539251
0.431963 0.431963 0.545778
0.495397 0.438489 0.552304
0.558831 0.445016 0.558831
0.622266 0.451543 0.565358
0.136700 0.478145 0.535053
0.200134 0.484672 0.541579
0.263569 0.491199 0.548106
0.327003 0.497726 0.554633
0.390438 0.504253 0.561160
0.453872 0.510779 0.567687
0.517306 0.517306 0.574214
0.580741 0.523833 0.580741
0.644175 0.530360 0.587267
0.158610 0.556962 0.556962
0.222044 0.563489 0.563489
0.285478 0.570016 0.570016
0.348913 0.576543 0.576543
0.412347 0.583069 0.583069
0.475781 0.589596 0.589596
0.539216 0.596123 0.596123
0.602650 0.602650 0.602650
0.666084 0.609177 0.609177
0.180519 0.635779 0.578871
0.243953 0.642306 0.585398
0.307388 0.648833 0.591925
0.370822 0.655359 0.598452
0.434256 0.661886 0.604979
0.497691 0.668413 0.611506
0.561125 0.674940 0.618033
0.624559 0.680000 0.624559
0.680000 0.680000 0.631086
0.007450 0.007450 0.462710
0.070884 0.013977 0.469237
0.134319 0.020504 0.475764
0.197753 0.027031 0.482291
0.261187 0.033557 0.488817
0.324622 0.040084 0.495344
0.388056 0.046611 0.501871
0.451491 0.053138 0.508398
0.514925 0.059665 0.514925
0.029359 0.086267 0.484619
0.092794 0.092794 0.491146
0.156228 0.099321 0.497673
0.219663 0.105848 0.504200
0.283097 0.112374 0.510727
0.346531 0.118901 0.517254
0.409966 0.125428 0.523781
0.473400 0.131955 0.530307
0.536834 0.138482 0.536834
0.051269 0.165084 0.506529
0.114703 0.171611 0.513056
0.178138 0.178138 0.519583
0.241572 0.184664 0.526109
0.305006 0.191191 0.532636
0.368441 0.197718 0.539163
0.431875 0.204245 0.545690
0.495309 0.210772 0.552217
0.558744 0.217299 0.558744
0.073178 0.243901 0.528438
0.136613 0.250428 0.534965
0.200047 0.256954 0.541492
0.263481 0.263481 0.548019
0.326916 0.270008 0.554546
0.390350 0.276535 0.561073
0.453784 0.283062 0.567599
0.517219 0.289589 0.574126
0.580653 0.296116 0.580653
0.095088 0.322718 0.550348
0.158522 0.329244 0.556874
0.221956 0.335771 0.563401
0.285391 0.342298 0.569928
0.348825 0.348825 0.576455
0.412259 0.355352 0.582982
0.475694 0.361879 0.589509
0.539128 0.368406 0.596036
0.602562 0.374932 0.602562
0.116997 0.401535 0.572257
0.180431 0.408061 0.578784
0.243866 0.414588 0.585311
0.307300 0.421115 0.591838
0.370734 0.427642 0.598364
0.434169 0.434169 0.604891
0.497603 0.440696 0.611418
0.561037 0.447222 0.617945
0.624472 0.453749 0.624472
0.138906 0.480351 0.594166
0.202341 0.486878 0.600693
0.265775 0.493405 0.607220
0.329209 0.499932 0.613747
0.392644 0.506459 0.620274
0.456078 0.512986 0.626801
0.519513 0.519513 0.633328
0.582947 0.526039 0.639854
0.646381 0.532566 0.646381
0.160816 0.559168 0.616076
0.224250 0.565695 0.622603
0.287684 0.572222 0.629129
0.351119 0.578749 0.635656
0.414553 0.585276 0.642183
0.477988 0.591803 0.648710
0.541422 0.598329 0.655237
0.604856 0.604856 0.661764
0.668291 0.611383 0.668291
0.182725 0.637985 0.637985
0.246160 0.644512 0.644512
0.309594 0.651039 0.651039
0.373028 0.657566 0.657566
0.436463 0.664093 0.664093
0.499897 0.670619 0.670619
0.563331 0.677146 0.677146
0.626766 0.680000 0.680000
0.680000 0.680000 0.680000
