personal-map-app/personal-map-app/photo-sticker-lab/luts/paper-deep.cube
# 由 tools/bake_luts.py 生成，请勿手改。
# 来源 CSS filter 链: saturate(.72) contrast(1.1) brightness(.62)
# 说明: 更重的压暗高对比，适合需要主体沉下去的场景。
TITLE "paper-deep"
LUT_3D_SIZE 5
DOMAIN_MIN 0.000000 0.000000 0.000000
DOMAIN_MAX 1.000000 1.000000 1.000000
0.000000 0.000000 0.000000
0.101929 0.000000 0.000000
0.234857 0.000000 0.000000
0.367786 0.000000 0.000000
0.500714 0.009674 0.009674
0.003134 0.125894 0.003134
0.136063 0.136063 0.013303
0.268991 0.146231 0.023471
0.401920 0.156400 0.033640
0.534849 0.166569 0.043809
0.037268 0.282788 0.037268
0.170197 0.292957 0.047437
0.303125 0.303125 0.057605
0.436054 0.313294 0.067774
0.568983 0.323463 0.077943
0.071402 0.439682 0.071402
0.204331 0.449851 0.081571
0.337260 0.460020 0.091740
0.470188 0.470188 0.101908
0.603117 0.480357 0.112077
0.105536 0.596576 0.105536
0.238465 0.606745 0.115705
0.371394 0.616914 0.125874
0.504322 0.620000 0.136042
0.620000 0.620000 0.146211
0.000000 0.000000 0.095197
0.105366 0.000000 0.105366
0.238295 0.000000 0.115535
0.371223 0.002943 0.125703
0.504152 0.013112 0.135872
0.006571 0.129331 0.129331
0.139500 0.139500 0.139500
0.272429 0.149669 0.149669
0.405357 0.159837 0.159837
0.538286 0.170006 0.170006
0.040705 0.286225 0.163465
0.173634 0.296394 0.173634
0.306563 0.306563 0.183803
0.439491 0.316731 0.193971
0.572420 0.326900 0.204140
0.074840 0.443120 0.197600
0.207768 0.453288 0.207768
0.340697 0.463457 0.217937
0.473625 0.473625 0.228105
0.606554 0.483794 0.238274
0.108974 0.600014 0.231734
0.241902 0.610182 0.241902
0.374831 0.620000 0.252071
0.507760 0.620000 0.262240
0.620000 0.620000 0.272408
0.000000 0.000000 0.221395
0.108803 0.000000 0.231563
0.241732 0.000000 0.241732
0.374660 0.006380 0.251900
0.507589 0.016549 0.262069
0.010009 0.132769 0.255529
0.142937 0.142937 0.265697
0.275866 0.153106 0.275866
0.408795 0.163275 0.286035
0.541723 0.173443 0.296203
0.044143 0.289663 0.289663
0.177071 0.299831 0.299831
0.310000 0.310000 0.310000
0.442929 0.320169 0.320169
0.575857 0.330337 0.330337
0.078277 0.446557 0.323797
0.211205 0.456725 0.333965
0.344134 0.466894 0.344134
0.477063 0.477063 0.354303
0.609991 0.487231 0.364471
0.112411 0.603451 0.357931
0.245340 0.613620 0.368100
0.378268 0.620000 0.378268
0.511197 0.620000 0.388437
0.620000 0.620000 0.398605
0.000000 0.000000 0.347592
0.112240 0.000000 0.357760
0.245169 0.000000 0.367929
0.378098 0.009818 0.378098
0.511026 0.019986 0.388266
0.013446 0.136206 0.381726
0.146375 0.146375 0.391895
0.279303 0.156543 0.402063
0.412232 0.166712 0.412232
0.545160 0.176880 0.422400
0.047580 0.293100 0.415860
0.180509 0.303269 0.426029
0.313437 0.313437 0.436197
0.446366 0.323606 0.446366
0.579295 0.333775 0.456535
0.081714 0.449994 0.449994
0.214643 0.460163 0.460163
0.347571 0.470331 0.470331
0.480500 0.480500 0.480500
0.613429 0.490669 0.490669
0.115848 0.606888 0.484128
0.248777 0.617057 0.494297
0.381705 0.620000 0.504465
0.514634 0.620000 0.514634
0.620000 0.620000 0.524803
0.000000 0.000000 0.473789
0.115678 0.000000 0.483958
0.248606 0.003086 0.494126
0.381535 0.013255 0.504295
0.514464 0.023424 0.514464
0.016883 0.139643 0.507923
0.149812 0.149812 0.518092
0.282740 0.159980 0.528260
0.415669 0.170149 0.538429
0.548598 0.180318 0.548598
0.051017 0.296537 0.542057
0.183946 0.306706 0.552226
0.316875 0.316875 0.562395
0.449803 0.327043 0.572563
0.582732 0.337212 0.582732
0.085151 0.453431 0.576191
0.218080 0.463600 0.586360
0.351009 0.473769 0.596529
0.483937 0.483937 0.606697
0.616866 0.494106 0.616866
0.119286 0.610326 0.610326
0.252214 0.620000 0.620000
0.385143 0.620000 0.620000
0.518071 0.620000 0.620000
0.620000 0.620000 0.620000
