personal-map-app/personal-map-app/photo-sticker-lab/luts/paper-rose.cube
# 由 tools/bake_luts.py 生成，请勿手改。
# 来源 CSS filter 链: saturate(.55) sepia(.3) hue-rotate(310deg) contrast(.9) brightness(1.1)
# 说明: 偏玫瑰色的柔和调性，来自撕页染色一类实验。
TITLE "paper-rose"
LUT_3D_SIZE 9
DOMAIN_MIN 0.000000 0.000000 0.000000
DOMAIN_MAX 1.000000 1.000000 1.000000
0.055000 0.055000 0.055000
0.119716 0.072457 0.106481
0.184433 0.089915 0.157962
0.249149 0.107372 0.209443
0.313866 0.124829 0.260924
0.378582 0.142287 0.312405
0.443299 0.159744 0.363886
0.508015 0.177202 0.415367
0.572732 0.194659 0.466848
0.156870 0.147293 0.095820
0.221587 0.164751 0.147301
0.286303 0.182208 0.198782
0.351020 0.199665 0.250263
0.415736 0.217123 0.301744
0.480453 0.234580 0.353225
0.545169 0.252038 0.404706
0.609886 0.269495 0.456187
0.674602 0.286952 0.507668
0.258741 0.239587 0.136640
0.323457 0.257044 0.188121
0.388174 0.274501 0.239602
0.452890 0.291959 0.291083
0.517607 0.309416 0.342564
0.582323 0.326873 0.394045
0.647040 0.344331 0.445526
0.711756 0.361788 0.497007
0.776473 0.379246 0.548488
0.360611 0.331880 0.177461
0.425328 0.349337 0.228942
0.490044 0.366795 0.280423
0.554761 0.384252 0.331903
0.619477 0.401709 0.383384
0.684194 0.419167 0.434865
0.748910 0.436624 0.486346
0.813627 0.454082 0.537827
0.878343 0.471539 0.589308
0.462482 0.424173 0.218281
0.527198 0.441631 0.269762
0.591915 0.459088 0.321243
0.656631 0.476545 0.372724
0.721348 0.494003 0.424205
0.786064 0.511460 0.475686
0.850781 0.528918 0.527167
0.915497 0.546375 0.578648
0.980214 0.563832 0.630128
0.564352 0.516467 0.259101
0.629069 0.533924 0.310582
0.693785 0.551381 0.362063
0.758502 0.568839 0.413544
0.823218 0.586296 0.465025
0.887935 0.603753 0.516506
0.952651 0.621211 0.567987
1.000000 0.638668 0.619468
1.000000 0.656126 0.670949
0.666223 0.608760 0.299921
0.730939 0.626217 0.351402
0.795656 0.643675 0.402883
0.860372 0.661132 0.454364
0.925089 0.678589 0.505845
0.989805 0.696047 0.557326
1.000000 0.713504 0.608807
1.000000 0.730962 0.660288
1.000000 0.748419 0.711769
0.768093 0.701053 0.340741
0.832810 0.718511 0.392222
0.897526 0.735968 0.443703
0.962242 0.753425 0.495184
1.000000 0.770883 0.546665
1.000000 0.788340 0.598146
1.000000 0.805798 0.649627
1.000000 0.823255 0.701108
1.000000 0.840712 0.752589
0.869964 0.793347 0.381562
0.934680 0.810804 0.433042
0.999396 0.828261 0.484523
1.000000 0.845719 0.536004
1.000000 0.863176 0.587485
1.000000 0.880633 0.638966
1.000000 0.898091 0.690447
1.000000 0.915548 0.741928
1.000000 0.934274 0.767663
0.055000 0.073957 0.091659
0.096029 0.091414 0.143140
0.160745 0.108872 0.194621
0.225461 0.126329 0.246102
0.290178 0.143786 0.297583
0.354894 0.161244 0.349064
0.419611 0.178701 0.400545
0.484327 0.196159 0.452026
0.549044 0.213616 0.503507
0.133183 0.166250 0.132479
0.197899 0.183708 0.183960
0.262615 0.201165 0.235441
0.327332 0.218622 0.286922
0.392048 0.236080 0.338403
0.456765 0.253537 0.389884
0.521481 0.270995 0.441365
0.586198 0.288452 0.492846
0.650914 0.305909 0.544327
0.235053 0.258544 0.173299
0.299769 0.276001 0.224780
0.364486 0.293458 0.276261
0.429202 0.310916 0.327742
0.493919 0.328373 0.379223
0.558635 0.345830 0.430704
0.623352 0.363288 0.482185
0.688068 0.380745 0.533666
0.752785 0.398203 0.585147
0.336923 0.350837 0.214119
0.401640 0.368294 0.265600
0.466356 0.385752 0.317081
0.531073 0.403209 0.368562
0.595789 0.420666 0.420043
0.660506 0.438124 0.471524
0.725222 0.455581 0.523005
0.789939 0.473039 0.574486
0.854655 0.490496 0.625967
0.438794 0.443130 0.254940
0.503510 0.460588 0.306421
0.568227 0.478045 0.357901
0.632943 0.495502 0.409382
0.697660 0.512960 0.460863
0.762376 0.530417 0.512344
0.827093 0.547875 0.563825
0.891809 0.565332 0.615306
0.956526 0.582789 0.666787
0.540664 0.535424 0.295760
0.605381 0.552881 0.347241
0.670097 0.570338 0.398722
0.734814 0.587796 0.450203
0.799530 0.605253 0.501684
0.864247 0.622710 0.553165
0.928963 0.640168 0.604646
0.993680 0.657625 0.656127
1.000000 0.675083 0.707607
0.642535 0.627717 0.336580
0.707251 0.645174 0.388061
0.771968 0.662632 0.439542
0.836684 0.680089 0.491023
0.901401 0.697546 0.542504
0.966117 0.715004 0.593985
1.000000 0.732461 0.645466
1.000000 0.749919 0.696947
1.000000 0.767376 0.748428
0.744405 0.720010 0.377400
0.809122 0.737468 0.428881
0.873838 0.754925 0.480362
0.938555 0.772382 0.531843
1.000000 0.789840 0.583324
1.000000 0.807297 0.634805
1.000000 0.824755 0.686286
1.000000 0.842212 0.737767
1.000000 0.859669 0.789248
0.846276 0.812304 0.418220
0.910992 0.829761 0.469701
0.975709 0.847218 0.521182
1.000000 0.864676 0.572663
1.000000 0.882133 0.624144
1.000000 0.899590 0.675625
1.000000 0.917048 0.727106
1.000000 0.934505 0.778587
1.000000 0.948365 0.800593
0.055000 0.092914 0.128318
0.072341 0.110371 0.179799
0.137057 0.127829 0.231279
0.201774 0.145286 0.282760
0.266490 0.162743 0.334241
0.331206 0.180201 0.385722
0.395923 0.197658 0.437203
0.460639 0.215116 0.488684
0.525356 0.232573 0.540165
0.109495 0.185207 0.169138
0.174211 0.202665 0.220619
0.238928 0.220122 0.272100
0.303644 0.237579 0.323581
0.368360 0.255037 0.375062
0.433077 0.272494 0.426543
0.497793 0.289952 0.478024
0.562510 0.307409 0.529505
0.627226 0.324866 0.580985
0.211365 0.277501 0.209958
0.276081 0.294958 0.261439
0.340798 0.312415 0.312920
0.405514 0.329873 0.364401
0.470231 0.347330 0.415882
0.534947 0.364787 0.467363
0.599664 0.382245 0.518844
0.664380 0.399702 0.570325
0.729097 0.417160 0.621806
0.313235 0.369794 0.250778
0.377952 0.387251 0.302259
0.442668 0.404709 0.353740
0.507385 0.422166 0.405221
0.572101 0.439623 0.456702
0.636818 0.457081 0.508183
0.701534 0.474538 0.559664
0.766251 0.491996 0.611145
0.830967 0.509453 0.662626
0.415106 0.462087 0.291598
0.479822 0.479545 0.343079
0.544539 0.497002 0.394560
0.609255 0.514459 0.446041
0.673972 0.531917 0.497522
0.738688 0.549374 0.549003
0.803405 0.566832 0.600484
0.868121 0.584289 0.651965
0.932838 0.601746 0.703446
0.516976 0.554381 0.332419
0.581693 0.571838 0.383899
0.646409 0.589295 0.435380
0.711126 0.606753 0.486861
0.775842 0.624210 0.538342
0.840559 0.641667 0.589823
0.905275 0.659125 0.641304
0.969992 0.676582 0.692785
1.000000 0.694040 0.744266
0.618847 0.646674 0.373239
0.683563 0.664131 0.424720
0.748280 0.681589 0.476201
0.812996 0.699046 0.527682
0.877713 0.716503 0.579163
0.942429 0.733961 0.630644
1.000000 0.751418 0.682125
1.000000 0.768876 0.733605
1.000000 0.786333 0.785086
0.720717 0.738967 0.414059
0.785434 0.756425 0.465540
0.850150 0.773882 0.517021
0.914867 0.791339 0.568502
0.979583 0.808797 0.619983
1.000000 0.826254 0.671464
1.000000 0.843712 0.722945
1.000000 0.861169 0.774426
1.000000 0.878626 0.825907
0.822588 0.831261 0.454879
0.887304 0.848718 0.506360
0.952021 0.866175 0.557841
1.000000 0.883633 0.609322
1.000000 0.901090 0.660803
1.000000 0.918547 0.712284
1.000000 0.936005 0.763765
1.000000 0.953462 0.815246
1.000000 0.961522 0.833869
0.055000 0.111871 0.164976
0.055000 0.129328 0.216457
0.113369 0.146786 0.267938
0.178086 0.164243 0.319419
0.242802 0.181700 0.370900
0.307519 0.199158 0.422381
0.372235 0.216615 0.473862
0.436951 0.234073 0.525343
0.501668 0.251530 0.576824
0.085807 0.204164 0.205797
0.150523 0.221622 0.257277
0.215240 0.239079 0.308758
0.279956 0.256536 0.360239
0.344673 0.273994 0.411720
0.409389 0.291451 0.463201
0.474105 0.308908 0.514682
0.538822 0.326366 0.566163
0.603538 0.343823 0.617644
0.187677 0.296458 0.246617
0.252394 0.313915 0.298098
0.317110 0.331372 0.349579
0.381826 0.348830 0.401060
0.446543 0.366287 0.452541
0.511259 0.383744 0.504022
0.575976 0.401202 0.555503
0.640692 0.418659 0.606983
0.705409 0.436117 0.658464
0.289548 0.388751 0.287437
0.354264 0.406208 0.338918
0.418980 0.423666 0.390399
0.483697 0.441123 0.441880
0.548413 0.458580 0.493361
0.613130 0.476038 0.544842
0.677846 0.493495 0.596323
0.742563 0.510953 0.647804
0.807279 0.528410 0.699285
0.391418 0.481044 0.328257
0.456134 0.498502 0.379738
0.520851 0.515959 0.431219
0.585567 0.533416 0.482700
0.650284 0.550874 0.534181
0.715000 0.568331 0.585662
0.779717 0.585789 0.637143
0.844433 0.603246 0.688624
0.909150 0.620703 0.740105
0.493288 0.573338 0.369077
0.558005 0.590795 0.420558
0.622721 0.608252 0.472039
0.687438 0.625710 0.523520
0.752154 0.643167 0.575001
0.816871 0.660624 0.626482
0.881587 0.678082 0.677963
0.946304 0.695539 0.729444
1.000000 0.712997 0.780925
0.595159 0.665631 0.409897
0.659875 0.683088 0.461378
0.724592 0.700546 0.512859
0.789308 0.718003 0.564340
0.854025 0.735460 0.615821
0.918741 0.752918 0.667302
0.983458 0.770375 0.718783
1.000000 0.787833 0.770264
1.000000 0.805290 0.821745
0.697029 0.757924 0.450718
0.761746 0.775382 0.502199
0.826462 0.792839 0.553680
0.891179 0.810296 0.605161
0.955895 0.827754 0.656642
1.000000 0.845211 0.708123
1.000000 0.862669 0.759603
1.000000 0.880126 0.811084
1.000000 0.897686 0.860473
0.798900 0.850218 0.491538
0.863616 0.867675 0.543019
0.928333 0.885132 0.594500
0.993049 0.902590 0.645981
1.000000 0.920047 0.697462
1.000000 0.937504 0.748943
1.000000 0.954962 0.800424
1.000000 0.970710 0.852536
1.000000 0.974679 0.867145
0.055000 0.130828 0.201635
0.055000 0.148285 0.253116
0.089681 0.165743 0.304597
0.154398 0.183200 0.356078
0.219114 0.200657 0.407559
0.283831 0.218115 0.459040
0.348547 0.235572 0.510521
0.413264 0.253030 0.562002
0.477980 0.270487 0.613483
0.062119 0.223121 0.242455
0.126835 0.240579 0.293936
0.191552 0.258036 0.345417
0.256268 0.275493 0.396898
0.320985 0.292951 0.448379
0.385701 0.310408 0.499860
0.450418 0.327865 0.551341
0.515134 0.345323 0.602822
0.579850 0.362780 0.654303
0.163989 0.315415 0.283275
0.228706 0.332872 0.334756
0.293422 0.350329 0.386237
0.358139 0.367787 0.437718
0.422855 0.385244 0.489199
0.487571 0.402701 0.540680
0.552288 0.420159 0.592161
0.617004 0.437616 0.643642
0.681721 0.455074 0.695123
0.265860 0.407708 0.324096
0.330576 0.425165 0.375577
0.395293 0.442623 0.427058
0.460009 0.460080 0.478539
0.524725 0.477537 0.530020
0.589442 0.494995 0.581501
0.654158 0.512452 0.632981
0.718875 0.529910 0.684462
0.783591 0.547367 0.735943
0.367730 0.500001 0.364916
0.432446 0.517459 0.416397
0.497163 0.534916 0.467878
0.561879 0.552373 0.519359
0.626596 0.569831 0.570840
0.691312 0.587288 0.622321
0.756029 0.604745 0.673802
0.820745 0.622203 0.725283
0.885462 0.639660 0.776764
0.469600 0.592295 0.405736
0.534317 0.609752 0.457217
0.599033 0.627209 0.508698
0.663750 0.644667 0.560179
0.728466 0.662124 0.611660
0.793183 0.679581 0.663141
0.857899 0.697039 0.714622
0.922616 0.714496 0.766103
0.987332 0.731954 0.817584
0.571471 0.684588 0.446556
0.636187 0.702045 0.498037
0.700904 0.719503 0.549518
0.765620 0.736960 0.600999
0.830337 0.754417 0.652480
0.895053 0.771875 0.703961
0.959770 0.789332 0.755442
1.000000 0.806790 0.806923
1.000000 0.824247 0.858404
0.673341 0.776881 0.487376
0.738058 0.794339 0.538857
0.802774 0.811796 0.590338
0.867491 0.829253 0.641819
0.932207 0.846711 0.693300
0.996924 0.864168 0.744781
1.000000 0.881626 0.796262
1.000000 0.899083 0.847743
1.000000 0.916921 0.891503
0.775212 0.869175 0.528197
0.839928 0.886632 0.579678
0.904645 0.904089 0.631159
0.969361 0.921547 0.682640
1.000000 0.939004 0.734121
1.000000 0.956461 0.785601
1.000000 0.973919 0.837082
1.000000 0.983666 0.889876
1.000000 0.987835 0.900421
0.055000 0.149785 0.238294
0.055000 0.167242 0.289775
0.065993 0.184700 0.341256
0.130710 0.202157 0.392737
0.195426 0.219614 0.444218
0.260143 0.237072 0.495699
0.324859 0.254529 0.547180
0.389576 0.271987 0.598661
0.454292 0.289444 0.650142
0.055000 0.242078 0.279114
0.103147 0.259536 0.330595
0.167864 0.276993 0.382076
0.232580 0.294450 0.433557
0.297297 0.311908 0.485038
0.362013 0.329365 0.536519
0.426730 0.346822 0.588000
0.491446 0.364280 0.639481
0.556163 0.381737 0.690962
0.140301 0.334372 0.319934
0.205018 0.351829 0.371415
0.269734 0.369286 0.422896
0.334451 0.386744 0.474377
0.399167 0.404201 0.525858
0.463884 0.421658 0.577339
0.528600 0.439116 0.628820
0.593316 0.456573 0.680301
0.658033 0.474031 0.731782
0.242172 0.426665 0.360754
0.306888 0.444122 0.412235
0.371605 0.461580 0.463716
0.436321 0.479037 0.515197
0.501038 0.496494 0.566678
0.565754 0.513952 0.618159
0.630470 0.531409 0.669640
0.695187 0.548867 0.721121
0.759903 0.566324 0.772602
0.344042 0.518958 0.401575
0.408759 0.536416 0.453056
0.473475 0.553873 0.504537
0.538192 0.571330 0.556018
0.602908 0.588788 0.607499
0.667624 0.606245 0.658979
0.732341 0.623702 0.710460
0.797057 0.641160 0.761941
0.861774 0.658617 0.813422
0.445913 0.611252 0.442395
0.510629 0.628709 0.493876
0.575345 0.646166 0.545357
0.640062 0.663624 0.596838
0.704778 0.681081 0.648319
0.769495 0.698538 0.699800
0.834211 0.715996 0.751281
0.898928 0.733453 0.802762
0.963644 0.750911 0.854243
0.547783 0.703545 0.483215
0.612499 0.721002 0.534696
0.677216 0.738460 0.586177
0.741932 0.755917 0.637658
0.806649 0.773374 0.689139
0.871365 0.790832 0.740620
0.936082 0.808289 0.792101
1.000000 0.825747 0.843582
1.000000 0.843204 0.895063
0.649653 0.795838 0.524035
0.714370 0.813296 0.575516
0.779086 0.830753 0.626997
0.843803 0.848210 0.678478
0.908519 0.865668 0.729959
0.973236 0.883125 0.781440
1.000000 0.900582 0.832921
1.000000 0.918040 0.884402
1.000000 0.936155 0.922532
0.751524 0.888132 0.564855
0.816240 0.905589 0.616336
0.880957 0.923046 0.667817
0.945673 0.940504 0.719298
1.000000 0.957961 0.770779
1.000000 0.975418 0.822260
1.000000 0.992876 0.873741
1.000000 0.996823 0.923152
1.000000 1.000000 0.933696
0.055000 0.168742 0.274953
0.055000 0.186199 0.326434
0.055000 0.203657 0.377915
0.107022 0.221114 0.429396
0.171738 0.238571 0.480877
0.236455 0.256029 0.532358
0.301171 0.273486 0.583838
0.365888 0.290944 0.635319
0.430604 0.308401 0.686800
0.055000 0.261035 0.315773
0.079459 0.278493 0.367254
0.144176 0.295950 0.418735
0.208892 0.313407 0.470216
0.273609 0.330865 0.521697
0.338325 0.348322 0.573178
0.403042 0.365779 0.624659
0.467758 0.383237 0.676140
0.532475 0.400694 0.727621
0.116613 0.353329 0.356593
0.181330 0.370786 0.408074
0.246046 0.388243 0.459555
0.310763 0.405701 0.511036
0.375479 0.423158 0.562517
0.440196 0.440615 0.613998
0.504912 0.458073 0.665479
0.569629 0.475530 0.716960
0.634345 0.492988 0.768441
0.218484 0.445622 0.397413
0.283200 0.463079 0.448894
0.347917 0.480537 0.500375
0.412633 0.497994 0.551856
0.477350 0.515451 0.603337
0.542066 0.532909 0.654818
0.606783 0.550366 0.706299
0.671499 0.567824 0.757780
0.736215 0.585281 0.809261
0.320354 0.537915 0.438233
0.385071 0.555373 0.489714
0.449787 0.572830 0.541195
0.514504 0.590287 0.592676
0.579220 0.607745 0.644157
0.643937 0.625202 0.695638
0.708653 0.642659 0.747119
0.773369 0.660117 0.798600
0.838086 0.677574 0.850081
0.422225 0.630209 0.479054
0.486941 0.647666 0.530535
0.551658 0.665123 0.582016
0.616374 0.682581 0.633497
0.681090 0.700038 0.684977
0.745807 0.717495 0.736458
0.810523 0.734953 0.787939
0.875240 0.752410 0.839420
0.939956 0.769868 0.890901
0.524095 0.722502 0.519874
0.588812 0.739959 0.571355
0.653528 0.757417 0.622836
0.718244 0.774874 0.674317
0.782961 0.792331 0.725798
0.847677 0.809789 0.777279
0.912394 0.827246 0.828760
0.977110 0.844704 0.880241
1.000000 0.862161 0.931722
0.625965 0.814795 0.560694
0.690682 0.832253 0.612175
0.755398 0.849710 0.663656
0.820115 0.867167 0.715137
0.884831 0.884625 0.766618
0.949548 0.902082 0.818099
1.000000 0.919539 0.869580
1.000000 0.936997 0.921061
1.000000 0.955390 0.953562
0.727836 0.907089 0.601514
0.792552 0.924546 0.652995
0.857269 0.942003 0.704476
0.921985 0.959461 0.755957
0.986702 0.976918 0.807438
1.000000 0.994375 0.858919
1.000000 1.000000 0.912009
1.000000 1.000000 0.956428
1.000000 1.000000 0.966972
0.055000 0.187699 0.311611
0.055000 0.205156 0.363092
0.055000 0.222614 0.414573
0.083334 0.240071 0.466054
0.148050 0.257528 0.517535
0.212767 0.274986 0.569016
0.277483 0.292443 0.620497
0.342200 0.309901 0.671978
0.406916 0.327358 0.723459
0.055000 0.279992 0.352432
0.055771 0.297450 0.403913
0.120488 0.314907 0.455394
0.185204 0.332364 0.506875
0.249921 0.349822 0.558356
0.314637 0.367279 0.609836
0.379354 0.384736 0.661317
0.444070 0.402194 0.712798
0.508787 0.419651 0.764279
0.092925 0.372286 0.393252
0.157642 0.389743 0.444733
0.222358 0.407200 0.496214
0.287075 0.424658 0.547695
0.351791 0.442115 0.599176
0.416508 0.459572 0.650657
0.481224 0.477030 0.702138
0.545941 0.494487 0.753619
0.610657 0.511945 0.805100
0.194796 0.464579 0.434072
0.259512 0.482036 0.485553
0.324229 0.499494 0.537034
0.388945 0.516951 0.588515
0.453662 0.534408 0.639996
0.518378 0.551866 0.691477
0.583095 0.569323 0.742958
0.647811 0.586781 0.794439
0.712528 0.604238 0.845920
0.296666 0.556872 0.474892
0.361383 0.574330 0.526373
0.426099 0.591787 0.577854
0.490816 0.609244 0.629335
0.555532 0.626702 0.680816
0.620249 0.644159 0.732297
0.684965 0.661616 0.783778
0.749682 0.679074 0.835259
0.814398 0.696531 0.886740
0.398537 0.649166 0.515712
0.463253 0.666623 0.567193
0.527970 0.684080 0.618674
0.592686 0.701538 0.670155
0.657403 0.718995 0.721636
0.722119 0.736452 0.773117
0.786835 0.753910 0.824598
0.851552 0.771367 0.876079
0.916268 0.788825 0.927560
0.500407 0.741459 0.556533
0.565124 0.758916 0.608014
0.629840 0.776374 0.659495
0.694557 0.793831 0.710976
0.759273 0.811288 0.762456
0.823989 0.828746 0.813937
0.888706 0.846203 0.865418
0.953422 0.863661 0.916899
1.000000 0.881118 0.968380
0.602278 0.833752 0.597353
0.666994 0.851210 0.648834
0.731710 0.868667 0.700315
0.796427 0.886124 0.751796
0.861143 0.903582 0.803277
0.925860 0.921039 0.854758
0.990576 0.938496 0.906239
1.000000 0.955954 0.957720
1.000000 0.974624 0.984592
0.704148 0.926046 0.638173
0.768864 0.943503 0.689654
0.833581 0.960960 0.741135
0.898297 0.978418 0.792616
0.963014 0.995875 0.844097
1.000000 1.000000 0.895578
1.000000 1.000000 0.950914
1.000000 1.000000 0.989704
1.000000 1.000000 1.000000
0.055000 0.206656 0.348270
0.055000 0.224113 0.399751
0.055000 0.241571 0.451232
0.059646 0.259028 0.502713
0.124362 0.276485 0.554194
0.189079 0.293943 0.605675
0.253795 0.311400 0.657156
0.318512 0.328858 0.708637
0.383228 0.346315 0.760118
0.055000 0.298949 0.389090
0.055000 0.316407 0.440571
0.096800 0.333864 0.492052
0.161516 0.351321 0.543533
0.226233 0.368779 0.595014
0.290949 0.386236 0.646495
0.355666 0.403693 0.697976
0.420382 0.421151 0.749457
0.485099 0.438608 0.800938
0.069237 0.391243 0.429911
0.133954 0.408700 0.481392
0.198670 0.426157 0.532873
0.263387 0.443615 0.584354
0.328103 0.461072 0.635834
0.392820 0.478529 0.687315
0.457536 0.495987 0.738796
0.522253 0.513444 0.790277
0.586969 0.530902 0.841758
0.171108 0.483536 0.470731
0.235824 0.500993 0.522212
0.300541 0.518451 0.573693
0.365257 0.535908 0.625174
0.429974 0.553365 0.676655
0.494690 0.570823 0.728136
0.559407 0.588280 0.779617
0.624123 0.605738 0.831098
0.688840 0.623195 0.882579
0.272978 0.575829 0.511551
0.337695 0.593287 0.563032
0.402411 0.610744 0.614513
0.467128 0.628201 0.665994
0.531844 0.645659 0.717475
0.596561 0.663116 0.768956
0.661277 0.680573 0.820437
0.725994 0.698031 0.871918
0.790710 0.715488 0.923399
0.374849 0.668123 0.552371
0.439565 0.685580 0.603852
0.504282 0.703037 0.655333
0.568998 0.720495 0.706814
0.633715 0.737952 0.758295
0.698431 0.755409 0.809776
0.763148 0.772867 0.861257
0.827864 0.790324 0.912738
0.892580 0.807782 0.964219
0.476719 0.760416 0.593191
0.541436 0.777873 0.644672
0.606152 0.795331 0.696153
0.670869 0.812788 0.747634
0.735585 0.830245 0.799115
0.800302 0.847703 0.850596
0.865018 0.865160 0.902077
0.929734 0.882618 0.953558
0.994451 0.900075 1.000000
0.578590 0.852709 0.634012
0.643306 0.870167 0.685493
0.708023 0.887624 0.736974
0.772739 0.905081 0.788454
0.837455 0.922539 0.839935
0.902172 0.939996 0.891416
0.966888 0.957453 0.942897
1.000000 0.974911 0.994378
1.000000 0.993858 1.000000
0.680460 0.945003 0.674832
0.745177 0.962460 0.726313
0.809893 0.979917 0.777794
0.874609 0.997375 0.829275
0.939326 1.000000 0.880756
1.000000 1.000000 0.932576
1.000000 1.000000 0.989819
1.000000 1.000000 1.000000
1.000000 1.000000 1.000000
