personal-map-app/personal-map-app/photo-sticker-lab/luts/paper-muted.cube
# 由 tools/bake_luts.py 生成，请勿手改。
# 来源 CSS filter 链: saturate(.65) contrast(1.03) brightness(.68)
# 说明: 扫描页调性，低饱和压暗，最接近原型的纸感基调。
TITLE "paper-muted"
LUT_3D_SIZE 33
DOMAIN_MIN 0.000000 0.000000 0.000000
DOMAIN_MAX 1.000000 1.000000 1.000000
0.000000 0.000000 0.000000
0.005659 0.000000 0.000000
0.021517 0.000000 0.000000
0.037376 0.000000 0.000000
0.053234 0.000000 0.000000
0.069093 0.000000 0.000000
0.084952 0.000000 0.000000
0.100810 0.001222 0.001222
0.116669 0.002854 0.002854
0.132527 0.004485 0.004485
0.148386 0.006117 0.006117
0.164244 0.007749 0.007749
0.180103 0.009381 0.009381
0.195962 0.011012 0.011012
0.211820 0.012644 0.012644
0.227679 0.014276 0.014276
0.243537 0.015907 0.015907
0.259396 0.017539 0.017539
0.275255 0.019171 0.019171
0.291113 0.020803 0.020803
0.306972 0.022434 0.022434
0.322830 0.024066 0.024066
0.338689 0.025698 0.025698
0.354548 0.027329 0.027329
0.370406 0.028961 0.028961
0.386265 0.030593 0.030593
0.402123 0.032225 0.032225
0.417982 0.033856 0.033856
0.433840 0.035488 0.035488
0.449699 0.037120 0.037120
0.465558 0.038751 0.038751
0.481416 0.040383 0.040383
0.497275 0.042015 0.042015
0.000000 0.009504 0.000000
0.011136 0.011136 0.000000
0.026995 0.012768 0.000000
0.042853 0.014399 0.000172
0.058712 0.016031 0.001804
0.074570 0.017663 0.003436
0.090429 0.019295 0.005068
0.106287 0.020926 0.006699
0.122146 0.022558 0.008331
0.138005 0.024190 0.009963
0.153863 0.025821 0.011594
0.169722 0.027453 0.013226
0.185580 0.029085 0.014858
0.201439 0.030716 0.016490
0.217298 0.032348 0.018121
0.233156 0.033980 0.019753
0.249015 0.035612 0.021385
0.264873 0.037243 0.023016
0.280732 0.038875 0.024648
0.296591 0.040507 0.026280
0.312449 0.042138 0.027912
0.328308 0.043770 0.029543
0.344166 0.045402 0.031175
0.360025 0.047034 0.032807
0.375883 0.048665 0.034438
0.391742 0.050297 0.036070
0.407601 0.051929 0.037702
0.423459 0.053560 0.039334
0.439318 0.055192 0.040965
0.455176 0.056824 0.042597
0.471035 0.058456 0.044229
0.486894 0.060087 0.045860
0.502752 0.061719 0.047492
0.000755 0.029208 0.000755
0.016613 0.030840 0.002386
0.032472 0.032472 0.004018
0.048330 0.034104 0.005650
0.064189 0.035735 0.007282
0.080048 0.037367 0.008913
0.095906 0.038999 0.010545
0.111765 0.040630 0.012177
0.127623 0.042262 0.013808
0.143482 0.043894 0.015440
0.159341 0.045526 0.017072
0.175199 0.047157 0.018704
0.191058 0.048789 0.020335
0.206916 0.050421 0.021967
0.222775 0.052052 0.023599
0.238634 0.053684 0.025230
0.254492 0.055316 0.026862
0.270351 0.056948 0.028494
0.286209 0.058579 0.030126
0.302068 0.060211 0.031757
0.317926 0.061843 0.033389
0.333785 0.063474 0.035021
0.349644 0.065106 0.036652
0.365502 0.066738 0.038284
0.381361 0.068370 0.039916
0.397219 0.070001 0.041548
0.413078 0.071633 0.043179
0.428937 0.073265 0.044811
0.444795 0.074896 0.046443
0.460654 0.076528 0.048074
0.476512 0.078160 0.049706
0.492371 0.079792 0.051338
0.508230 0.081423 0.052970
0.006232 0.048913 0.006232
0.022091 0.050544 0.007864
0.037949 0.052176 0.009495
0.053808 0.053808 0.011127
0.069666 0.055440 0.012759
0.085525 0.057071 0.014391
0.101384 0.058703 0.016022
0.117242 0.060335 0.017654
0.133101 0.061966 0.019286
0.148959 0.063598 0.020917
0.164818 0.065230 0.022549
0.180677 0.066862 0.024181
0.196535 0.068493 0.025813
0.212394 0.070125 0.027444
0.228252 0.071757 0.029076
0.244111 0.073388 0.030708
0.259969 0.075020 0.032339
0.275828 0.076652 0.033971
0.291687 0.078284 0.035603
0.307545 0.079915 0.037235
0.323404 0.081547 0.038866
0.339262 0.083179 0.040498
0.355121 0.084810 0.042130
0.370980 0.086442 0.043761
0.386838 0.088074 0.045393
0.402697 0.089705 0.047025
0.418555 0.091337 0.048657
0.434414 0.092969 0.050288
0.450273 0.094601 0.051920
0.466131 0.096232 0.053552
0.481990 0.097864 0.055183
0.497848 0.099496 0.056815
0.513707 0.101127 0.058447
0.011709 0.068617 0.011709
0.027568 0.070249 0.013341
0.043427 0.071880 0.014973
0.059285 0.073512 0.016605
0.075144 0.075144 0.018236
0.091002 0.076775 0.019868
0.106861 0.078407 0.021500
0.122720 0.080039 0.023131
0.138578 0.081671 0.024763
0.154437 0.083302 0.026395
0.170295 0.084934 0.028027
0.186154 0.086566 0.029658
0.202012 0.088197 0.031290
0.217871 0.089829 0.032922
0.233730 0.091461 0.034553
0.249588 0.093093 0.036185
0.265447 0.094724 0.037817
0.281305 0.096356 0.039449
0.297164 0.097988 0.041080
0.313023 0.099619 0.042712
0.328881 0.101251 0.044344
0.344740 0.102883 0.045975
0.360598 0.104515 0.047607
0.376457 0.106146 0.049239
0.392316 0.107778 0.050871
0.408174 0.109410 0.052502
0.424033 0.111041 0.054134
0.439891 0.112673 0.055766
0.455750 0.114305 0.057397
0.471608 0.115937 0.059029
0.487467 0.117568 0.060661
0.503326 0.119200 0.062292
0.519184 0.120832 0.063924
0.017187 0.088321 0.017187
0.033045 0.089953 0.018818
0.048904 0.091585 0.020450
0.064762 0.093216 0.022082
0.080621 0.094848 0.023714
0.096480 0.096480 0.025345
0.112338 0.098111 0.026977
0.128197 0.099743 0.028609
0.144055 0.101375 0.030240
0.159914 0.103007 0.031872
0.175773 0.104638 0.033504
0.191631 0.106270 0.035136
0.207490 0.107902 0.036767
0.223348 0.109533 0.038399
0.239207 0.111165 0.040031
0.255066 0.112797 0.041662
0.270924 0.114429 0.043294
0.286783 0.116060 0.044926
0.302641 0.117692 0.046558
0.318500 0.119324 0.048189
0.334358 0.120955 0.049821
0.350217 0.122587 0.051453
0.366076 0.124219 0.053084
0.381934 0.125851 0.054716
0.397793 0.127482 0.056348
0.413651 0.129114 0.057980
0.429510 0.130746 0.059611
0.445369 0.132377 0.061243
0.461227 0.134009 0.062875
0.477086 0.135641 0.064506
0.492944 0.137273 0.066138
0.508803 0.138904 0.067770
0.524662 0.140536 0.069402
0.022664 0.108025 0.022664
0.038523 0.109657 0.024296
0.054381 0.111289 0.025928
0.070240 0.112920 0.027559
0.086098 0.114552 0.029191
0.101957 0.116184 0.030823
0.117816 0.117816 0.032454
0.133674 0.119447 0.034086
0.149533 0.121079 0.035718
0.165391 0.122711 0.037349
0.181250 0.124342 0.038981
0.197109 0.125974 0.040613
0.212967 0.127606 0.042245
0.228826 0.129238 0.043876
0.244684 0.130869 0.045508
0.260543 0.132501 0.047140
0.276401 0.134133 0.048771
0.292260 0.135764 0.050403
0.308119 0.137396 0.052035
0.323977 0.139028 0.053667
0.339836 0.140660 0.055298
0.355694 0.142291 0.056930
0.371553 0.143923 0.058562
0.387412 0.145555 0.060193
0.403270 0.147186 0.061825
0.419129 0.148818 0.063457
0.434987 0.150450 0.065089
0.450846 0.152082 0.066720
0.466705 0.153713 0.068352
0.482563 0.155345 0.069984
0.498422 0.156977 0.071615
0.514280 0.158608 0.073247
0.530139 0.160240 0.074879
0.028141 0.127730 0.028141
0.044000 0.129361 0.029773
0.059859 0.130993 0.031405
0.075717 0.132625 0.033037
0.091576 0.134256 0.034668
0.107434 0.135888 0.036300
0.123293 0.137520 0.037932
0.139152 0.139152 0.039563
0.155010 0.140783 0.041195
0.170869 0.142415 0.042827
0.186727 0.144047 0.044459
0.202586 0.145678 0.046090
0.218444 0.147310 0.047722
0.234303 0.148942 0.049354
0.250162 0.150574 0.050985
0.266020 0.152205 0.052617
0.281879 0.153837 0.054249
0.297737 0.155469 0.055881
0.313596 0.157100 0.057512
0.329455 0.158732 0.059144
0.345313 0.160364 0.060776
0.361172 0.161996 0.062407
0.377030 0.163627 0.064039
0.392889 0.165259 0.065671
0.408748 0.166891 0.067303
0.424606 0.168522 0.068934
0.440465 0.170154 0.070566
0.456323 0.171786 0.072198
0.472182 0.173418 0.073829
0.488040 0.175049 0.075461
0.503899 0.176681 0.077093
0.519758 0.178313 0.078725
0.535616 0.179944 0.080356
0.033619 0.147434 0.033619
0.049477 0.149065 0.035250
0.065336 0.150697 0.036882
0.081195 0.152329 0.038514
0.097053 0.153961 0.040146
0.112912 0.155592 0.041777
0.128770 0.157224 0.043409
0.144629 0.158856 0.045041
0.160487 0.160487 0.046672
0.176346 0.162119 0.048304
0.192205 0.163751 0.049936
0.208063 0.165383 0.051568
0.223922 0.167014 0.053199
0.239780 0.168646 0.054831
0.255639 0.170278 0.056463
0.271498 0.171909 0.058094
0.287356 0.173541 0.059726
0.303215 0.175173 0.061358
0.319073 0.176805 0.062990
0.334932 0.178436 0.064621
0.350791 0.180068 0.066253
0.366649 0.181700 0.067885
0.382508 0.183331 0.069516
0.398366 0.184963 0.071148
0.414225 0.186595 0.072780
0.430083 0.188227 0.074412
0.445942 0.189858 0.076043
0.461801 0.191490 0.077675
0.477659 0.193122 0.079307
0.493518 0.194753 0.080938
0.509376 0.196385 0.082570
0.525235 0.198017 0.084202
0.541094 0.199649 0.085834
0.039096 0.167138 0.039096
0.054955 0.168770 0.040728
0.070813 0.170401 0.042360
0.086672 0.172033 0.043991
0.102530 0.173665 0.045623
0.118389 0.175297 0.047255
0.134248 0.176928 0.048886
0.150106 0.178560 0.050518
0.165965 0.180192 0.052150
0.181823 0.181823 0.053782
0.197682 0.183455 0.055413
0.213541 0.185087 0.057045
0.229399 0.186719 0.058677
0.245258 0.188350 0.060308
0.261116 0.189982 0.061940
0.276975 0.191614 0.063572
0.292834 0.193245 0.065204
0.308692 0.194877 0.066835
0.324551 0.196509 0.068467
0.340409 0.198141 0.070099
0.356268 0.199772 0.071730
0.372126 0.201404 0.073362
0.387985 0.203036 0.074994
0.403844 0.204667 0.076626
0.419702 0.206299 0.078257
0.435561 0.207931 0.079889
0.451419 0.209563 0.081521
0.467278 0.211194 0.083152
0.483137 0.212826 0.084784
0.498995 0.214458 0.086416
0.514854 0.216089 0.088048
0.530712 0.217721 0.089679
0.546571 0.219353 0.091311
0.044573 0.186842 0.044573
0.060432 0.188474 0.046205
0.076291 0.190106 0.047837
0.092149 0.191737 0.049469
0.108008 0.193369 0.051100
0.123866 0.195001 0.052732
0.139725 0.196632 0.054364
0.155584 0.198264 0.055995
0.171442 0.199896 0.057627
0.187301 0.201528 0.059259
0.203159 0.203159 0.060891
0.219018 0.204791 0.062522
0.234877 0.206423 0.064154
0.250735 0.208054 0.065786
0.266594 0.209686 0.067417
0.282452 0.211318 0.069049
0.298311 0.212950 0.070681
0.314169 0.214581 0.072313
0.330028 0.216213 0.073944
0.345887 0.217845 0.075576
0.361745 0.219476 0.077208
0.377604 0.221108 0.078839
0.393462 0.222740 0.080471
0.409321 0.224372 0.082103
0.425180 0.226003 0.083735
0.441038 0.227635 0.085366
0.456897 0.229267 0.086998
0.472755 0.230898 0.088630
0.488614 0.232530 0.090261
0.504473 0.234162 0.091893
0.520331 0.235794 0.093525
0.536190 0.237425 0.095157
0.552048 0.239057 0.096788
0.050051 0.206546 0.050051
0.065909 0.208178 0.051683
0.081768 0.209810 0.053314
0.097627 0.211442 0.054946
0.113485 0.213073 0.056578
0.129344 0.214705 0.058209
0.145202 0.216337 0.059841
0.161061 0.217968 0.061473
0.176920 0.219600 0.063105
0.192778 0.221232 0.064736
0.208637 0.222864 0.066368
0.224495 0.224495 0.068000
0.240354 0.226127 0.069631
0.256212 0.227759 0.071263
0.272071 0.229390 0.072895
0.287930 0.231022 0.074527
0.303788 0.232654 0.076158
0.319647 0.234286 0.077790
0.335505 0.235917 0.079422
0.351364 0.237549 0.081053
0.367223 0.239181 0.082685
0.383081 0.240812 0.084317
0.398940 0.242444 0.085949
0.414798 0.244076 0.087580
0.430657 0.245708 0.089212
0.446516 0.247339 0.090844
0.462374 0.248971 0.092475
0.478233 0.250603 0.094107
0.494091 0.252234 0.095739
0.509950 0.253866 0.097370
0.525808 0.255498 0.099002
0.541667 0.257130 0.100634
0.557526 0.258761 0.102266
0.055528 0.226251 0.055528
0.071387 0.227882 0.057160
0.087245 0.229514 0.058792
0.103104 0.231146 0.060423
0.118963 0.232778 0.062055
0.134821 0.234409 0.063687
0.150680 0.236041 0.065318
0.166538 0.237673 0.066950
0.182397 0.239304 0.068582
0.198255 0.240936 0.070214
0.214114 0.242568 0.071845
0.229973 0.244200 0.073477
0.245831 0.245831 0.075109
0.261690 0.247463 0.076740
0.277548 0.249095 0.078372
0.293407 0.250726 0.080004
0.309266 0.252358 0.081636
0.325124 0.253990 0.083267
0.340983 0.255621 0.084899
0.356841 0.257253 0.086531
0.372700 0.258885 0.088162
0.388559 0.260517 0.089794
0.404417 0.262148 0.091426
0.420276 0.263780 0.093058
0.436134 0.265412 0.094689
0.451993 0.267043 0.096321
0.467851 0.268675 0.097953
0.483710 0.270307 0.099584
0.499569 0.271939 0.101216
0.515427 0.273570 0.102848
0.531286 0.275202 0.104480
0.547144 0.276834 0.106111
0.563003 0.278465 0.107743
0.061006 0.245955 0.061006
0.076864 0.247587 0.062637
0.092723 0.249218 0.064269
0.108581 0.250850 0.065901
0.124440 0.252482 0.067532
0.140298 0.254113 0.069164
0.156157 0.255745 0.070796
0.172016 0.257377 0.072428
0.187874 0.259009 0.074059
0.203733 0.260640 0.075691
0.219591 0.262272 0.077323
0.235450 0.263904 0.078954
0.251309 0.265535 0.080586
0.267167 0.267167 0.082218
0.283026 0.268799 0.083849
0.298884 0.270431 0.085481
0.314743 0.272062 0.087113
0.330602 0.273694 0.088745
0.346460 0.275326 0.090376
0.362319 0.276957 0.092008
0.378177 0.278589 0.093640
0.394036 0.280221 0.095271
0.409894 0.281853 0.096903
0.425753 0.283484 0.098535
0.441612 0.285116 0.100167
0.457470 0.286748 0.101798
0.473329 0.288379 0.103430
0.489187 0.290011 0.105062
0.505046 0.291643 0.106693
0.520905 0.293275 0.108325
0.536763 0.294906 0.109957
0.552622 0.296538 0.111589
0.568480 0.298170 0.113220
0.066483 0.265659 0.066483
0.082341 0.267291 0.068115
0.098200 0.268923 0.069746
0.114059 0.270554 0.071378
0.129917 0.272186 0.073010
0.145776 0.273818 0.074641
0.161634 0.275449 0.076273
0.177493 0.277081 0.077905
0.193352 0.278713 0.079537
0.209210 0.280345 0.081168
0.225069 0.281976 0.082800
0.240927 0.283608 0.084432
0.256786 0.285240 0.086063
0.272645 0.286871 0.087695
0.288503 0.288503 0.089327
0.304362 0.290135 0.090959
0.320220 0.291767 0.092590
0.336079 0.293398 0.094222
0.351937 0.295030 0.095854
0.367796 0.296662 0.097485
0.383655 0.298293 0.099117
0.399513 0.299925 0.100749
0.415372 0.301557 0.102381
0.431230 0.303189 0.104012
0.447089 0.304820 0.105644
0.462948 0.306452 0.107276
0.478806 0.308084 0.108907
0.494665 0.309715 0.110539
0.510523 0.311347 0.112171
0.526382 0.312979 0.113803
0.542241 0.314611 0.115434
0.558099 0.316242 0.117066
0.573958 0.317874 0.118698
0.071960 0.285363 0.071960
0.087819 0.286995 0.073592
0.103677 0.288627 0.075224
0.119536 0.290258 0.076855
0.135395 0.291890 0.078487
0.151253 0.293522 0.080119
0.167112 0.295154 0.081750
0.182970 0.296785 0.083382
0.198829 0.298417 0.085014
0.214687 0.300049 0.086646
0.230546 0.301680 0.088277
0.246405 0.303312 0.089909
0.262263 0.304944 0.091541
0.278122 0.306576 0.093172
0.293980 0.308207 0.094804
0.309839 0.309839 0.096436
0.325698 0.311471 0.098068
0.341556 0.313102 0.099699
0.357415 0.314734 0.101331
0.373273 0.316366 0.102963
0.389132 0.317998 0.104594
0.404991 0.319629 0.106226
0.420849 0.321261 0.107858
0.436708 0.322893 0.109490
0.452566 0.324524 0.111121
0.468425 0.326156 0.112753
0.484283 0.327788 0.114385
0.500142 0.329420 0.116016
0.516001 0.331051 0.117648
0.531859 0.332683 0.119280
0.547718 0.334315 0.120912
0.563576 0.335946 0.122543
0.579435 0.337578 0.124175
0.077438 0.305068 0.077438
0.093296 0.306699 0.079069
0.109155 0.308331 0.080701
0.125013 0.309963 0.082333
0.140872 0.311594 0.083964
0.156730 0.313226 0.085596
0.172589 0.314858 0.087228
0.188448 0.316490 0.088860
0.204306 0.318121 0.090491
0.220165 0.319753 0.092123
0.236023 0.321385 0.093755
0.251882 0.323016 0.095386
0.267741 0.324648 0.097018
0.283599 0.326280 0.098650
0.299458 0.327912 0.100282
0.315316 0.329543 0.101913
0.331175 0.331175 0.103545
0.347034 0.332807 0.105177
0.362892 0.334438 0.106808
0.378751 0.336070 0.108440
0.394609 0.337702 0.110072
0.410468 0.339334 0.111704
0.426326 0.340965 0.113335
0.442185 0.342597 0.114967
0.458044 0.344229 0.116599
0.473902 0.345860 0.118230
0.489761 0.347492 0.119862
0.505619 0.349124 0.121494
0.521478 0.350756 0.123126
0.537337 0.352387 0.124757
0.553195 0.354019 0.126389
0.569054 0.355651 0.128021
0.584912 0.357282 0.129652
0.082915 0.324772 0.082915
0.098773 0.326403 0.084547
0.114632 0.328035 0.086178
0.130491 0.329667 0.087810
0.146349 0.331299 0.089442
0.162208 0.332930 0.091073
0.178066 0.334562 0.092705
0.193925 0.336194 0.094337
0.209784 0.337825 0.095969
0.225642 0.339457 0.097600
0.241501 0.341089 0.099232
0.257359 0.342721 0.100864
0.273218 0.344352 0.102495
0.289077 0.345984 0.104127
0.304935 0.347616 0.105759
0.320794 0.349247 0.107391
0.336652 0.350879 0.109022
0.352511 0.352511 0.110654
0.368369 0.354143 0.112286
0.384228 0.355774 0.113917
0.400087 0.357406 0.115549
0.415945 0.359038 0.117181
0.431804 0.360669 0.118813
0.447662 0.362301 0.120444
0.463521 0.363933 0.122076
0.479380 0.365565 0.123708
0.495238 0.367196 0.125339
0.511097 0.368828 0.126971
0.526955 0.370460 0.128603
0.542814 0.372091 0.130235
0.558673 0.373723 0.131866
0.574531 0.375355 0.133498
0.590390 0.376987 0.135130
0.088392 0.344476 0.088392
0.104251 0.346108 0.090024
0.120109 0.347739 0.091656
0.135968 0.349371 0.093287
0.151827 0.351003 0.094919
0.167685 0.352635 0.096551
0.183544 0.354266 0.098183
0.199402 0.355898 0.099814
0.215261 0.357530 0.101446
0.231120 0.359161 0.103078
0.246978 0.360793 0.104709
0.262837 0.362425 0.106341
0.278695 0.364057 0.107973
0.294554 0.365688 0.109605
0.310412 0.367320 0.111236
0.326271 0.368952 0.112868
0.342130 0.370583 0.114500
0.357988 0.372215 0.116131
0.373847 0.373847 0.117763
0.389705 0.375479 0.119395
0.405564 0.377110 0.121027
0.421423 0.378742 0.122658
0.437281 0.380374 0.124290
0.453140 0.382005 0.125922
0.468998 0.383637 0.127553
0.484857 0.385269 0.129185
0.500716 0.386901 0.130817
0.516574 0.388532 0.132448
0.532433 0.390164 0.134080
0.548291 0.391796 0.135712
0.564150 0.393427 0.137344
0.580008 0.395059 0.138975
0.595867 0.396691 0.140607
0.093870 0.364180 0.093870
0.109728 0.365812 0.095501
0.125587 0.367444 0.097133
0.141445 0.369075 0.098765
0.157304 0.370707 0.100396
0.173163 0.372339 0.102028
0.189021 0.373970 0.103660
0.204880 0.375602 0.105292
0.220738 0.377234 0.106923
0.236597 0.378866 0.108555
0.252455 0.380497 0.110187
0.268314 0.382129 0.111818
0.284173 0.383761 0.113450
0.300031 0.385392 0.115082
0.315890 0.387024 0.116714
0.331748 0.388656 0.118345
0.347607 0.390288 0.119977
0.363466 0.391919 0.121609
0.379324 0.393551 0.123240
0.395183 0.395183 0.124872
0.411041 0.396814 0.126504
0.426900 0.398446 0.128136
0.442759 0.400078 0.129767
0.458617 0.401710 0.131399
0.474476 0.403341 0.133031
0.490334 0.404973 0.134662
0.506193 0.406605 0.136294
0.522051 0.408236 0.137926
0.537910 0.409868 0.139558
0.553769 0.411500 0.141189
0.569627 0.413132 0.142821
0.585486 0.414763 0.144453
0.601344 0.416395 0.146084
0.099347 0.383884 0.099347
0.115206 0.385516 0.100979
0.131064 0.387148 0.102610
0.146923 0.388780 0.104242
0.162781 0.390411 0.105874
0.178640 0.392043 0.107506
0.194498 0.393675 0.109137
0.210357 0.395306 0.110769
0.226216 0.396938 0.112401
0.242074 0.398570 0.114032
0.257933 0.400202 0.115664
0.273791 0.401833 0.117296
0.289650 0.403465 0.118927
0.305509 0.405097 0.120559
0.321367 0.406728 0.122191
0.337226 0.408360 0.123823
0.353084 0.409992 0.125454
0.368943 0.411624 0.127086
0.384802 0.413255 0.128718
0.400660 0.414887 0.130349
0.416519 0.416519 0.131981
0.432377 0.418150 0.133613
0.448236 0.419782 0.135245
0.464094 0.421414 0.136876
0.479953 0.423046 0.138508
0.495812 0.424677 0.140140
0.511670 0.426309 0.141771
0.527529 0.427941 0.143403
0.543387 0.429572 0.145035
0.559246 0.431204 0.146667
0.575105 0.432836 0.148298
0.590963 0.434468 0.149930
0.606822 0.436099 0.151562
0.104824 0.403589 0.104824
0.120683 0.405220 0.106456
0.136541 0.406852 0.108088
0.152400 0.408484 0.109719
0.168259 0.410116 0.111351
0.184117 0.411747 0.112983
0.199976 0.413379 0.114615
0.215834 0.415011 0.116246
0.231693 0.416642 0.117878
0.247552 0.418274 0.119510
0.263410 0.419906 0.121141
0.279269 0.421538 0.122773
0.295127 0.423169 0.124405
0.310986 0.424801 0.126037
0.326845 0.426433 0.127668
0.342703 0.428064 0.129300
0.358562 0.429696 0.130932
0.374420 0.431328 0.132563
0.390279 0.432959 0.134195
0.406137 0.434591 0.135827
0.421996 0.436223 0.137459
0.437855 0.437855 0.139090
0.453713 0.439486 0.140722
0.469572 0.441118 0.142354
0.485430 0.442750 0.143985
0.501289 0.444381 0.145617
0.517148 0.446013 0.147249
0.533006 0.447645 0.148881
0.548865 0.449277 0.150512
0.564723 0.450908 0.152144
0.580582 0.452540 0.153776
0.596441 0.454172 0.155407
0.612299 0.455803 0.157039
0.110302 0.423293 0.110302
0.126160 0.424925 0.111933
0.142019 0.426556 0.113565
0.157877 0.428188 0.115197
0.173736 0.429820 0.116828
0.189595 0.431451 0.118460
0.205453 0.433083 0.120092
0.221312 0.434715 0.121724
0.237170 0.436347 0.123355
0.253029 0.437978 0.124987
0.268888 0.439610 0.126619
0.284746 0.441242 0.128250
0.300605 0.442873 0.129882
0.316463 0.444505 0.131514
0.332322 0.446137 0.133146
0.348180 0.447769 0.134777
0.364039 0.449400 0.136409
0.379898 0.451032 0.138041
0.395756 0.452664 0.139672
0.411615 0.454295 0.141304
0.427473 0.455927 0.142936
0.443332 0.457559 0.144568
0.459191 0.459191 0.146199
0.475049 0.460822 0.147831
0.490908 0.462454 0.149463
0.506766 0.464086 0.151094
0.522625 0.465717 0.152726
0.538484 0.467349 0.154358
0.554342 0.468981 0.155990
0.570201 0.470613 0.157621
0.586059 0.472244 0.159253
0.601918 0.473876 0.160885
0.617776 0.475508 0.162516
0.115779 0.442997 0.115779
0.131638 0.444629 0.117411
0.147496 0.446261 0.119042
0.163355 0.447892 0.120674
0.179213 0.449524 0.122306
0.195072 0.451156 0.123938
0.210931 0.452787 0.125569
0.226789 0.454419 0.127201
0.242648 0.456051 0.128833
0.258506 0.457683 0.130464
0.274365 0.459314 0.132096
0.290223 0.460946 0.133728
0.306082 0.462578 0.135360
0.321941 0.464209 0.136991
0.337799 0.465841 0.138623
0.353658 0.467473 0.140255
0.369516 0.469105 0.141886
0.385375 0.470736 0.143518
0.401234 0.472368 0.145150
0.417092 0.474000 0.146782
0.432951 0.475631 0.148413
0.448809 0.477263 0.150045
0.464668 0.478895 0.151677
0.480527 0.480527 0.153308
0.496385 0.482158 0.154940
0.512244 0.483790 0.156572
0.528102 0.485422 0.158204
0.543961 0.487053 0.159835
0.559819 0.488685 0.161467
0.575678 0.490317 0.163099
0.591537 0.491948 0.164730
0.607395 0.493580 0.166362
0.623254 0.495212 0.167994
0.121256 0.462701 0.121256
0.137115 0.464333 0.122888
0.152974 0.465965 0.124520
0.168832 0.467596 0.126151
0.184691 0.469228 0.127783
0.200549 0.470860 0.129415
0.216408 0.472492 0.131047
0.232266 0.474123 0.132678
0.248125 0.475755 0.134310
0.263984 0.477387 0.135942
0.279842 0.479018 0.137573
0.295701 0.480650 0.139205
0.311559 0.482282 0.140837
0.327418 0.483914 0.142469
0.343277 0.485545 0.144100
0.359135 0.487177 0.145732
0.374994 0.488809 0.147364
0.390852 0.490440 0.148995
0.406711 0.492072 0.150627
0.422569 0.493704 0.152259
0.438428 0.495336 0.153891
0.454287 0.496967 0.155522
0.470145 0.498599 0.157154
0.486004 0.500231 0.158786
0.501862 0.501862 0.160417
0.517721 0.503494 0.162049
0.533580 0.505126 0.163681
0.549438 0.506758 0.165313
0.565297 0.508389 0.166944
0.581155 0.510021 0.168576
0.597014 0.511653 0.170208
0.612873 0.513284 0.171839
0.628731 0.514916 0.173471
0.126734 0.482406 0.126734
0.142592 0.484037 0.128365
0.158451 0.485669 0.129997
0.174309 0.487301 0.131629
0.190168 0.488932 0.133261
0.206027 0.490564 0.134892
0.221885 0.492196 0.136524
0.237744 0.493828 0.138156
0.253602 0.495459 0.139787
0.269461 0.497091 0.141419
0.285320 0.498723 0.143051
0.301178 0.500354 0.144683
0.317037 0.501986 0.146314
0.332895 0.503618 0.147946
0.348754 0.505250 0.149578
0.364612 0.506881 0.151209
0.380471 0.508513 0.152841
0.396330 0.510145 0.154473
0.412188 0.511776 0.156105
0.428047 0.513408 0.157736
0.443905 0.515040 0.159368
0.459764 0.516672 0.161000
0.475623 0.518303 0.162631
0.491481 0.519935 0.164263
0.507340 0.521567 0.165895
0.523198 0.523198 0.167526
0.539057 0.524830 0.169158
0.554916 0.526462 0.170790
0.570774 0.528094 0.172422
0.586633 0.529725 0.174053
0.602491 0.531357 0.175685
0.618350 0.532989 0.177317
0.634208 0.534620 0.178948
0.132211 0.502110 0.132211
0.148070 0.503741 0.133843
0.163928 0.505373 0.135474
0.179787 0.507005 0.137106
0.195645 0.508637 0.138738
0.211504 0.510268 0.140370
0.227363 0.511900 0.142001
0.243221 0.513532 0.143633
0.259080 0.515163 0.145265
0.274938 0.516795 0.146896
0.290797 0.518427 0.148528
0.306655 0.520059 0.150160
0.322514 0.521690 0.151792
0.338373 0.523322 0.153423
0.354231 0.524954 0.155055
0.370090 0.526585 0.156687
0.385948 0.528217 0.158318
0.401807 0.529849 0.159950
0.417666 0.531481 0.161582
0.433524 0.533112 0.163214
0.449383 0.534744 0.164845
0.465241 0.536376 0.166477
