personal-map-app/personal-map-app/photo-sticker-lab/luts/paper-warm.cube
# 由 tools/bake_luts.py 生成，请勿手改。
# 来源 CSS filter 链: sepia(.18) saturate(.82) contrast(1.03)
# 说明: 轻微暖调偏黄，接近 --paper #f4f2eb 的纸张感。
TITLE "paper-warm"
LUT_3D_SIZE 9
DOMAIN_MIN 0.000000 0.000000 0.000000
DOMAIN_MAX 1.000000 1.000000 1.000000
0.000000 0.000000 0.000000
0.084559 0.000000 0.000000
0.184119 0.009304 0.006377
0.283678 0.021455 0.017066
0.383238 0.033607 0.027754
0.482797 0.045759 0.038443
0.582357 0.057911 0.049131
0.681916 0.070063 0.059820
0.781476 0.082214 0.070508
0.016091 0.101085 0.011625
0.115650 0.113237 0.022314
0.215210 0.125389 0.033002
0.314769 0.137541 0.043691
0.414329 0.149692 0.054379
0.513888 0.161844 0.065068
0.613448 0.173996 0.075756
0.713007 0.186148 0.086445
0.812566 0.198299 0.097133
0.047182 0.217170 0.038250
0.146741 0.229322 0.048939
0.246301 0.241474 0.059627
0.345860 0.253626 0.070316
0.445420 0.265777 0.081004
0.544979 0.277929 0.091693
0.644539 0.290081 0.102381
0.744098 0.302233 0.113070
0.843657 0.314385 0.123758
0.078273 0.333255 0.064875
0.177832 0.345407 0.075564
0.277392 0.357559 0.086252
0.376951 0.369711 0.096941
0.476511 0.381863 0.107629
0.576070 0.394014 0.118318
0.675629 0.406166 0.129006
0.775189 0.418318 0.139695
0.874748 0.430470 0.150384
0.109364 0.449341 0.091500
0.208923 0.461492 0.102189
0.308483 0.473644 0.112878
0.408042 0.485796 0.123566
0.507602 0.497948 0.134255
0.607161 0.510100 0.144943
0.706720 0.522251 0.155632
0.806280 0.534403 0.166320
0.905839 0.546555 0.177009
0.140455 0.565426 0.118126
0.240014 0.577578 0.128814
0.339574 0.589729 0.139503
0.439133 0.601881 0.150191
0.538692 0.614033 0.160880
0.638252 0.626185 0.171568
0.737811 0.638336 0.182257
0.837371 0.650488 0.192945
0.936930 0.662640 0.203634
0.171546 0.681511 0.144751
0.271105 0.693663 0.155439
0.370665 0.705814 0.166128
0.470224 0.717966 0.176816
0.569783 0.730118 0.187505
0.669343 0.742270 0.198193
0.768902 0.754422 0.208882
0.868462 0.766573 0.219570
0.968021 0.778725 0.230259
0.202637 0.797596 0.171376
0.302196 0.809748 0.182064
0.401755 0.821900 0.192753
0.501315 0.834051 0.203441
0.600874 0.846203 0.214130
0.700434 0.858355 0.224818
0.799993 0.870507 0.235507
0.899553 0.882659 0.246195
0.988629 0.894342 0.256416
0.233728 0.913681 0.198001
0.333287 0.925833 0.208689
0.432846 0.937985 0.219378
0.532406 0.950137 0.230066
0.631965 0.962288 0.240755
0.731525 0.974440 0.251444
0.831084 0.986592 0.262132
0.930644 0.998744 0.272821
1.000000 1.000000 0.281522
0.000000 0.000000 0.076138
0.090228 0.002421 0.086826
0.189787 0.014573 0.097515
0.289347 0.026725 0.108203
0.388906 0.038876 0.118892
0.488465 0.051028 0.129580
0.588025 0.063180 0.140269
0.687584 0.075332 0.150957
0.787144 0.087484 0.161646
0.021759 0.106354 0.102763
0.121319 0.118506 0.113451
0.220878 0.130658 0.124140
0.320438 0.142810 0.134828
0.419997 0.154962 0.145517
0.519556 0.167113 0.156205
0.619116 0.179265 0.166894
0.718675 0.191417 0.177582
0.818235 0.203569 0.188271
0.052850 0.222439 0.129388
0.152410 0.234591 0.140076
0.251969 0.246743 0.150765
0.351528 0.258895 0.161453
0.451088 0.271047 0.172142
0.550647 0.283198 0.182830
0.650207 0.295350 0.193519
0.749766 0.307502 0.204207
0.849326 0.319654 0.214896
0.083941 0.338525 0.156013
0.183501 0.350676 0.166701
0.283060 0.362828 0.177390
0.382619 0.374980 0.188078
0.482179 0.387132 0.198767
0.581738 0.399284 0.209456
0.681298 0.411435 0.220144
0.780857 0.423587 0.230833
0.880417 0.435739 0.241521
0.115032 0.454610 0.182638
0.214591 0.466762 0.193327
0.314151 0.478913 0.204015
0.413710 0.491065 0.214704
0.513270 0.503217 0.225392
0.612829 0.515369 0.236081
0.712389 0.527521 0.246769
0.811948 0.539672 0.257458
0.911508 0.551824 0.268146
0.146123 0.570695 0.209263
0.245682 0.582847 0.219952
0.345242 0.594999 0.230640
0.444801 0.607150 0.241329
0.544361 0.619302 0.252017
0.643920 0.631454 0.262706
0.743480 0.643606 0.273394
0.843039 0.655757 0.284083
0.942599 0.667909 0.294771
0.177214 0.686780 0.235888
0.276773 0.698932 0.246577
0.376333 0.711084 0.257265
0.475892 0.723235 0.267954
0.575452 0.735387 0.278642
0.675011 0.747539 0.289331
0.774571 0.759691 0.300019
0.874130 0.771843 0.310708
0.973689 0.783994 0.321396
0.208305 0.802865 0.262513
0.307864 0.815017 0.273202
0.407424 0.827169 0.283890
0.506983 0.839321 0.294579
0.606543 0.851472 0.305267
0.706102 0.863624 0.315956
0.805661 0.875776 0.326644
0.905221 0.887928 0.337333
0.990538 0.899443 0.347385
0.239396 0.918950 0.289138
0.338955 0.931102 0.299827
0.438515 0.943254 0.310516
0.538074 0.955406 0.321204
0.637634 0.967558 0.331893
0.737193 0.979709 0.342581
0.836752 0.991861 0.353270
0.936017 1.000000 0.363663
1.000000 1.000000 0.371991
0.000000 0.000000 0.167275
0.095896 0.007690 0.177964
0.195455 0.019842 0.188652
0.295015 0.031994 0.199341
0.394574 0.044146 0.210029
0.494134 0.056297 0.220718
0.593693 0.068449 0.231406
0.693253 0.080601 0.242095
0.792812 0.092753 0.252783
0.027427 0.111624 0.193900
0.126987 0.123775 0.204589
0.226546 0.135927 0.215277
0.326106 0.148079 0.225966
0.425665 0.160231 0.236654
0.525225 0.172382 0.247343
0.624784 0.184534 0.258031
0.724344 0.196686 0.268720
0.823903 0.208838 0.279408
0.058518 0.227709 0.220525
0.158078 0.239860 0.231214
0.257637 0.252012 0.241902
0.357197 0.264164 0.252591
0.456756 0.276316 0.263279
0.556316 0.288468 0.273968
0.655875 0.300619 0.284656
0.755435 0.312771 0.295345
0.854994 0.324923 0.306034
0.089609 0.343794 0.247150
0.189169 0.355946 0.257839
0.288728 0.368097 0.268528
0.388288 0.380249 0.279216
0.487847 0.392401 0.289905
0.587407 0.404553 0.300593
0.686966 0.416705 0.311282
0.786525 0.428856 0.321970
0.886085 0.441008 0.332659
0.120700 0.459879 0.273776
0.220260 0.472031 0.284464
0.319819 0.484183 0.295153
0.419379 0.496334 0.305841
0.518938 0.508486 0.316530
0.618498 0.520638 0.327218
0.718057 0.532790 0.337907
0.817616 0.544942 0.348595
0.917176 0.557093 0.359284
0.151791 0.575964 0.300401
0.251351 0.588116 0.311089
0.350910 0.600268 0.321778
0.450470 0.612420 0.332466
0.550029 0.624571 0.343155
0.649588 0.636723 0.353843
0.749148 0.648875 0.364532
0.848707 0.661027 0.375220
0.948267 0.673178 0.385909
0.182882 0.692049 0.327026
0.282442 0.704201 0.337714
0.382001 0.716353 0.348403
0.481561 0.728505 0.359091
0.581120 0.740656 0.369780
0.680679 0.752808 0.380468
0.780239 0.764960 0.391157
0.879798 0.777112 0.401845
0.976652 0.789143 0.412413
0.213973 0.808134 0.353651
0.313533 0.820286 0.364339
0.413092 0.832438 0.375028
0.512651 0.844590 0.385717
0.612211 0.856742 0.396405
0.711770 0.868893 0.407094
0.811330 0.881045 0.417782
0.910889 0.893197 0.428471
0.992446 0.904545 0.438355
0.245064 0.924220 0.380276
0.344623 0.936371 0.390965
0.444183 0.948523 0.401653
0.543742 0.960675 0.412342
0.643302 0.972827 0.423030
0.742861 0.984979 0.433719
0.842421 0.997130 0.444407
0.941184 1.000000 0.454299
1.000000 1.000000 0.462460
0.002005 0.000808 0.258413
0.101564 0.012959 0.269101
0.201124 0.025111 0.279790
0.300683 0.037263 0.290478
0.400243 0.049415 0.301167
0.499802 0.061567 0.311855
0.599361 0.073718 0.322544
0.698921 0.085870 0.333232
0.798480 0.098022 0.343921
0.033096 0.116893 0.285038
0.132655 0.129045 0.295726
0.232215 0.141196 0.306415
0.331774 0.153348 0.317103
0.431334 0.165500 0.327792
0.530893 0.177652 0.338480
0.630452 0.189803 0.349169
0.730012 0.201955 0.359857
0.829571 0.214107 0.370546
0.064187 0.232978 0.311663
0.163746 0.245130 0.322351
0.263306 0.257281 0.333040
0.362865 0.269433 0.343728
0.462424 0.281585 0.354417
0.561984 0.293737 0.365106
0.661543 0.305889 0.375794
0.761103 0.318040 0.386483
0.860662 0.330192 0.397171
0.095278 0.349063 0.338288
0.194837 0.361215 0.348977
0.294397 0.373367 0.359665
0.393956 0.385518 0.370354
0.493515 0.397670 0.381042
0.593075 0.409822 0.391731
0.692634 0.421974 0.402419
0.792194 0.434126 0.413108
0.891753 0.446277 0.423796
0.126369 0.465148 0.364913
0.225928 0.477300 0.375602
0.325487 0.489452 0.386290
0.425047 0.501604 0.396979
0.524606 0.513755 0.407667
0.624166 0.525907 0.418356
0.723725 0.538059 0.429044
0.823285 0.550211 0.439733
0.922844 0.562362 0.450421
0.157460 0.581233 0.391538
0.257019 0.593385 0.402227
0.356578 0.605537 0.412915
0.456138 0.617689 0.423604
0.555697 0.629840 0.434292
0.655257 0.641992 0.444981
0.754816 0.654144 0.455669
0.854376 0.666296 0.466358
0.953935 0.678448 0.477046
0.188550 0.697318 0.418163
0.288110 0.709470 0.428852
0.387669 0.721622 0.439540
0.487229 0.733774 0.450229
0.586788 0.745926 0.460917
0.686348 0.758077 0.471606
0.785907 0.770229 0.482295
0.885467 0.782381 0.492983
0.978561 0.794244 0.503383
0.219641 0.813404 0.444789
0.319201 0.825555 0.455477
0.418760 0.837707 0.466166
0.518320 0.849859 0.476854
0.617879 0.862011 0.487543
0.717439 0.874163 0.498231
0.816998 0.886314 0.508920
0.916557 0.898466 0.519608
0.994355 0.909646 0.529325
0.250732 0.929489 0.471414
0.350292 0.941641 0.482102
0.449851 0.953792 0.492791
0.549411 0.965944 0.503479
0.648970 0.978096 0.514168
0.748530 0.990248 0.524856
0.847832 1.000000 0.535288
0.946351 1.000000 0.544936
1.000000 1.000000 0.552928
0.007673 0.006077 0.349550
0.107233 0.018229 0.360239
0.206792 0.030380 0.370927
0.306351 0.042532 0.381616
0.405911 0.054684 0.392304
0.505470 0.066836 0.402993
0.605030 0.078988 0.413681
0.704589 0.091139 0.424370
0.804149 0.103291 0.435058
0.038764 0.122162 0.376175
0.138323 0.134314 0.386864
0.237883 0.146466 0.397552
0.337442 0.158617 0.408241
0.437002 0.170769 0.418929
0.536561 0.182921 0.429618
0.636121 0.195073 0.440307
0.735680 0.207224 0.450995
0.835240 0.219376 0.461684
0.069855 0.238247 0.402801
0.169414 0.250399 0.413489
0.268974 0.262551 0.424178
0.368533 0.274702 0.434866
0.468093 0.286854 0.445555
0.567652 0.299006 0.456243
0.667212 0.311158 0.466932
0.766771 0.323310 0.477620
0.866331 0.335461 0.488309
0.100946 0.354332 0.429426
0.200505 0.366484 0.440114
0.300065 0.378636 0.450803
0.399624 0.390788 0.461491
0.499184 0.402939 0.472180
0.598743 0.415091 0.482868
0.698303 0.427243 0.493557
0.797862 0.439395 0.504245
0.897421 0.451547 0.514934
0.132037 0.470417 0.456051
0.231596 0.482569 0.466739
0.331156 0.494721 0.477428
0.430715 0.506873 0.488116
0.530275 0.519025 0.498805
0.629834 0.531176 0.509493
0.729393 0.543328 0.520182
0.828953 0.555480 0.530870
0.928512 0.567632 0.541559
0.163128 0.586503 0.482676
0.262687 0.598654 0.493364
0.362247 0.610806 0.504053
0.461806 0.622958 0.514741
0.561366 0.635110 0.525430
0.660925 0.647261 0.536118
0.760484 0.659413 0.546807
0.860044 0.671565 0.557495
0.959603 0.683717 0.568184
0.194219 0.702588 0.509301
0.293778 0.714739 0.519989
0.393338 0.726891 0.530678
0.492897 0.739043 0.541367
0.592456 0.751195 0.552055
0.692016 0.763347 0.562744
0.791575 0.775498 0.573432
0.891135 0.787650 0.584121
0.980470 0.799345 0.594352
0.225310 0.818673 0.535926
0.324869 0.830825 0.546615
0.424429 0.842976 0.557303
0.523988 0.855128 0.567992
0.623547 0.867280 0.578680
0.723107 0.879432 0.589369
0.822666 0.891584 0.600057
0.922226 0.903735 0.610746
0.996264 0.914747 0.620294
0.256401 0.934758 0.562551
0.355960 0.946910 0.573240
0.455519 0.959062 0.583928
0.555079 0.971213 0.594617
0.654638 0.983365 0.605305
0.754198 0.995517 0.615994
0.853000 1.000000 0.625925
0.951518 1.000000 0.635572
1.000000 1.000000 0.643397
0.013341 0.011346 0.440688
0.112901 0.023498 0.451376
0.212460 0.035650 0.462065
0.312020 0.047801 0.472753
0.411579 0.059953 0.483442
0.511139 0.072105 0.494130
0.610698 0.084257 0.504819
0.710257 0.096409 0.515507
0.809817 0.108560 0.526196
0.044432 0.127431 0.467313
0.143992 0.139583 0.478001
0.243551 0.151735 0.488690
0.343111 0.163887 0.499379
0.442670 0.176038 0.510067
0.542230 0.188190 0.520756
0.641789 0.200342 0.531444
0.741348 0.212494 0.542133
0.840908 0.224645 0.552821
0.075523 0.243516 0.493938
0.175083 0.255668 0.504627
0.274642 0.267820 0.515315
0.374202 0.279972 0.526004
0.473761 0.292123 0.536692
0.573320 0.304275 0.547381
0.672880 0.316427 0.558069
0.772439 0.328579 0.568758
0.871999 0.340731 0.579446
0.106614 0.359601 0.520563
0.206174 0.371753 0.531252
0.305733 0.383905 0.541940
0.405293 0.396057 0.552629
0.504852 0.408209 0.563317
0.604411 0.420360 0.574006
0.703971 0.432512 0.584694
0.803530 0.444664 0.595383
0.903090 0.456816 0.606071
0.137705 0.475687 0.547188
0.237265 0.487838 0.557877
0.336824 0.499990 0.568565
0.436383 0.512142 0.579254
0.535943 0.524294 0.589942
0.635502 0.536446 0.600631
0.735062 0.548597 0.611319
0.834621 0.560749 0.622008
0.934181 0.572901 0.632696
0.168796 0.591772 0.573813
0.268355 0.603924 0.584502
0.367915 0.616075 0.595190
0.467474 0.628227 0.605879
0.567034 0.640379 0.616567
0.666593 0.652531 0.627256
0.766153 0.664682 0.637945
0.865712 0.676834 0.648633
0.965272 0.688986 0.659322
0.199887 0.707857 0.600439
0.299446 0.720009 0.611127
0.399006 0.732160 0.621816
0.498565 0.744312 0.632504
0.598125 0.756464 0.643193
0.697684 0.768616 0.653881
0.797244 0.780768 0.664570
0.896803 0.792919 0.675258
0.982378 0.804447 0.685322
0.230978 0.823942 0.627064
0.330537 0.836094 0.637752
0.430097 0.848246 0.648441
0.529656 0.860397 0.659129
0.629216 0.872549 0.669818
0.728775 0.884701 0.680506
0.828335 0.896853 0.691195
0.927894 0.909005 0.701883
0.998172 0.919848 0.711264
0.262069 0.940027 0.653689
0.361628 0.952179 0.664377
0.461188 0.964331 0.675066
0.560747 0.976483 0.685754
0.660307 0.988634 0.696443
0.759648 0.999181 0.706914
0.858167 1.000000 0.716561
0.956685 1.000000 0.726209
1.000000 1.000000 0.733865
0.019010 0.016615 0.531825
0.118569 0.028767 0.542514
0.218129 0.040919 0.553202
0.317688 0.053071 0.563891
0.417247 0.065222 0.574579
0.516807 0.077374 0.585268
0.616366 0.089526 0.595957
0.715926 0.101678 0.606645
0.815485 0.113830 0.617334
0.050101 0.132700 0.558451
0.149660 0.144852 0.569139
0.249219 0.157004 0.579828
0.348779 0.169156 0.590516
0.448338 0.181307 0.601205
0.547898 0.193459 0.611893
0.647457 0.205611 0.622582
0.747017 0.217763 0.633270
0.846576 0.229915 0.643959
0.081192 0.248785 0.585076
0.180751 0.260937 0.595764
0.280310 0.273089 0.606453
0.379870 0.285241 0.617141
0.479429 0.297393 0.627830
0.578989 0.309544 0.638518
0.678548 0.321696 0.649207
0.778108 0.333848 0.659895
0.877667 0.346000 0.670584
0.112282 0.364871 0.611701
0.211842 0.377022 0.622389
0.311401 0.389174 0.633078
0.410961 0.401326 0.643766
0.510520 0.413478 0.654455
0.610080 0.425630 0.665143
0.709639 0.437781 0.675832
0.809199 0.449933 0.686520
0.908758 0.462085 0.697209
0.143373 0.480956 0.638326
0.242933 0.493108 0.649014
0.342492 0.505259 0.659703
0.442052 0.517411 0.670391
0.541611 0.529563 0.681080
0.641171 0.541715 0.691768
0.740730 0.553867 0.702457
0.840289 0.566018 0.713146
0.939849 0.578170 0.723834
0.174464 0.597041 0.664951
0.274024 0.609193 0.675640
0.373583 0.621345 0.686328
0.473143 0.633496 0.697017
0.572702 0.645648 0.707705
0.672262 0.657800 0.718394
0.771821 0.669952 0.729082
0.871380 0.682103 0.739771
0.968493 0.694146 0.750350
0.205555 0.713126 0.691576
0.305115 0.725278 0.702265
0.404674 0.737430 0.712953
0.504234 0.749581 0.723642
0.603793 0.761733 0.734330
0.703352 0.773885 0.745019
0.802912 0.786037 0.755707
0.902471 0.798189 0.766396
0.984287 0.809548 0.776292
0.236646 0.829211 0.718201
0.336206 0.841363 0.728890
0.435765 0.853515 0.739578
0.535325 0.865667 0.750267
0.634884 0.877818 0.760955
0.734443 0.889970 0.771644
0.834003 0.902122 0.782332
0.933562 0.914274 0.793021
1.000000 0.924950 0.802234
0.267737 0.945296 0.744826
0.367297 0.957448 0.755515
0.466856 0.969600 0.766203
0.566415 0.981752 0.776892
0.665975 0.993904 0.787580
0.764816 1.000000 0.797550
0.863334 1.000000 0.807198
0.961853 1.000000 0.816845
1.000000 1.000000 0.824334
0.024678 0.021884 0.622963
0.124237 0.034036 0.633652
0.223797 0.046188 0.644340
0.323356 0.058340 0.655029
0.422916 0.070492 0.665717
0.522475 0.082643 0.676406
0.622035 0.094795 0.687094
0.721594 0.106947 0.697783
0.821153 0.119099 0.708471
0.055769 0.137970 0.649588
0.155328 0.150121 0.660277
0.254888 0.162273 0.670965
0.354447 0.174425 0.681654
0.454007 0.186577 0.692342
0.553566 0.198728 0.703031
0.653125 0.210880 0.713719
0.752685 0.223032 0.724408
0.852244 0.235184 0.735096
0.086860 0.254055 0.676213
0.186419 0.266206 0.686902
0.285979 0.278358 0.697590
0.385538 0.290510 0.708279
0.485098 0.302662 0.718967
0.584657 0.314814 0.729656
0.684216 0.326965 0.740344
0.783776 0.339117 0.751033
0.883335 0.351269 0.761721
0.117951 0.370140 0.702838
0.217510 0.382292 0.713527
0.317070 0.394443 0.724215
0.416629 0.406595 0.734904
0.516188 0.418747 0.745592
0.615748 0.430899 0.756281
0.715307 0.443051 0.766969
0.814867 0.455202 0.777658
0.914426 0.467354 0.788346
0.149042 0.486225 0.729463
0.248601 0.498377 0.740152
0.348161 0.510529 0.750840
0.447720 0.522680 0.761529
0.547279 0.534832 0.772218
0.646839 0.546984 0.782906
0.746398 0.559136 0.793595
0.845958 0.571288 0.804283
0.945517 0.583439 0.814972
0.180133 0.602310 0.756089
0.279692 0.614462 0.766777
0.379251 0.626614 0.777466
0.478811 0.638765 0.788154
0.578370 0.650917 0.798843
0.677930 0.663069 0.809531
0.777489 0.675221 0.820220
0.877049 0.687373 0.830908
0.970402 0.699247 0.841319
0.211224 0.718395 0.782714
0.310783 0.730547 0.793402
0.410342 0.742699 0.804091
0.509902 0.754851 0.814779
0.609461 0.767002 0.825468
0.709021 0.779154 0.836156
0.808580 0.791306 0.846845
0.908140 0.803458 0.857533
0.986196 0.814649 0.867261
0.242314 0.834480 0.809339
0.341874 0.846632 0.820027
0.441433 0.858784 0.830716
0.540993 0.870936 0.841404
0.640552 0.883088 0.852093
0.740112 0.895239 0.862781
0.839671 0.907391 0.873470
0.939231 0.919543 0.884158
1.000000 0.930051 0.893203
0.273405 0.950566 0.835964
0.372965 0.962717 0.846652
0.472524 0.974869 0.857341
0.572084 0.987021 0.868029
0.671464 0.997854 0.878539
0.769983 1.000000 0.888187
0.868501 1.000000 0.897834
0.967020 1.000000 0.907482
1.000000 1.000000 0.914802
0.030346 0.027154 0.714101
0.129906 0.039305 0.724789
0.229465 0.051457 0.735478
0.329025 0.063609 0.746166
0.428584 0.075761 0.756855
0.528143 0.087913 0.767543
0.627703 0.100064 0.778232
0.727262 0.112216 0.788920
0.826822 0.124368 0.799609
0.061437 0.143239 0.740726
0.160997 0.155391 0.751414
0.260556 0.167542 0.762103
0.360115 0.179694 0.772791
0.459675 0.191846 0.783480
0.559234 0.203998 0.794168
0.658794 0.216149 0.804857
0.758353 0.228301 0.815545
0.857913 0.240453 0.826234
0.092528 0.259324 0.767351
0.192087 0.271476 0.778039
0.291647 0.283627 0.788728
0.391206 0.295779 0.799416
0.490766 0.307931 0.810105
0.590325 0.320083 0.820793
0.689885 0.332235 0.831482
0.789444 0.344386 0.842170
0.889004 0.356538 0.852859
0.123619 0.375409 0.793976
0.223178 0.387561 0.804664
0.322738 0.399713 0.815353
0.422297 0.411864 0.826041
0.521857 0.424016 0.836730
0.621416 0.436168 0.847418
0.720976 0.448320 0.858107
0.820535 0.460472 0.868796
0.920095 0.472623 0.879484
0.154710 0.491494 0.820601
0.254269 0.503646 0.831290
0.353829 0.515798 0.841978
0.453388 0.527950 0.852667
0.552948 0.540101 0.863355
0.652507 0.552253 0.874044
0.752067 0.564405 0.884732
0.851626 0.576557 0.895421
0.951185 0.588708 0.906109
0.185801 0.607579 0.847226
0.285360 0.619731 0.857915
0.384920 0.631883 0.868603
0.484479 0.644035 0.879292
0.584039 0.656186 0.889980
0.683598 0.668338 0.900669
0.783158 0.680490 0.911357
0.882717 0.692642 0.922046
0.972311 0.704348 0.932289
0.216892 0.723664 0.873851
0.316451 0.735816 0.884540
0.416011 0.747968 0.895228
0.515570 0.760120 0.905917
0.615130 0.772272 0.916605
0.714689 0.784423 0.927294
0.814248 0.796575 0.937982
0.913808 0.808727 0.948671
0.988104 0.819750 0.958231
0.247983 0.839750 0.900476
0.347542 0.851901 0.911165
0.447102 0.864053 0.921853
0.546661 0.876205 0.932542
0.646221 0.888357 0.943230
0.745780 0.900509 0.953919
0.845339 0.912660 0.964607
0.944899 0.924812 0.975296
1.000000 0.935152 0.984173
0.279074 0.955835 0.927101
0.378633 0.967987 0.937790
0.478193 0.980138 0.948479
0.577752 0.992290 0.959167
0.676631 0.999429 0.969176
0.775150 1.000000 0.978823
0.873668 1.000000 0.988471
0.972187 1.000000 0.998118
1.000000 1.000000 1.000000
