personal-map-app/personal-map-app/photo-sticker-lab/luts/paper-warm.cube
# 由 tools/bake_luts.py 生成，请勿手改。
# 来源 CSS filter 链: sepia(.18) saturate(.82) contrast(1.03)
# 说明: 轻微暖调偏黄，接近 --paper #f4f2eb 的纸张感。
TITLE "paper-warm"
LUT_3D_SIZE 33
DOMAIN_MIN 0.000000 0.000000 0.000000
DOMAIN_MAX 1.000000 1.000000 1.000000
0.000000 0.000000 0.000000
0.009890 0.000000 0.000000
0.034780 0.000000 0.000000
0.059670 0.000000 0.000000
0.084559 0.000000 0.000000
0.109449 0.000190 0.000000
0.134339 0.003228 0.001033
0.159229 0.006266 0.003705
0.184119 0.009304 0.006377
0.209009 0.012342 0.009049
0.233899 0.015379 0.011721
0.258788 0.018417 0.014393
0.283678 0.021455 0.017066
0.308568 0.024493 0.019738
0.333458 0.027531 0.022410
0.358348 0.030569 0.025082
0.383238 0.033607 0.027754
0.408128 0.036645 0.030426
0.433017 0.039683 0.033098
0.457907 0.042721 0.035770
0.482797 0.045759 0.038443
0.507687 0.048797 0.041115
0.532577 0.051835 0.043787
0.557467 0.054873 0.046459
0.582357 0.057911 0.049131
0.607247 0.060949 0.051803
0.632136 0.063987 0.054475
0.657026 0.067025 0.057148
0.681916 0.070063 0.059820
0.706806 0.073100 0.062492
0.731696 0.076138 0.065164
0.756586 0.079176 0.067836
0.781476 0.082214 0.070508
0.000000 0.014021 0.000000
0.017663 0.017059 0.000000
0.042552 0.020097 0.000000
0.067442 0.023135 0.000000
0.092332 0.026173 0.002345
0.117222 0.029211 0.005017
0.142112 0.032249 0.007689
0.167002 0.035287 0.010361
0.191892 0.038325 0.013033
0.216781 0.041363 0.015705
0.241671 0.044401 0.018378
0.266561 0.047439 0.021050
0.291451 0.050477 0.023722
0.316341 0.053515 0.026394
0.341231 0.056553 0.029066
0.366121 0.059590 0.031738
0.391011 0.062628 0.034410
0.415900 0.065666 0.037082
0.440790 0.068704 0.039755
0.465680 0.071742 0.042427
0.490570 0.074780 0.045099
0.515460 0.077818 0.047771
0.540350 0.080856 0.050443
0.565240 0.083894 0.053115
0.590129 0.086932 0.055787
0.615019 0.089970 0.058460
0.639909 0.093008 0.061132
0.664799 0.096046 0.063804
0.689689 0.099084 0.066476
0.714579 0.102122 0.069148
0.739469 0.105160 0.071820
0.764358 0.108198 0.074492
0.789248 0.111236 0.077164
0.000545 0.043043 0.000000
0.025435 0.046081 0.000985
0.050325 0.049118 0.003657
0.075215 0.052156 0.006329
0.100105 0.055194 0.009001
0.124995 0.058232 0.011673
0.149885 0.061270 0.014345
0.174774 0.064308 0.017017
0.199664 0.067346 0.019690
0.224554 0.070384 0.022362
0.249444 0.073422 0.025034
0.274334 0.076460 0.027706
0.299224 0.079498 0.030378
0.324114 0.082536 0.033050
0.349004 0.085574 0.035722
0.373893 0.088612 0.038395
0.398783 0.091650 0.041067
0.423673 0.094688 0.043739
0.448563 0.097726 0.046411
0.473453 0.100764 0.049083
0.498343 0.103802 0.051755
0.523233 0.106839 0.054427
0.548122 0.109877 0.057099
0.573012 0.112915 0.059772
0.597902 0.115953 0.062444
0.622792 0.118991 0.065116
0.647682 0.122029 0.067788
0.672572 0.125067 0.070460
0.697462 0.128105 0.073132
0.722351 0.131143 0.075804
0.747241 0.134181 0.078476
0.772131 0.137219 0.081149
0.797021 0.140257 0.083821
0.008318 0.072064 0.004969
0.033208 0.075102 0.007641
0.058098 0.078140 0.010313
0.082988 0.081178 0.012985
0.107878 0.084216 0.015657
0.132768 0.087254 0.018329
0.157657 0.090292 0.021002
0.182547 0.093329 0.023674
0.207437 0.096367 0.026346
0.232327 0.099405 0.029018
0.257217 0.102443 0.031690
0.282107 0.105481 0.034362
0.306997 0.108519 0.037034
0.331886 0.111557 0.039707
0.356776 0.114595 0.042379
0.381666 0.117633 0.045051
0.406556 0.120671 0.047723
0.431446 0.123709 0.050395
0.456336 0.126747 0.053067
0.481226 0.129785 0.055739
0.506115 0.132823 0.058411
0.531005 0.135861 0.061084
0.555895 0.138899 0.063756
0.580785 0.141937 0.066428
0.605675 0.144975 0.069100
0.630565 0.148013 0.071772
0.655455 0.151050 0.074444
0.680344 0.154088 0.077116
0.705234 0.157126 0.079788
0.730124 0.160164 0.082461
0.755014 0.163202 0.085133
0.779904 0.166240 0.087805
0.804794 0.169278 0.090477
0.016091 0.101085 0.011625
0.040981 0.104123 0.014297
0.065871 0.107161 0.016969
0.090761 0.110199 0.019642
0.115650 0.113237 0.022314
0.140540 0.116275 0.024986
0.165430 0.119313 0.027658
0.190320 0.122351 0.030330
0.215210 0.125389 0.033002
0.240100 0.128427 0.035674
0.264990 0.131465 0.038346
0.289879 0.134503 0.041019
0.314769 0.137541 0.043691
0.339659 0.140578 0.046363
0.364549 0.143616 0.049035
0.389439 0.146654 0.051707
0.414329 0.149692 0.054379
0.439219 0.152730 0.057051
0.464108 0.155768 0.059723
0.488998 0.158806 0.062396
0.513888 0.161844 0.065068
0.538778 0.164882 0.067740
0.563668 0.167920 0.070412
0.588558 0.170958 0.073084
0.613448 0.173996 0.075756
0.638337 0.177034 0.078428
0.663227 0.180072 0.081100
0.688117 0.183110 0.083773
0.713007 0.186148 0.086445
0.737897 0.189186 0.089117
0.762787 0.192224 0.091789
0.787677 0.195262 0.094461
0.812566 0.198299 0.097133
0.023864 0.130106 0.018281
0.048754 0.133144 0.020954
0.073643 0.136182 0.023626
0.098533 0.139220 0.026298
0.123423 0.142258 0.028970
0.148313 0.145296 0.031642
0.173203 0.148334 0.034314
0.198093 0.151372 0.036986
0.222983 0.154410 0.039658
0.247872 0.157448 0.042331
0.272762 0.160486 0.045003
0.297652 0.163524 0.047675
0.322542 0.166562 0.050347
0.347432 0.169600 0.053019
0.372322 0.172638 0.055691
0.397212 0.175676 0.058363
0.422101 0.178714 0.061035
0.446991 0.181752 0.063708
0.471881 0.184789 0.066380
0.496771 0.187827 0.069052
0.521661 0.190865 0.071724
0.546551 0.193903 0.074396
0.571441 0.196941 0.077068
0.596330 0.199979 0.079740
0.621220 0.203017 0.082413
0.646110 0.206055 0.085085
0.671000 0.209093 0.087757
0.695890 0.212131 0.090429
0.720780 0.215169 0.093101
0.745670 0.218207 0.095773
0.770559 0.221245 0.098445
0.795449 0.224283 0.101117
0.820339 0.227321 0.103790
0.031636 0.159128 0.024938
0.056526 0.162166 0.027610
0.081416 0.165204 0.030282
0.106306 0.168242 0.032954
0.131196 0.171280 0.035626
0.156086 0.174317 0.038298
0.180976 0.177355 0.040970
0.205865 0.180393 0.043643
0.230755 0.183431 0.046315
0.255645 0.186469 0.048987
0.280535 0.189507 0.051659
0.305425 0.192545 0.054331
0.330315 0.195583 0.057003
0.355205 0.198621 0.059675
0.380094 0.201659 0.062347
0.404984 0.204697 0.065020
0.429874 0.207735 0.067692
0.454764 0.210773 0.070364
0.479654 0.213811 0.073036
0.504544 0.216849 0.075708
0.529434 0.219887 0.078380
0.554323 0.222925 0.081052
0.579213 0.225963 0.083725
0.604103 0.229001 0.086397
0.628993 0.232038 0.089069
0.653883 0.235076 0.091741
0.678773 0.238114 0.094413
0.703663 0.241152 0.097085
0.728553 0.244190 0.099757
0.753442 0.247228 0.102429
0.778332 0.250266 0.105102
0.803222 0.253304 0.107774
0.828112 0.256342 0.110446
0.039409 0.188149 0.031594
0.064299 0.191187 0.034266
0.089189 0.194225 0.036938
0.114079 0.197263 0.039610
0.138969 0.200301 0.042282
0.163858 0.203339 0.044955
0.188748 0.206377 0.047627
0.213638 0.209415 0.050299
0.238528 0.212453 0.052971
0.263418 0.215491 0.055643
0.288308 0.218528 0.058315
0.313198 0.221566 0.060987
0.338087 0.224604 0.063660
0.362977 0.227642 0.066332
0.387867 0.230680 0.069004
0.412757 0.233718 0.071676
0.437647 0.236756 0.074348
0.462537 0.239794 0.077020
0.487427 0.242832 0.079692
0.512316 0.245870 0.082364
0.537206 0.248908 0.085037
0.562096 0.251946 0.087709
0.586986 0.254984 0.090381
0.611876 0.258022 0.093053
0.636766 0.261060 0.095725
0.661656 0.264098 0.098397
0.686546 0.267136 0.101069
0.711435 0.270174 0.103741
0.736325 0.273212 0.106414
0.761215 0.276249 0.109086
0.786105 0.279287 0.111758
0.810995 0.282325 0.114430
0.835885 0.285363 0.117102
0.047182 0.217170 0.038250
0.072072 0.220208 0.040922
0.096962 0.223246 0.043594
0.121851 0.226284 0.046267
0.146741 0.229322 0.048939
0.171631 0.232360 0.051611
0.196521 0.235398 0.054283
0.221411 0.238436 0.056955
0.246301 0.241474 0.059627
0.271191 0.244512 0.062299
0.296080 0.247550 0.064972
0.320970 0.250588 0.067644
0.345860 0.253626 0.070316
0.370750 0.256664 0.072988
0.395640 0.259702 0.075660
0.420530 0.262740 0.078332
0.445420 0.265777 0.081004
0.470310 0.268815 0.083676
0.495199 0.271853 0.086349
0.520089 0.274891 0.089021
0.544979 0.277929 0.091693
0.569869 0.280967 0.094365
0.594759 0.284005 0.097037
0.619649 0.287043 0.099709
0.644539 0.290081 0.102381
0.669428 0.293119 0.105053
0.694318 0.296157 0.107726
0.719208 0.299195 0.110398
0.744098 0.302233 0.113070
0.768988 0.305271 0.115742
0.793878 0.308309 0.118414
0.818768 0.311347 0.121086
0.843657 0.314385 0.123758
0.054955 0.246192 0.044907
0.079844 0.249230 0.047579
0.104734 0.252267 0.050251
0.129624 0.255305 0.052923
0.154514 0.258343 0.055595
0.179404 0.261381 0.058267
0.204294 0.264419 0.060939
0.229184 0.267457 0.063611
0.254073 0.270495 0.066284
0.278963 0.273533 0.068956
0.303853 0.276571 0.071628
0.328743 0.279609 0.074300
0.353633 0.282647 0.076972
0.378523 0.285685 0.079644
0.403413 0.288723 0.082316
0.428303 0.291761 0.084988
0.453192 0.294799 0.087661
0.478082 0.297837 0.090333
0.502972 0.300875 0.093005
0.527862 0.303913 0.095677
0.552752 0.306951 0.098349
0.577642 0.309988 0.101021
0.602532 0.313026 0.103693
0.627421 0.316064 0.106365
0.652311 0.319102 0.109038
0.677201 0.322140 0.111710
0.702091 0.325178 0.114382
0.726981 0.328216 0.117054
0.751871 0.331254 0.119726
0.776761 0.334292 0.122398
0.801650 0.337330 0.125070
0.826540 0.340368 0.127743
0.851430 0.343406 0.130415
0.062727 0.275213 0.051563
0.087617 0.278251 0.054235
0.112507 0.281289 0.056907
0.137397 0.284327 0.059579
0.162287 0.287365 0.062251
0.187177 0.290403 0.064923
0.212067 0.293441 0.067596
0.236956 0.296478 0.070268
0.261846 0.299516 0.072940
0.286736 0.302554 0.075612
0.311626 0.305592 0.078284
0.336516 0.308630 0.080956
0.361406 0.311668 0.083628
0.386296 0.314706 0.086300
0.411185 0.317744 0.088973
0.436075 0.320782 0.091645
0.460965 0.323820 0.094317
0.485855 0.326858 0.096989
0.510745 0.329896 0.099661
0.535635 0.332934 0.102333
0.560525 0.335972 0.105005
0.585414 0.339010 0.107678
0.610304 0.342048 0.110350
0.635194 0.345086 0.113022
0.660084 0.348124 0.115694
0.684974 0.351162 0.118366
0.709864 0.354199 0.121038
0.734754 0.357237 0.123710
0.759643 0.360275 0.126382
0.784533 0.363313 0.129055
0.809423 0.366351 0.131727
0.834313 0.369389 0.134399
0.859203 0.372427 0.137071
0.070500 0.304234 0.058219
0.095390 0.307272 0.060891
0.120280 0.310310 0.063563
0.145170 0.313348 0.066235
0.170060 0.316386 0.068908
0.194949 0.319424 0.071580
0.219839 0.322462 0.074252
0.244729 0.325500 0.076924
0.269619 0.328538 0.079596
0.294509 0.331576 0.082268
0.319399 0.334614 0.084940
0.344289 0.337652 0.087612
0.369178 0.340690 0.090285
0.394068 0.343727 0.092957
0.418958 0.346765 0.095629
0.443848 0.349803 0.098301
0.468738 0.352841 0.100973
0.493628 0.355879 0.103645
0.518518 0.358917 0.106317
0.543407 0.361955 0.108990
0.568297 0.364993 0.111662
0.593187 0.368031 0.114334
0.618077 0.371069 0.117006
0.642967 0.374107 0.119678
0.667857 0.377145 0.122350
0.692747 0.380183 0.125022
0.717636 0.383221 0.127694
0.742526 0.386259 0.130367
0.767416 0.389297 0.133039
0.792306 0.392335 0.135711
0.817196 0.395373 0.138383
0.842086 0.398411 0.141055
0.866976 0.401448 0.143727
0.078273 0.333255 0.064875
0.103163 0.336293 0.067547
0.128053 0.339331 0.070220
0.152942 0.342369 0.072892
0.177832 0.345407 0.075564
0.202722 0.348445 0.078236
0.227612 0.351483 0.080908
0.252502 0.354521 0.083580
0.277392 0.357559 0.086252
0.302282 0.360597 0.088925
0.327171 0.363635 0.091597
0.352061 0.366673 0.094269
0.376951 0.369711 0.096941
0.401841 0.372749 0.099613
0.426731 0.375787 0.102285
0.451621 0.378825 0.104957
0.476511 0.381863 0.107629
0.501400 0.384901 0.110302
0.526290 0.387938 0.112974
0.551180 0.390976 0.115646
0.576070 0.394014 0.118318
0.600960 0.397052 0.120990
0.625850 0.400090 0.123662
0.650740 0.403128 0.126334
0.675629 0.406166 0.129006
0.700519 0.409204 0.131679
0.725409 0.412242 0.134351
0.750299 0.415280 0.137023
0.775189 0.418318 0.139695
0.800079 0.421356 0.142367
0.824969 0.424394 0.145039
0.849858 0.427432 0.147711
0.874748 0.430470 0.150384
0.086046 0.362277 0.071532
0.110935 0.365315 0.074204
0.135825 0.368353 0.076876
0.160715 0.371391 0.079548
0.185605 0.374429 0.082220
0.210495 0.377466 0.084892
0.235385 0.380504 0.087564
0.260275 0.383542 0.090237
0.285164 0.386580 0.092909
0.310054 0.389618 0.095581
0.334944 0.392656 0.098253
0.359834 0.395694 0.100925
0.384724 0.398732 0.103597
0.409614 0.401770 0.106269
0.434504 0.404808 0.108941
0.459393 0.407846 0.111614
0.484283 0.410884 0.114286
0.509173 0.413922 0.116958
0.534063 0.416960 0.119630
0.558953 0.419998 0.122302
0.583843 0.423036 0.124974
0.608733 0.426074 0.127646
0.633622 0.429112 0.130318
0.658512 0.432150 0.132991
0.683402 0.435187 0.135663
0.708292 0.438225 0.138335
0.733182 0.441263 0.141007
0.758072 0.444301 0.143679
0.782962 0.447339 0.146351
0.807852 0.450377 0.149023
0.832741 0.453415 0.151696
0.857631 0.456453 0.154368
0.882521 0.459491 0.157040
0.093818 0.391298 0.078188
0.118708 0.394336 0.080860
0.143598 0.397374 0.083532
0.168488 0.400412 0.086204
0.193378 0.403450 0.088876
0.218268 0.406488 0.091549
0.243157 0.409526 0.094221
0.268047 0.412564 0.096893
0.292937 0.415602 0.099565
0.317827 0.418640 0.102237
0.342717 0.421677 0.104909
0.367607 0.424715 0.107581
0.392497 0.427753 0.110253
0.417386 0.430791 0.112926
0.442276 0.433829 0.115598
0.467166 0.436867 0.118270
0.492056 0.439905 0.120942
0.516946 0.442943 0.123614
0.541836 0.445981 0.126286
0.566726 0.449019 0.128958
0.591615 0.452057 0.131631
0.616505 0.455095 0.134303
0.641395 0.458133 0.136975
0.666285 0.461171 0.139647
0.691175 0.464209 0.142319
0.716065 0.467247 0.144991
0.740955 0.470285 0.147663
0.765845 0.473323 0.150335
0.790734 0.476361 0.153008
0.815624 0.479398 0.155680
0.840514 0.482436 0.158352
0.865404 0.485474 0.161024
0.890294 0.488512 0.163696
0.101591 0.420319 0.084844
0.126481 0.423357 0.087516
0.151371 0.426395 0.090188
0.176261 0.429433 0.092861
0.201150 0.432471 0.095533
0.226040 0.435509 0.098205
0.250930 0.438547 0.100877
0.275820 0.441585 0.103549
0.300710 0.444623 0.106221
0.325600 0.447661 0.108893
0.350490 0.450699 0.111565
0.375379 0.453737 0.114238
0.400269 0.456775 0.116910
0.425159 0.459813 0.119582
0.450049 0.462851 0.122254
0.474939 0.465889 0.124926
0.499829 0.468926 0.127598
0.524719 0.471964 0.130270
0.549609 0.475002 0.132943
0.574498 0.478040 0.135615
0.599388 0.481078 0.138287
0.624278 0.484116 0.140959
0.649168 0.487154 0.143631
0.674058 0.490192 0.146303
0.698948 0.493230 0.148975
0.723838 0.496268 0.151647
0.748727 0.499306 0.154320
0.773617 0.502344 0.156992
0.798507 0.505382 0.159664
0.823397 0.508420 0.162336
0.848287 0.511458 0.165008
0.873177 0.514496 0.167680
0.898067 0.517534 0.170352
0.109364 0.449341 0.091500
0.134254 0.452379 0.094173
0.159143 0.455416 0.096845
0.184033 0.458454 0.099517
0.208923 0.461492 0.102189
0.233813 0.464530 0.104861
0.258703 0.467568 0.107533
0.283593 0.470606 0.110205
0.308483 0.473644 0.112878
0.333372 0.476682 0.115550
0.358262 0.479720 0.118222
0.383152 0.482758 0.120894
0.408042 0.485796 0.123566
0.432932 0.488834 0.126238
0.457822 0.491872 0.128910
0.482712 0.494910 0.131582
0.507602 0.497948 0.134255
0.532491 0.500986 0.136927
0.557381 0.504024 0.139599
0.582271 0.507062 0.142271
0.607161 0.510100 0.144943
0.632051 0.513137 0.147615
0.656941 0.516175 0.150287
0.681831 0.519213 0.152959
0.706720 0.522251 0.155632
0.731610 0.525289 0.158304
0.756500 0.528327 0.160976
0.781390 0.531365 0.163648
0.806280 0.534403 0.166320
0.831170 0.537441 0.168992
0.856060 0.540479 0.171664
0.880949 0.543517 0.174336
0.905839 0.546555 0.177009
0.117136 0.478362 0.098157
0.142026 0.481400 0.100829
0.166916 0.484438 0.103501
0.191806 0.487476 0.106173
0.216696 0.490514 0.108845
0.241586 0.493552 0.111517
0.266476 0.496590 0.114190
0.291366 0.499628 0.116862
0.316255 0.502665 0.119534
0.341145 0.505703 0.122206
0.366035 0.508741 0.124878
0.390925 0.511779 0.127550
0.415815 0.514817 0.130222
0.440705 0.517855 0.132894
0.465595 0.520893 0.135567
0.490484 0.523931 0.138239
0.515374 0.526969 0.140911
0.540264 0.530007 0.143583
0.565154 0.533045 0.146255
0.590044 0.536083 0.148927
0.614934 0.539121 0.151599
0.639824 0.542159 0.154271
0.664713 0.545197 0.156944
0.689603 0.548235 0.159616
0.714493 0.551273 0.162288
0.739383 0.554311 0.164960
0.764273 0.557349 0.167632
0.789163 0.560386 0.170304
0.814053 0.563424 0.172976
0.838942 0.566462 0.175649
0.863832 0.569500 0.178321
0.888722 0.572538 0.180993
0.913612 0.575576 0.183665
0.124909 0.507383 0.104813
0.149799 0.510421 0.107485
0.174689 0.513459 0.110157
0.199579 0.516497 0.112829
0.224469 0.519535 0.115502
0.249359 0.522573 0.118174
0.274248 0.525611 0.120846
0.299138 0.528649 0.123518
0.324028 0.531687 0.126190
0.348918 0.534725 0.128862
0.373808 0.537763 0.131534
0.398698 0.540801 0.134206
0.423588 0.543839 0.136879
0.448477 0.546876 0.139551
0.473367 0.549914 0.142223
0.498257 0.552952 0.144895
0.523147 0.555990 0.147567
0.548037 0.559028 0.150239
0.572927 0.562066 0.152911
0.597817 0.565104 0.155583
0.622706 0.568142 0.158256
0.647596 0.571180 0.160928
0.672486 0.574218 0.163600
0.697376 0.577256 0.166272
0.722266 0.580294 0.168944
0.747156 0.583332 0.171616
0.772046 0.586370 0.174288
0.796935 0.589408 0.176961
0.821825 0.592446 0.179633
0.846715 0.595484 0.182305
0.871605 0.598522 0.184977
0.896495 0.601560 0.187649
0.921385 0.604597 0.190321
0.132682 0.536404 0.111469
0.157572 0.539442 0.114141
0.182462 0.542480 0.116814
0.207352 0.545518 0.119486
0.232241 0.548556 0.122158
0.257131 0.551594 0.124830
0.282021 0.554632 0.127502
0.306911 0.557670 0.130174
0.331801 0.560708 0.132846
0.356691 0.563746 0.135518
0.381581 0.566784 0.138191
0.406470 0.569822 0.140863
0.431360 0.572860 0.143535
0.456250 0.575898 0.146207
0.481140 0.578936 0.148879
0.506030 0.581974 0.151551
0.530920 0.585012 0.154223
0.555810 0.588050 0.156896
0.580699 0.591088 0.159568
0.605589 0.594125 0.162240
0.630479 0.597163 0.164912
0.655369 0.600201 0.167584
0.680259 0.603239 0.170256
0.705149 0.606277 0.172928
0.730039 0.609315 0.175600
0.754928 0.612353 0.178273
0.779818 0.615391 0.180945
0.804708 0.618429 0.183617
0.829598 0.621467 0.186289
0.854488 0.624505 0.188961
0.879378 0.627543 0.191633
0.904268 0.630581 0.194305
0.929157 0.633619 0.196977
0.140455 0.565426 0.118126
0.165345 0.568464 0.120798
0.190234 0.571502 0.123470
0.215124 0.574540 0.126142
0.240014 0.577578 0.128814
0.264904 0.580615 0.131486
0.289794 0.583653 0.134158
0.314684 0.586691 0.136830
0.339574 0.589729 0.139503
0.364463 0.592767 0.142175
0.389353 0.595805 0.144847
0.414243 0.598843 0.147519
0.439133 0.601881 0.150191
0.464023 0.604919 0.152863
0.488913 0.607957 0.155535
0.513803 0.610995 0.158208
0.538692 0.614033 0.160880
0.563582 0.617071 0.163552
0.588472 0.620109 0.166224
0.613362 0.623147 0.168896
0.638252 0.626185 0.171568
0.663142 0.629223 0.174240
0.688032 0.632261 0.176912
0.712921 0.635299 0.179585
0.737811 0.638336 0.182257
0.762701 0.641374 0.184929
0.787591 0.644412 0.187601
0.812481 0.647450 0.190273
0.837371 0.650488 0.192945
0.862261 0.653526 0.195617
0.887151 0.656564 0.198289
0.912040 0.659602 0.200962
0.936930 0.662640 0.203634
0.148227 0.594447 0.124782
0.173117 0.597485 0.127454
0.198007 0.600523 0.130126
0.222897 0.603561 0.132798
0.247787 0.606599 0.135470
0.272677 0.609637 0.138143
0.297567 0.612675 0.140815
0.322456 0.615713 0.143487
0.347346 0.618751 0.146159
0.372236 0.621789 0.148831
0.397126 0.624826 0.151503
0.422016 0.627864 0.154175
0.446906 0.630902 0.156847
0.471796 0.633940 0.159520
0.496685 0.636978 0.162192
0.521575 0.640016 0.164864
0.546465 0.643054 0.167536
0.571355 0.646092 0.170208
0.596245 0.649130 0.172880
0.621135 0.652168 0.175552
0.646025 0.655206 0.178224
0.670915 0.658244 0.180897
0.695804 0.661282 0.183569
0.720694 0.664320 0.186241
0.745584 0.667358 0.188913
0.770474 0.670396 0.191585
0.795364 0.673434 0.194257
0.820254 0.676472 0.196929
0.845144 0.679510 0.199601
0.870033 0.682547 0.202274
0.894923 0.685585 0.204946
0.919813 0.688623 0.207618
0.944703 0.691661 0.210290
0.156000 0.623468 0.131438
0.180890 0.626506 0.134110
0.205780 0.629544 0.136782
0.230670 0.632582 0.139455
0.255560 0.635620 0.142127
0.280449 0.638658 0.144799
0.305339 0.641696 0.147471
0.330229 0.644734 0.150143
0.355119 0.647772 0.152815
0.380009 0.650810 0.155487
0.404899 0.653848 0.158159
0.429789 0.656886 0.160832
0.454678 0.659924 0.163504
0.479568 0.662962 0.166176
0.504458 0.666000 0.168848
0.529348 0.669038 0.171520
0.554238 0.672075 0.174192
0.579128 0.675113 0.176864
0.604018 0.678151 0.179536
0.628908 0.681189 0.182209
0.653797 0.684227 0.184881
0.678687 0.687265 0.187553
0.703577 0.690303 0.190225
0.728467 0.693341 0.192897
0.753357 0.696379 0.195569
0.778247 0.699417 0.198241
0.803137 0.702455 0.200914
0.828026 0.705493 0.203586
0.852916 0.708531 0.206258
0.877806 0.711569 0.208930
0.902696 0.714607 0.211602
0.927586 0.717645 0.214274
0.952476 0.720683 0.216946
0.163773 0.652490 0.138094
0.188663 0.655528 0.140767
0.213553 0.658565 0.143439
0.238442 0.661603 0.146111
0.263332 0.664641 0.148783
0.288222 0.667679 0.151455
0.313112 0.670717 0.154127
0.338002 0.673755 0.156799
0.362892 0.676793 0.159471
0.387782 0.679831 0.162144
0.412672 0.682869 0.164816
0.437561 0.685907 0.167488
0.462451 0.688945 0.170160
0.487341 0.691983 0.172832
0.512231 0.695021 0.175504
0.537121 0.698059 0.178176
0.562011 0.701097 0.180848
0.586901 0.704135 0.183521
0.611790 0.707173 0.186193
0.636680 0.710211 0.188865
0.661570 0.713249 0.191537
0.686460 0.716286 0.194209
0.711350 0.719324 0.196881
0.736240 0.722362 0.199553
0.761130 0.725400 0.202226
0.786019 0.728438 0.204898
0.810909 0.731476 0.207570
0.835799 0.734514 0.210242
0.860689 0.737552 0.212914
0.885579 0.740590 0.215586
0.910469 0.743628 0.218258
0.935359 0.746666 0.220930
0.960248 0.749704 0.223603
0.171546 0.681511 0.144751
0.196435 0.684549 0.147423
0.221325 0.687587 0.150095
0.246215 0.690625 0.152767
0.271105 0.693663 0.155439
0.295995 0.696701 0.158111
0.320885 0.699739 0.160783
0.345775 0.702777 0.163456
0.370665 0.705814 0.166128
0.395554 0.708852 0.168800
0.420444 0.711890 0.171472
0.445334 0.714928 0.174144
0.470224 0.717966 0.176816
0.495114 0.721004 0.179488
0.520004 0.724042 0.182161
0.544894 0.727080 0.184833
0.569783 0.730118 0.187505
0.594673 0.733156 0.190177
0.619563 0.736194 0.192849
0.644453 0.739232 0.195521
0.669343 0.742270 0.198193
0.694233 0.745308 0.200865
0.719123 0.748346 0.203538
0.744012 0.751384 0.206210
0.768902 0.754422 0.208882
0.793792 0.757460 0.211554
0.818682 0.760498 0.214226
0.843572 0.763535 0.216898
0.868462 0.766573 0.219570
0.893352 0.769611 0.222242
0.918241 0.772649 0.224915
0.943131 0.775687 0.227587
0.968021 0.778725 0.230259
0.179318 0.710532 0.151407
0.204208 0.713570 0.154079
0.229098 0.716608 0.156751
0.253988 0.719646 0.159423
0.278878 0.722684 0.162095
0.303768 0.725722 0.164768
0.328658 0.728760 0.167440
0.353547 0.731798 0.170112
0.378437 0.734836 0.172784
0.403327 0.737874 0.175456
0.428217 0.740912 0.178128
0.453107 0.743950 0.180800
0.477997 0.746988 0.183473
0.502887 0.750025 0.186145
0.527776 0.753063 0.188817
0.552666 0.756101 0.191489
0.577556 0.759139 0.194161
0.602446 0.762177 0.196833
0.627336 0.765215 0.199505
0.652226 0.768253 0.202177
0.677116 0.771291 0.204850
0.702005 0.774329 0.207522
0.726895 0.777367 0.210194
0.751785 0.780405 0.212866
0.776675 0.783443 0.215538
0.801565 0.786481 0.218210
0.826455 0.789519 0.220882
0.851345 0.792557 0.223554
0.876234 0.795595 0.226227
0.901124 0.798633 0.228899
0.926014 0.801671 0.231571
0.950904 0.804709 0.234243
0.975794 0.807746 0.236915
0.187091 0.739553 0.158063
0.211981 0.742591 0.160735
0.236871 0.745629 0.163408
0.261761 0.748667 0.166080
0.286651 0.751705 0.168752
0.311540 0.754743 0.171424
0.336430 0.757781 0.174096
0.361320 0.760819 0.176768
0.386210 0.763857 0.179440
0.411100 0.766895 0.182112
0.435990 0.769933 0.184785
0.460880 0.772971 0.187457
0.485769 0.776009 0.190129
0.510659 0.779047 0.192801
0.535549 0.782085 0.195473
0.560439 0.785123 0.198145
0.585329 0.788161 0.200817
0.610219 0.791199 0.203489
0.635109 0.794237 0.206162
0.659998 0.797274 0.208834
0.684888 0.800312 0.211506
0.709778 0.803350 0.214178
